(G-CODE GENERATED BY FLATCAM v8.994 - www.flatcam.org - Version Date: 2020/11/7)

(Name: boitier raw.svg_cnc)
(Type: G-code from Geometry)
(Units: MM)

(Created on Wednesday, 10 December 2025 at 10:11)

(This preprocessor is the default preprocessor used by FlatCAM.)
(It is made to work with MACH3 compatible motion controllers.)

(TOOL DIAMETER: 0.1 mm)
(Feedrate_XY: 80.0 mm/min)
(Feedrate_Z: 60.0 mm/min)
(Feedrate rapids 1500.0 mm/min)

(Z_Cut: -0.24 mm)
(DepthPerCut: 0.12 mm <=>2 passes)
(Z_Move: 2.0 mm)
(Z Start: None mm)
(Z End: 0.2 mm)
(X,Y End: 0.0000, 0.0000 mm)
(Steps per circle: 64)
(Preprocessor Geometry: Default_no_M6)

(X range: -115.0000 ...  109.0000  mm)
(Y range:   -5.0000 ...    5.4266  mm)

(Spindle Speed: 10000.0 RPM)
G21
G90
G94

G01 F80.00

M5
G00 Z0.1000
G00 X0.0000 Y0.0000
T1
(MSG, Change to Tool Dia = 0.1000)
M0
G00 Z0.1000
        
M03 S10000.0
G01 F80.00
G00 X5.9183 Y-1.9034
G01 F60.00
G01 Z-0.1200
G01 F80.00
G01 X6.3344 Y-1.9034
G01 X7.6794 Y1.6244
G01 X7.7014 Y1.6244
G01 X7.6941 Y1.4993
G01 X7.6875 Y1.3787
G01 X7.6818 Y1.2625
G01 X7.6767 Y1.1508
G01 X7.6725 Y1.0436
G01 X7.6690 Y0.9408
G01 X7.6663 Y0.8425
G01 X7.6644 Y0.7486
G01 X7.6632 Y0.6593
G01 X7.6628 Y0.5743
G01 X7.6628 Y-1.9034
G01 X8.1645 Y-1.9034
G01 X8.1645 Y2.1260
G01 X7.4203 Y2.1260
G01 X6.1553 Y-1.1758
G01 X6.1332 Y-1.1758
G01 X4.8902 Y2.1260
G01 X4.1406 Y2.1260
G01 X4.1406 Y-1.9034
G01 X4.6091 Y-1.9034
G01 X4.6091 Y0.5413
G01 X4.6087 Y0.6687
G01 X4.6075 Y0.7921
G01 X4.6054 Y0.9113
G01 X4.6025 Y1.0263
G01 X4.5988 Y1.1373
G01 X4.5942 Y1.2441
G01 X4.5889 Y1.3467
G01 X4.5827 Y1.4453
G01 X4.5756 Y1.5397
G01 X4.5678 Y1.6299
G01 X4.5898 Y1.6299
G01 X5.9183 Y-1.9034
G00 X5.9183 Y-1.9034
G01 F60.00
G01 Z-0.2400
G01 F80.00
G01 X6.3344 Y-1.9034
G01 X7.6794 Y1.6244
G01 X7.7014 Y1.6244
G01 X7.6941 Y1.4993
G01 X7.6875 Y1.3787
G01 X7.6818 Y1.2625
G01 X7.6767 Y1.1508
G01 X7.6725 Y1.0436
G01 X7.6690 Y0.9408
G01 X7.6663 Y0.8425
G01 X7.6644 Y0.7486
G01 X7.6632 Y0.6593
G01 X7.6628 Y0.5743
G01 X7.6628 Y-1.9034
G01 X8.1645 Y-1.9034
G01 X8.1645 Y2.1260
G01 X7.4203 Y2.1260
G01 X6.1553 Y-1.1758
G01 X6.1332 Y-1.1758
G01 X4.8902 Y2.1260
G01 X4.1406 Y2.1260
G01 X4.1406 Y-1.9034
G01 X4.6091 Y-1.9034
G01 X4.6091 Y0.5413
G01 X4.6087 Y0.6687
G01 X4.6075 Y0.7921
G01 X4.6054 Y0.9113
G01 X4.6025 Y1.0263
G01 X4.5988 Y1.1373
G01 X4.5942 Y1.2441
G01 X4.5889 Y1.3467
G01 X4.5827 Y1.4453
G01 X4.5756 Y1.5397
G01 X4.5678 Y1.6299
G01 X4.5898 Y1.6299
G01 X5.9183 Y-1.9034
G00 Z2.0000
G00 X10.0386 Y-1.5589
G01 F60.00
G01 Z-0.1200
G01 F80.00
G01 X9.9874 Y-1.5576
G01 X9.9385 Y-1.5538
G01 X9.8919 Y-1.5474
G01 X9.8476 Y-1.5386
G01 X9.8057 Y-1.5272
G01 X9.7661 Y-1.5132
G01 X9.7287 Y-1.4967
G01 X9.6937 Y-1.4777
G01 X9.6611 Y-1.4562
G01 X9.6307 Y-1.4321
G01 X9.6035 Y-1.4056
G01 X9.5791 Y-1.3770
G01 X9.5576 Y-1.3461
G01 X9.5390 Y-1.3130
G01 X9.5232 Y-1.2777
G01 X9.5103 Y-1.2403
G01 X9.5003 Y-1.2006
G01 X9.4931 Y-1.1587
G01 X9.4888 Y-1.1146
G01 X9.4874 Y-1.0683
G01 X9.4897 Y-1.0071
G01 X9.4969 Y-0.9493
G01 X9.5087 Y-0.8949
G01 X9.5253 Y-0.8438
G01 X9.5466 Y-0.7961
G01 X9.5727 Y-0.7518
G01 X9.6035 Y-0.7108
G01 X9.6391 Y-0.6732
G01 X9.6794 Y-0.6389
G01 X9.7244 Y-0.6080
G01 X9.7752 Y-0.5801
G01 X9.8315 Y-0.5547
G01 X9.8936 Y-0.5318
G01 X9.9612 Y-0.5114
G01 X10.0345 Y-0.4936
G01 X10.1133 Y-0.4784
G01 X10.1978 Y-0.4656
G01 X10.2880 Y-0.4554
G01 X10.3837 Y-0.4478
G01 X10.4851 Y-0.4426
G01 X10.9316 Y-0.4234
G01 X10.9316 Y-0.6962
G01 X10.9292 Y-0.7770
G01 X10.9220 Y-0.8541
G01 X10.9100 Y-0.9274
G01 X10.8932 Y-0.9970
G01 X10.8716 Y-1.0628
G01 X10.8452 Y-1.1248
G01 X10.8141 Y-1.1832
G01 X10.7781 Y-1.2377
G01 X10.7373 Y-1.2885
G01 X10.6918 Y-1.3356
G01 X10.6426 Y-1.3780
G01 X10.5898 Y-1.4160
G01 X10.5334 Y-1.4495
G01 X10.4735 Y-1.4785
G01 X10.4100 Y-1.5031
G01 X10.3429 Y-1.5231
G01 X10.2722 Y-1.5388
G01 X10.1979 Y-1.5499
G01 X10.1200 Y-1.5566
G01 X10.0386 Y-1.5589
G00 X10.0386 Y-1.5589
G01 F60.00
G01 Z-0.2400
G01 F80.00
G01 X9.9874 Y-1.5576
G01 X9.9385 Y-1.5538
G01 X9.8919 Y-1.5474
G01 X9.8476 Y-1.5386
G01 X9.8057 Y-1.5272
G01 X9.7661 Y-1.5132
G01 X9.7287 Y-1.4967
G01 X9.6937 Y-1.4777
G01 X9.6611 Y-1.4562
G01 X9.6307 Y-1.4321
G01 X9.6035 Y-1.4056
G01 X9.5791 Y-1.3770
G01 X9.5576 Y-1.3461
G01 X9.5390 Y-1.3130
G01 X9.5232 Y-1.2777
G01 X9.5103 Y-1.2403
G01 X9.5003 Y-1.2006
G01 X9.4931 Y-1.1587
G01 X9.4888 Y-1.1146
G01 X9.4874 Y-1.0683
G01 X9.4897 Y-1.0071
G01 X9.4969 Y-0.9493
G01 X9.5087 Y-0.8949
G01 X9.5253 Y-0.8438
G01 X9.5466 Y-0.7961
G01 X9.5727 Y-0.7518
G01 X9.6035 Y-0.7108
G01 X9.6391 Y-0.6732
G01 X9.6794 Y-0.6389
G01 X9.7244 Y-0.6080
G01 X9.7752 Y-0.5801
G01 X9.8315 Y-0.5547
G01 X9.8936 Y-0.5318
G01 X9.9612 Y-0.5114
G01 X10.0345 Y-0.4936
G01 X10.1133 Y-0.4784
G01 X10.1978 Y-0.4656
G01 X10.2880 Y-0.4554
G01 X10.3837 Y-0.4478
G01 X10.4851 Y-0.4426
G01 X10.9316 Y-0.4234
G01 X10.9316 Y-0.6962
G01 X10.9292 Y-0.7770
G01 X10.9220 Y-0.8541
G01 X10.9100 Y-0.9274
G01 X10.8932 Y-0.9970
G01 X10.8716 Y-1.0628
G01 X10.8452 Y-1.1248
G01 X10.8141 Y-1.1832
G01 X10.7781 Y-1.2377
G01 X10.7373 Y-1.2885
G01 X10.6918 Y-1.3356
G01 X10.6426 Y-1.3780
G01 X10.5898 Y-1.4160
G01 X10.5334 Y-1.4495
G01 X10.4735 Y-1.4785
G01 X10.4100 Y-1.5031
G01 X10.3429 Y-1.5231
G01 X10.2722 Y-1.5388
G01 X10.1979 Y-1.5499
G01 X10.1200 Y-1.5566
G01 X10.0386 Y-1.5589
G00 Z2.0000
G00 X11.0611 Y-1.9034
G01 F60.00
G01 Z-0.1200
G01 F80.00
G01 X10.9646 Y-1.4734
G01 X10.9426 Y-1.4734
G01 X10.8974 Y-1.5284
G01 X10.8522 Y-1.5797
G01 X10.8070 Y-1.6274
G01 X10.7618 Y-1.6714
G01 X10.7166 Y-1.7118
G01 X10.6714 Y-1.7486
G01 X10.6262 Y-1.7817
G01 X10.5810 Y-1.8112
G01 X10.5358 Y-1.8371
G01 X10.4906 Y-1.8593
G01 X10.4447 Y-1.8781
G01 X10.3965 Y-1.8950
G01 X10.3460 Y-1.9099
G01 X10.2930 Y-1.9228
G01 X10.2377 Y-1.9337
G01 X10.1800 Y-1.9426
G01 X10.1200 Y-1.9496
G01 X10.0575 Y-1.9545
G01 X9.9928 Y-1.9575
G01 X9.9256 Y-1.9585
G01 X9.8382 Y-1.9562
G01 X9.7547 Y-1.9491
G01 X9.6751 Y-1.9374
G01 X9.5993 Y-1.9210
G01 X9.5273 Y-1.8999
G01 X9.4593 Y-1.8742
G01 X9.3950 Y-1.8437
G01 X9.3347 Y-1.8086
G01 X9.2782 Y-1.7687
G01 X9.2255 Y-1.7242
G01 X9.1774 Y-1.6754
G01 X9.1343 Y-1.6228
G01 X9.0962 Y-1.5663
G01 X9.0633 Y-1.5059
G01 X9.0354 Y-1.4417
G01 X9.0126 Y-1.3737
G01 X8.9948 Y-1.3017
G01 X8.9821 Y-1.2259
G01 X8.9745 Y-1.1463
G01 X8.9720 Y-1.0628
G01 X8.9865 Y-0.8874
G01 X9.0301 Y-0.7296
G01 X9.1027 Y-0.5893
G01 X9.2044 Y-0.4666
G01 X9.3351 Y-0.3613
G01 X9.4949 Y-0.2737
G01 X9.6837 Y-0.2035
G01 X9.9016 Y-0.1508
G01 X10.1485 Y-0.1157
G01 X10.4244 Y-0.0981
G01 X10.9371 Y-0.0789
G01 X10.9371 Y0.1003
G01 X10.9356 Y0.1674
G01 X10.9311 Y0.2308
G01 X10.9237 Y0.2906
G01 X10.9133 Y0.3468
G01 X10.8999 Y0.3993
G01 X10.8835 Y0.4482
G01 X10.8641 Y0.4935
G01 X10.8418 Y0.5351
G01 X10.8165 Y0.5731
G01 X10.7882 Y0.6074
G01 X10.7567 Y0.6388
G01 X10.7215 Y0.6669
G01 X10.6828 Y0.6917
G01 X10.6405 Y0.7132
G01 X10.5946 Y0.7314
G01 X10.5452 Y0.7463
G01 X10.4921 Y0.7579
G01 X10.4355 Y0.7662
G01 X10.3752 Y0.7711
G01 X10.3114 Y0.7728
G01 X10.2637 Y0.7721
G01 X10.2165 Y0.7699
G01 X10.1698 Y0.7663
G01 X10.1236 Y0.7613
G01 X10.0779 Y0.7549
G01 X10.0326 Y0.7470
G01 X9.9879 Y0.7377
G01 X9.9437 Y0.7269
G01 X9.8999 Y0.7147
G01 X9.8567 Y0.7011
G01 X9.8145 Y0.6866
G01 X9.7316 Y0.6566
G01 X9.6507 Y0.6253
G01 X9.5717 Y0.5927
G01 X9.5330 Y0.5759
G01 X9.4948 Y0.5587
G01 X9.4571 Y0.5413
G01 X9.3055 Y0.9133
G01 X9.3516 Y0.9371
G01 X9.3986 Y0.9598
G01 X9.4464 Y0.9814
G01 X9.4951 Y1.0020
G01 X9.5446 Y1.0215
G01 X9.5949 Y1.0400
G01 X9.6460 Y1.0575
G01 X9.6979 Y1.0739
G01 X9.7507 Y1.0892
G01 X9.8043 Y1.1035
G01 X9.8583 Y1.1166
G01 X9.9121 Y1.1283
G01 X9.9659 Y1.1386
G01 X10.0195 Y1.1476
G01 X10.0730 Y1.1552
G01 X10.1264 Y1.1614
G01 X10.1798 Y1.1662
G01 X10.2329 Y1.1697
G01 X10.2860 Y1.1717
G01 X10.3390 Y1.1724
G01 X10.4459 Y1.1700
G01 X10.5471 Y1.1627
G01 X10.6428 Y1.1506
G01 X10.7328 Y1.1336
G01 X10.8172 Y1.1118
G01 X10.8959 Y1.0851
G01 X10.9691 Y1.0536
G01 X11.0366 Y1.0172
G01 X11.0985 Y0.9760
G01 X11.1548 Y0.9299
G01 X11.2056 Y0.8785
G01 X11.2510 Y0.8214
G01 X11.2911 Y0.7586
G01 X11.3259 Y0.6900
G01 X11.3553 Y0.6157
G01 X11.3794 Y0.5356
G01 X11.3981 Y0.4499
G01 X11.4114 Y0.3584
G01 X11.4195 Y0.2611
G01 X11.4221 Y0.1582
G01 X11.4221 Y-1.9034
G01 X11.0611 Y-1.9034
G00 X11.0611 Y-1.9034
G01 F60.00
G01 Z-0.2400
G01 F80.00
G01 X10.9646 Y-1.4734
G01 X10.9426 Y-1.4734
G01 X10.8974 Y-1.5284
G01 X10.8522 Y-1.5797
G01 X10.8070 Y-1.6274
G01 X10.7618 Y-1.6714
G01 X10.7166 Y-1.7118
G01 X10.6714 Y-1.7486
G01 X10.6262 Y-1.7817
G01 X10.5810 Y-1.8112
G01 X10.5358 Y-1.8371
G01 X10.4906 Y-1.8593
G01 X10.4447 Y-1.8781
G01 X10.3965 Y-1.8950
G01 X10.3460 Y-1.9099
G01 X10.2930 Y-1.9228
G01 X10.2377 Y-1.9337
G01 X10.1800 Y-1.9426
G01 X10.1200 Y-1.9496
G01 X10.0575 Y-1.9545
G01 X9.9928 Y-1.9575
G01 X9.9256 Y-1.9585
G01 X9.8382 Y-1.9562
G01 X9.7547 Y-1.9491
G01 X9.6751 Y-1.9374
G01 X9.5993 Y-1.9210
G01 X9.5273 Y-1.8999
G01 X9.4593 Y-1.8742
G01 X9.3950 Y-1.8437
G01 X9.3347 Y-1.8086
G01 X9.2782 Y-1.7687
G01 X9.2255 Y-1.7242
G01 X9.1774 Y-1.6754
G01 X9.1343 Y-1.6228
G01 X9.0962 Y-1.5663
G01 X9.0633 Y-1.5059
G01 X9.0354 Y-1.4417
G01 X9.0126 Y-1.3737
G01 X8.9948 Y-1.3017
G01 X8.9821 Y-1.2259
G01 X8.9745 Y-1.1463
G01 X8.9720 Y-1.0628
G01 X8.9865 Y-0.8874
G01 X9.0301 Y-0.7296
G01 X9.1027 Y-0.5893
G01 X9.2044 Y-0.4666
G01 X9.3351 Y-0.3613
G01 X9.4949 Y-0.2737
G01 X9.6837 Y-0.2035
G01 X9.9016 Y-0.1508
G01 X10.1485 Y-0.1157
G01 X10.4244 Y-0.0981
G01 X10.9371 Y-0.0789
G01 X10.9371 Y0.1003
G01 X10.9356 Y0.1674
G01 X10.9311 Y0.2308
G01 X10.9237 Y0.2906
G01 X10.9133 Y0.3468
G01 X10.8999 Y0.3993
G01 X10.8835 Y0.4482
G01 X10.8641 Y0.4935
G01 X10.8418 Y0.5351
G01 X10.8165 Y0.5731
G01 X10.7882 Y0.6074
G01 X10.7567 Y0.6388
G01 X10.7215 Y0.6669
G01 X10.6828 Y0.6917
G01 X10.6405 Y0.7132
G01 X10.5946 Y0.7314
G01 X10.5452 Y0.7463
G01 X10.4921 Y0.7579
G01 X10.4355 Y0.7662
G01 X10.3752 Y0.7711
G01 X10.3114 Y0.7728
G01 X10.2637 Y0.7721
G01 X10.2165 Y0.7699
G01 X10.1698 Y0.7663
G01 X10.1236 Y0.7613
G01 X10.0779 Y0.7549
G01 X10.0326 Y0.7470
G01 X9.9879 Y0.7377
G01 X9.9437 Y0.7269
G01 X9.8999 Y0.7147
G01 X9.8567 Y0.7011
G01 X9.8145 Y0.6866
G01 X9.7316 Y0.6566
G01 X9.6507 Y0.6253
G01 X9.5717 Y0.5927
G01 X9.5330 Y0.5759
G01 X9.4948 Y0.5587
G01 X9.4571 Y0.5413
G01 X9.3055 Y0.9133
G01 X9.3516 Y0.9371
G01 X9.3986 Y0.9598
G01 X9.4464 Y0.9814
G01 X9.4951 Y1.0020
G01 X9.5446 Y1.0215
G01 X9.5949 Y1.0400
G01 X9.6460 Y1.0575
G01 X9.6979 Y1.0739
G01 X9.7507 Y1.0892
G01 X9.8043 Y1.1035
G01 X9.8583 Y1.1166
G01 X9.9121 Y1.1283
G01 X9.9659 Y1.1386
G01 X10.0195 Y1.1476
G01 X10.0730 Y1.1552
G01 X10.1264 Y1.1614
G01 X10.1798 Y1.1662
G01 X10.2329 Y1.1697
G01 X10.2860 Y1.1717
G01 X10.3390 Y1.1724
G01 X10.4459 Y1.1700
G01 X10.5471 Y1.1627
G01 X10.6428 Y1.1506
G01 X10.7328 Y1.1336
G01 X10.8172 Y1.1118
G01 X10.8959 Y1.0851
G01 X10.9691 Y1.0536
G01 X11.0366 Y1.0172
G01 X11.0985 Y0.9760
G01 X11.1548 Y0.9299
G01 X11.2056 Y0.8785
G01 X11.2510 Y0.8214
G01 X11.2911 Y0.7586
G01 X11.3259 Y0.6900
G01 X11.3553 Y0.6157
G01 X11.3794 Y0.5356
G01 X11.3981 Y0.4499
G01 X11.4114 Y0.3584
G01 X11.4195 Y0.2611
G01 X11.4221 Y0.1582
G01 X11.4221 Y-1.9034
G01 X11.0611 Y-1.9034
G00 Z2.0000
G00 X14.3298 Y-1.0683
G01 F60.00
G01 Z-0.1200
G01 F80.00
G01 X14.3266 Y-1.1513
G01 X14.3171 Y-1.2304
G01 X14.3013 Y-1.3058
G01 X14.2791 Y-1.3774
G01 X14.2506 Y-1.4452
G01 X14.2157 Y-1.5091
G01 X14.1745 Y-1.5693
G01 X14.1269 Y-1.6257
G01 X14.0731 Y-1.6782
G01 X14.0128 Y-1.7270
G01 X13.9469 Y-1.7710
G01 X13.8758 Y-1.8103
G01 X13.7996 Y-1.8451
G01 X13.7183 Y-1.8751
G01 X13.6318 Y-1.9006
G01 X13.5402 Y-1.9214
G01 X13.4435 Y-1.9377
G01 X13.3417 Y-1.9492
G01 X13.2347 Y-1.9562
G01 X13.1226 Y-1.9585
G01 X13.0055 Y-1.9566
G01 X12.8932 Y-1.9509
G01 X12.7859 Y-1.9414
G01 X12.6834 Y-1.9281
G01 X12.5859 Y-1.9109
G01 X12.4933 Y-1.8900
G01 X12.4055 Y-1.8653
G01 X12.3227 Y-1.8368
G01 X12.2448 Y-1.8045
G01 X12.1718 Y-1.7683
G01 X12.1718 Y-1.3163
G01 X12.2712 Y-1.3624
G01 X12.3699 Y-1.4036
G01 X12.4679 Y-1.4400
G01 X12.5651 Y-1.4715
G01 X12.6617 Y-1.4982
G01 X12.7575 Y-1.5201
G01 X12.8526 Y-1.5370
G01 X12.9470 Y-1.5492
G01 X13.0407 Y-1.5564
G01 X13.1337 Y-1.5589
G01 X13.2066 Y-1.5576
G01 X13.2754 Y-1.5540
G01 X13.3402 Y-1.5479
G01 X13.4009 Y-1.5395
G01 X13.4575 Y-1.5285
G01 X13.5100 Y-1.5152
G01 X13.5585 Y-1.4994
G01 X13.6029 Y-1.4812
G01 X13.6431 Y-1.4606
G01 X13.6794 Y-1.4376
G01 X13.7118 Y-1.4125
G01 X13.7409 Y-1.3858
G01 X13.7665 Y-1.3574
G01 X13.7887 Y-1.3274
G01 X13.8075 Y-1.2957
G01 X13.8229 Y-1.2623
G01 X13.8349 Y-1.2273
G01 X13.8434 Y-1.1906
G01 X13.8485 Y-1.1523
G01 X13.8502 Y-1.1124
G01 X13.8486 Y-1.0771
G01 X13.8436 Y-1.0429
G01 X13.8354 Y-1.0099
G01 X13.8238 Y-0.9779
G01 X13.8089 Y-0.9470
G01 X13.7907 Y-0.9172
G01 X13.7692 Y-0.8886
G01 X13.7444 Y-0.8610
G01 X13.7163 Y-0.8346
G01 X13.6849 Y-0.8092
G01 X13.6498 Y-0.7840
G01 X13.6096 Y-0.7582
G01 X13.5642 Y-0.7316
G01 X13.5138 Y-0.7043
G01 X13.4582 Y-0.6762
G01 X13.3975 Y-0.6475
G01 X13.3316 Y-0.6180
G01 X13.2607 Y-0.5878
G01 X13.1846 Y-0.5569
G01 X13.0204 Y-0.4928
G01 X12.9426 Y-0.4612
G01 X12.8698 Y-0.4306
G01 X12.8022 Y-0.4010
G01 X12.7395 Y-0.3724
G01 X12.6820 Y-0.3448
G01 X12.6295 Y-0.3181
G01 X12.5821 Y-0.2925
G01 X12.5398 Y-0.2679
G01 X12.5025 Y-0.2442
G01 X12.4687 Y-0.2202
G01 X12.4367 Y-0.1957
G01 X12.4065 Y-0.1706
G01 X12.3782 Y-0.1450
G01 X12.3516 Y-0.1188
G01 X12.3269 Y-0.0921
G01 X12.3040 Y-0.0648
G01 X12.2829 Y-0.0370
G01 X12.2636 Y-0.0086
G01 X12.2462 Y0.0204
G01 X12.2310 Y0.0502
G01 X12.2174 Y0.0813
G01 X12.2054 Y0.1137
G01 X12.1950 Y0.1474
G01 X12.1863 Y0.1823
G01 X12.1791 Y0.2185
G01 X12.1735 Y0.2559
G01 X12.1695 Y0.2947
G01 X12.1671 Y0.3346
G01 X12.1663 Y0.3759
G01 X12.1693 Y0.4487
G01 X12.1784 Y0.5184
G01 X12.1936 Y0.5850
G01 X12.2148 Y0.6484
G01 X12.2421 Y0.7087
G01 X12.2754 Y0.7658
G01 X12.3148 Y0.8198
G01 X12.3603 Y0.8707
G01 X12.4118 Y0.9184
G01 X12.4694 Y0.9629
G01 X12.5323 Y1.0038
G01 X12.5997 Y1.0403
G01 X12.6717 Y1.0726
G01 X12.7481 Y1.1005
G01 X12.8291 Y1.1242
G01 X12.9146 Y1.1435
G01 X13.0046 Y1.1586
G01 X13.0991 Y1.1693
G01 X13.1982 Y1.1758
G01 X13.3018 Y1.1779
G01 X13.4042 Y1.1759
G01 X13.5053 Y1.1698
G01 X13.6051 Y1.1596
G01 X13.7035 Y1.1453
G01 X13.8006 Y1.1269
G01 X13.8964 Y1.1045
G01 X13.9909 Y1.0780
G01 X14.0841 Y1.0474
G01 X14.1759 Y1.0127
G01 X14.2664 Y0.9740
G01 X14.0983 Y0.5799
G01 X14.0071 Y0.6165
G01 X13.9178 Y0.6493
G01 X13.8303 Y0.6782
G01 X13.7446 Y0.7033
G01 X13.6608 Y0.7245
G01 X13.5787 Y0.7419
G01 X13.4985 Y0.7554
G01 X13.4201 Y0.7651
G01 X13.3435 Y0.7708
G01 X13.2687 Y0.7728
G01 X13.2085 Y0.7718
G01 X13.1512 Y0.7688
G01 X13.0969 Y0.7638
G01 X13.0456 Y0.7569
G01 X12.9972 Y0.7480
G01 X12.9519 Y0.7371
G01 X12.9095 Y0.7242
G01 X12.8701 Y0.7093
G01 X12.8336 Y0.6924
G01 X12.8002 Y0.6736
G01 X12.7698 Y0.6535
G01 X12.7426 Y0.6320
G01 X12.7186 Y0.6090
G01 X12.6979 Y0.5845
G01 X12.6803 Y0.5585
G01 X12.6659 Y0.5310
G01 X12.6547 Y0.5020
G01 X12.6467 Y0.4716
G01 X12.6419 Y0.4397
G01 X12.6403 Y0.4062
G01 X12.6417 Y0.3737
G01 X12.6458 Y0.3423
G01 X12.6527 Y0.3120
G01 X12.6624 Y0.2827
G01 X12.6748 Y0.2546
G01 X12.6899 Y0.2276
G01 X12.7078 Y0.2017
G01 X12.7285 Y0.1769
G01 X12.7519 Y0.1532
G01 X12.7781 Y0.1306
G01 X12.8093 Y0.1083
G01 X12.8479 Y0.0842
G01 X12.8938 Y0.0584
G01 X12.9470 Y0.0310
G01 X13.0076 Y0.0018
G01 X13.0754 Y-0.0291
G01 X13.1507 Y-0.0617
G01 X13.2332 Y-0.0960
G01 X13.3231 Y-0.1321
G01 X13.4203 Y-0.1698
G01 X13.4938 Y-0.1977
G01 X13.5634 Y-0.2253
G01 X13.6290 Y-0.2524
G01 X13.6906 Y-0.2792
G01 X13.7483 Y-0.3055
G01 X13.8019 Y-0.3315
G01 X13.8517 Y-0.3571
G01 X13.8974 Y-0.3823
G01 X13.9392 Y-0.4072
G01 X13.9770 Y-0.4316
G01 X14.0124 Y-0.4562
G01 X14.0459 Y-0.4813
G01 X14.0775 Y-0.5071
G01 X14.1071 Y-0.5335
G01 X14.1348 Y-0.5605
G01 X14.1606 Y-0.5881
G01 X14.1844 Y-0.6163
G01 X14.2063 Y-0.6451
G01 X14.2263 Y-0.6745
G01 X14.2444 Y-0.7045
G01 X14.2606 Y-0.7354
G01 X14.2751 Y-0.7675
G01 X14.2879 Y-0.8009
G01 X14.2990 Y-0.8354
G01 X14.3084 Y-0.8712
G01 X14.3161 Y-0.9082
G01 X14.3221 Y-0.9464
G01 X14.3264 Y-0.9858
G01 X14.3289 Y-1.0264
G01 X14.3298 Y-1.0683
G00 X14.3298 Y-1.0683
G01 F60.00
G01 Z-0.2400
G01 F80.00
G01 X14.3266 Y-1.1513
G01 X14.3171 Y-1.2304
G01 X14.3013 Y-1.3058
G01 X14.2791 Y-1.3774
G01 X14.2506 Y-1.4452
G01 X14.2157 Y-1.5091
G01 X14.1745 Y-1.5693
G01 X14.1269 Y-1.6257
G01 X14.0731 Y-1.6782
G01 X14.0128 Y-1.7270
G01 X13.9469 Y-1.7710
G01 X13.8758 Y-1.8103
G01 X13.7996 Y-1.8451
G01 X13.7183 Y-1.8751
G01 X13.6318 Y-1.9006
G01 X13.5402 Y-1.9214
G01 X13.4435 Y-1.9377
G01 X13.3417 Y-1.9492
G01 X13.2347 Y-1.9562
G01 X13.1226 Y-1.9585
G01 X13.0055 Y-1.9566
G01 X12.8932 Y-1.9509
G01 X12.7859 Y-1.9414
G01 X12.6834 Y-1.9281
G01 X12.5859 Y-1.9109
G01 X12.4933 Y-1.8900
G01 X12.4055 Y-1.8653
G01 X12.3227 Y-1.8368
G01 X12.2448 Y-1.8045
G01 X12.1718 Y-1.7683
G01 X12.1718 Y-1.3163
G01 X12.2712 Y-1.3624
G01 X12.3699 Y-1.4036
G01 X12.4679 Y-1.4400
G01 X12.5651 Y-1.4715
G01 X12.6617 Y-1.4982
G01 X12.7575 Y-1.5201
G01 X12.8526 Y-1.5370
G01 X12.9470 Y-1.5492
G01 X13.0407 Y-1.5564
G01 X13.1337 Y-1.5589
G01 X13.2066 Y-1.5576
G01 X13.2754 Y-1.5540
G01 X13.3402 Y-1.5479
G01 X13.4009 Y-1.5395
G01 X13.4575 Y-1.5285
G01 X13.5100 Y-1.5152
G01 X13.5585 Y-1.4994
G01 X13.6029 Y-1.4812
G01 X13.6431 Y-1.4606
G01 X13.6794 Y-1.4376
G01 X13.7118 Y-1.4125
G01 X13.7409 Y-1.3858
G01 X13.7665 Y-1.3574
G01 X13.7887 Y-1.3274
G01 X13.8075 Y-1.2957
G01 X13.8229 Y-1.2623
G01 X13.8349 Y-1.2273
G01 X13.8434 Y-1.1906
G01 X13.8485 Y-1.1523
G01 X13.8502 Y-1.1124
G01 X13.8486 Y-1.0771
G01 X13.8436 Y-1.0429
G01 X13.8354 Y-1.0099
G01 X13.8238 Y-0.9779
G01 X13.8089 Y-0.9470
G01 X13.7907 Y-0.9172
G01 X13.7692 Y-0.8886
G01 X13.7444 Y-0.8610
G01 X13.7163 Y-0.8346
G01 X13.6849 Y-0.8092
G01 X13.6498 Y-0.7840
G01 X13.6096 Y-0.7582
G01 X13.5642 Y-0.7316
G01 X13.5138 Y-0.7043
G01 X13.4582 Y-0.6762
G01 X13.3975 Y-0.6475
G01 X13.3316 Y-0.6180
G01 X13.2607 Y-0.5878
G01 X13.1846 Y-0.5569
G01 X13.0204 Y-0.4928
G01 X12.9426 Y-0.4612
G01 X12.8698 Y-0.4306
G01 X12.8022 Y-0.4010
G01 X12.7395 Y-0.3724
G01 X12.6820 Y-0.3448
G01 X12.6295 Y-0.3181
G01 X12.5821 Y-0.2925
G01 X12.5398 Y-0.2679
G01 X12.5025 Y-0.2442
G01 X12.4687 Y-0.2202
G01 X12.4367 Y-0.1957
G01 X12.4065 Y-0.1706
G01 X12.3782 Y-0.1450
G01 X12.3516 Y-0.1188
G01 X12.3269 Y-0.0921
G01 X12.3040 Y-0.0648
G01 X12.2829 Y-0.0370
G01 X12.2636 Y-0.0086
G01 X12.2462 Y0.0204
G01 X12.2310 Y0.0502
G01 X12.2174 Y0.0813
G01 X12.2054 Y0.1137
G01 X12.1950 Y0.1474
G01 X12.1863 Y0.1823
G01 X12.1791 Y0.2185
G01 X12.1735 Y0.2559
G01 X12.1695 Y0.2947
G01 X12.1671 Y0.3346
G01 X12.1663 Y0.3759
G01 X12.1693 Y0.4487
G01 X12.1784 Y0.5184
G01 X12.1936 Y0.5850
G01 X12.2148 Y0.6484
G01 X12.2421 Y0.7087
G01 X12.2754 Y0.7658
G01 X12.3148 Y0.8198
G01 X12.3603 Y0.8707
G01 X12.4118 Y0.9184
G01 X12.4694 Y0.9629
G01 X12.5323 Y1.0038
G01 X12.5997 Y1.0403
G01 X12.6717 Y1.0726
G01 X12.7481 Y1.1005
G01 X12.8291 Y1.1242
G01 X12.9146 Y1.1435
G01 X13.0046 Y1.1586
G01 X13.0991 Y1.1693
G01 X13.1982 Y1.1758
G01 X13.3018 Y1.1779
G01 X13.4042 Y1.1759
G01 X13.5053 Y1.1698
G01 X13.6051 Y1.1596
G01 X13.7035 Y1.1453
G01 X13.8006 Y1.1269
G01 X13.8964 Y1.1045
G01 X13.9909 Y1.0780
G01 X14.0841 Y1.0474
G01 X14.1759 Y1.0127
G01 X14.2664 Y0.9740
G01 X14.0983 Y0.5799
G01 X14.0071 Y0.6165
G01 X13.9178 Y0.6493
G01 X13.8303 Y0.6782
G01 X13.7446 Y0.7033
G01 X13.6608 Y0.7245
G01 X13.5787 Y0.7419
G01 X13.4985 Y0.7554
G01 X13.4201 Y0.7651
G01 X13.3435 Y0.7708
G01 X13.2687 Y0.7728
G01 X13.2085 Y0.7718
G01 X13.1512 Y0.7688
G01 X13.0969 Y0.7638
G01 X13.0456 Y0.7569
G01 X12.9972 Y0.7480
G01 X12.9519 Y0.7371
G01 X12.9095 Y0.7242
G01 X12.8701 Y0.7093
G01 X12.8336 Y0.6924
G01 X12.8002 Y0.6736
G01 X12.7698 Y0.6535
G01 X12.7426 Y0.6320
G01 X12.7186 Y0.6090
G01 X12.6979 Y0.5845
G01 X12.6803 Y0.5585
G01 X12.6659 Y0.5310
G01 X12.6547 Y0.5020
G01 X12.6467 Y0.4716
G01 X12.6419 Y0.4397
G01 X12.6403 Y0.4062
G01 X12.6417 Y0.3737
G01 X12.6458 Y0.3423
G01 X12.6527 Y0.3120
G01 X12.6624 Y0.2827
G01 X12.6748 Y0.2546
G01 X12.6899 Y0.2276
G01 X12.7078 Y0.2017
G01 X12.7285 Y0.1769
G01 X12.7519 Y0.1532
G01 X12.7781 Y0.1306
G01 X12.8093 Y0.1083
G01 X12.8479 Y0.0842
G01 X12.8938 Y0.0584
G01 X12.9470 Y0.0310
G01 X13.0076 Y0.0018
G01 X13.0754 Y-0.0291
G01 X13.1507 Y-0.0617
G01 X13.2332 Y-0.0960
G01 X13.3231 Y-0.1321
G01 X13.4203 Y-0.1698
G01 X13.4938 Y-0.1977
G01 X13.5634 Y-0.2253
G01 X13.6290 Y-0.2524
G01 X13.6906 Y-0.2792
G01 X13.7483 Y-0.3055
G01 X13.8019 Y-0.3315
G01 X13.8517 Y-0.3571
G01 X13.8974 Y-0.3823
G01 X13.9392 Y-0.4072
G01 X13.9770 Y-0.4316
G01 X14.0124 Y-0.4562
G01 X14.0459 Y-0.4813
G01 X14.0775 Y-0.5071
G01 X14.1071 Y-0.5335
G01 X14.1348 Y-0.5605
G01 X14.1606 Y-0.5881
G01 X14.1844 Y-0.6163
G01 X14.2063 Y-0.6451
G01 X14.2263 Y-0.6745
G01 X14.2444 Y-0.7045
G01 X14.2606 Y-0.7354
G01 X14.2751 Y-0.7675
G01 X14.2879 Y-0.8009
G01 X14.2990 Y-0.8354
G01 X14.3084 Y-0.8712
G01 X14.3161 Y-0.9082
G01 X14.3221 Y-0.9464
G01 X14.3264 Y-0.9858
G01 X14.3289 Y-1.0264
G01 X14.3298 Y-1.0683
G00 Z2.0000
G00 X16.0744 Y-1.5533
G01 F60.00
G01 Z-0.1200
G01 F80.00
G01 X16.1143 Y-1.5526
G01 X16.1568 Y-1.5503
G01 X16.1791 Y-1.5485
G01 X16.2256 Y-1.5439
G01 X16.2499 Y-1.5410
G01 X16.3004 Y-1.5341
G01 X16.3497 Y-1.5261
G01 X16.3939 Y-1.5177
G01 X16.4141 Y-1.5134
G01 X16.4507 Y-1.5043
G01 X16.4822 Y-1.4949
G01 X16.4961 Y-1.4900
G01 X16.4961 Y-1.8703
G01 X16.4815 Y-1.8763
G01 X16.4654 Y-1.8823
G01 X16.4478 Y-1.8882
G01 X16.4079 Y-1.8999
G01 X16.3856 Y-1.9057
G01 X16.3618 Y-1.9114
G01 X16.3095 Y-1.9226
G01 X16.2524 Y-1.9339
G01 X16.2235 Y-1.9391
G01 X16.1946 Y-1.9436
G01 X16.1656 Y-1.9476
G01 X16.1364 Y-1.9509
G01 X16.1071 Y-1.9536
G01 X16.0777 Y-1.9558
G01 X16.0483 Y-1.9573
G01 X16.0187 Y-1.9582
G01 X15.9889 Y-1.9585
G01 X15.8203 Y-1.9492
G01 X15.6695 Y-1.9211
G01 X15.5363 Y-1.8744
G01 X15.4210 Y-1.8090
G01 X15.3234 Y-1.7249
G01 X15.2435 Y-1.6221
G01 X15.1814 Y-1.5007
G01 X15.1370 Y-1.3605
G01 X15.1104 Y-1.2017
G01 X15.1015 Y-1.0242
G01 X15.1015 Y0.7369
G01 X14.6743 Y0.7369
G01 X14.6743 Y0.9740
G01 X15.1070 Y1.1724
G01 X15.3054 Y1.8173
G01 X15.6003 Y1.8173
G01 X15.6003 Y1.1228
G01 X16.4740 Y1.1228
G01 X16.4740 Y0.7369
G01 X15.6003 Y0.7369
G01 X15.6003 Y-1.0104
G01 X15.6016 Y-1.0616
G01 X15.6053 Y-1.1103
G01 X15.6115 Y-1.1566
G01 X15.6202 Y-1.2005
G01 X15.6313 Y-1.2419
G01 X15.6450 Y-1.2809
G01 X15.6611 Y-1.3175
G01 X15.6797 Y-1.3517
G01 X15.7008 Y-1.3835
G01 X15.7244 Y-1.4128
G01 X15.7507 Y-1.4395
G01 X15.7789 Y-1.4634
G01 X15.8091 Y-1.4845
G01 X15.8412 Y-1.5027
G01 X15.8753 Y-1.5182
G01 X15.9112 Y-1.5309
G01 X15.9491 Y-1.5407
G01 X15.9889 Y-1.5477
G01 X16.0307 Y-1.5519
G01 X16.0744 Y-1.5533
G00 X16.0744 Y-1.5533
G01 F60.00
G01 Z-0.2400
G01 F80.00
G01 X16.1143 Y-1.5526
G01 X16.1568 Y-1.5503
G01 X16.1791 Y-1.5485
G01 X16.2256 Y-1.5439
G01 X16.2499 Y-1.5410
G01 X16.3004 Y-1.5341
G01 X16.3497 Y-1.5261
G01 X16.3939 Y-1.5177
G01 X16.4141 Y-1.5134
G01 X16.4507 Y-1.5043
G01 X16.4822 Y-1.4949
G01 X16.4961 Y-1.4900
G01 X16.4961 Y-1.8703
G01 X16.4815 Y-1.8763
G01 X16.4654 Y-1.8823
G01 X16.4478 Y-1.8882
G01 X16.4079 Y-1.8999
G01 X16.3856 Y-1.9057
G01 X16.3618 Y-1.9114
G01 X16.3095 Y-1.9226
G01 X16.2524 Y-1.9339
G01 X16.2235 Y-1.9391
G01 X16.1946 Y-1.9436
G01 X16.1656 Y-1.9476
G01 X16.1364 Y-1.9509
G01 X16.1071 Y-1.9536
G01 X16.0777 Y-1.9558
G01 X16.0483 Y-1.9573
G01 X16.0187 Y-1.9582
G01 X15.9889 Y-1.9585
G01 X15.8203 Y-1.9492
G01 X15.6695 Y-1.9211
G01 X15.5363 Y-1.8744
G01 X15.4210 Y-1.8090
G01 X15.3234 Y-1.7249
G01 X15.2435 Y-1.6221
G01 X15.1814 Y-1.5007
G01 X15.1370 Y-1.3605
G01 X15.1104 Y-1.2017
G01 X15.1015 Y-1.0242
G01 X15.1015 Y0.7369
G01 X14.6743 Y0.7369
G01 X14.6743 Y0.9740
G01 X15.1070 Y1.1724
G01 X15.3054 Y1.8173
G01 X15.6003 Y1.8173
G01 X15.6003 Y1.1228
G01 X16.4740 Y1.1228
G01 X16.4740 Y0.7369
G01 X15.6003 Y0.7369
G01 X15.6003 Y-1.0104
G01 X15.6016 Y-1.0616
G01 X15.6053 Y-1.1103
G01 X15.6115 Y-1.1566
G01 X15.6202 Y-1.2005
G01 X15.6313 Y-1.2419
G01 X15.6450 Y-1.2809
G01 X15.6611 Y-1.3175
G01 X15.6797 Y-1.3517
G01 X15.7008 Y-1.3835
G01 X15.7244 Y-1.4128
G01 X15.7507 Y-1.4395
G01 X15.7789 Y-1.4634
G01 X15.8091 Y-1.4845
G01 X15.8412 Y-1.5027
G01 X15.8753 Y-1.5182
G01 X15.9112 Y-1.5309
G01 X15.9491 Y-1.5407
G01 X15.9889 Y-1.5477
G01 X16.0307 Y-1.5519
G01 X16.0744 Y-1.5533
G00 Z2.0000
G00 X18.3867 Y-1.9585
G01 F60.00
G01 Z-0.1200
G01 F80.00
G01 X18.2535 Y-1.9544
G01 X18.1261 Y-1.9421
G01 X18.0046 Y-1.9215
G01 X17.8889 Y-1.8928
G01 X17.7790 Y-1.8558
G01 X17.6750 Y-1.8107
G01 X17.5768 Y-1.7573
G01 X17.4845 Y-1.6957
G01 X17.3980 Y-1.6259
G01 X17.3174 Y-1.5478
G01 X17.2441 Y-1.4621
G01 X17.1785 Y-1.3701
G01 X17.1206 Y-1.2720
G01 X17.0704 Y-1.1677
G01 X17.0280 Y-1.0573
G01 X16.9933 Y-0.9406
G01 X16.9663 Y-0.8178
G01 X16.9470 Y-0.6888
G01 X16.9354 Y-0.5537
G01 X16.9315 Y-0.4123
G01 X16.9351 Y-0.2698
G01 X16.9460 Y-0.1332
G01 X16.9640 Y-0.0026
G01 X16.9893 Y0.1221
G01 X17.0218 Y0.2409
G01 X17.0615 Y0.3536
G01 X17.1084 Y0.4605
G01 X17.1626 Y0.5613
G01 X17.2240 Y0.6563
G01 X17.2926 Y0.7452
G01 X17.3673 Y0.8274
G01 X17.4471 Y0.9010
G01 X17.5320 Y0.9659
G01 X17.6220 Y1.0221
G01 X17.7170 Y1.0697
G01 X17.8171 Y1.1087
G01 X17.9223 Y1.1390
G01 X18.0325 Y1.1606
G01 X18.1478 Y1.1736
G01 X18.2682 Y1.1779
G01 X18.3800 Y1.1742
G01 X18.4872 Y1.1631
G01 X18.5897 Y1.1447
G01 X18.6876 Y1.1188
G01 X18.7809 Y1.0856
G01 X18.8695 Y1.0450
G01 X18.9535 Y0.9970
G01 X19.0329 Y0.9416
G01 X19.1076 Y0.8788
G01 X19.1777 Y0.8086
G01 X19.2421 Y0.7327
G01 X19.2998 Y0.6515
G01 X19.3506 Y0.5651
G01 X19.3947 Y0.4735
G01 X19.4320 Y0.3766
G01 X19.4625 Y0.2745
G01 X19.4862 Y0.1671
G01 X19.5032 Y0.0545
G01 X19.5133 Y-0.0633
G01 X19.5167 Y-0.1863
G01 X19.5167 Y-0.4867
G01 X17.4442 Y-0.4867
G01 X17.4493 Y-0.5873
G01 X17.4590 Y-0.6830
G01 X17.4735 Y-0.7737
G01 X17.4927 Y-0.8594
G01 X17.5165 Y-0.9401
G01 X17.5450 Y-1.0159
G01 X17.5782 Y-1.0867
G01 X17.6161 Y-1.1526
G01 X17.6587 Y-1.2135
G01 X17.7060 Y-1.2695
G01 X17.7577 Y-1.3203
G01 X17.8135 Y-1.3657
G01 X17.8734 Y-1.4058
G01 X17.9375 Y-1.4406
G01 X18.0057 Y-1.4700
G01 X18.0781 Y-1.4940
G01 X18.1545 Y-1.5128
G01 X18.2352 Y-1.5261
G01 X18.3199 Y-1.5341
G01 X18.4088 Y-1.5368
G01 X18.4570 Y-1.5364
G01 X18.5048 Y-1.5352
G01 X18.5521 Y-1.5331
G01 X18.5988 Y-1.5302
G01 X18.6451 Y-1.5265
G01 X18.6909 Y-1.5219
G01 X18.7362 Y-1.5166
G01 X18.7810 Y-1.5104
G01 X18.8253 Y-1.5033
G01 X18.8690 Y-1.4955
G01 X18.9133 Y-1.4859
G01 X18.9591 Y-1.4746
G01 X19.0064 Y-1.4618
G01 X19.0551 Y-1.4474
G01 X19.1054 Y-1.4314
G01 X19.1571 Y-1.4138
G01 X19.2103 Y-1.3946
G01 X19.2650 Y-1.3738
G01 X19.3212 Y-1.3514
G01 X19.3789 Y-1.3274
G01 X19.3789 Y-1.7628
G01 X19.3291 Y-1.7837
G01 X19.2798 Y-1.8033
G01 X19.2312 Y-1.8216
G01 X19.1831 Y-1.8387
G01 X19.1357 Y-1.8545
G01 X19.0889 Y-1.8690
G01 X19.0427 Y-1.8822
G01 X18.9970 Y-1.8942
G01 X18.9520 Y-1.9049
G01 X18.9076 Y-1.9144
G01 X18.8627 Y-1.9228
G01 X18.8162 Y-1.9303
G01 X18.7681 Y-1.9369
G01 X18.7185 Y-1.9426
G01 X18.6672 Y-1.9475
G01 X18.6143 Y-1.9514
G01 X18.5598 Y-1.9545
G01 X18.5037 Y-1.9567
G01 X18.4460 Y-1.9581
G01 X18.3867 Y-1.9585
G00 X18.3867 Y-1.9585
G01 F60.00
G01 Z-0.2400
G01 F80.00
G01 X18.2535 Y-1.9544
G01 X18.1261 Y-1.9421
G01 X18.0046 Y-1.9215
G01 X17.8889 Y-1.8928
G01 X17.7790 Y-1.8558
G01 X17.6750 Y-1.8107
G01 X17.5768 Y-1.7573
G01 X17.4845 Y-1.6957
G01 X17.3980 Y-1.6259
G01 X17.3174 Y-1.5478
G01 X17.2441 Y-1.4621
G01 X17.1785 Y-1.3701
G01 X17.1206 Y-1.2720
G01 X17.0704 Y-1.1677
G01 X17.0280 Y-1.0573
G01 X16.9933 Y-0.9406
G01 X16.9663 Y-0.8178
G01 X16.9470 Y-0.6888
G01 X16.9354 Y-0.5537
G01 X16.9315 Y-0.4123
G01 X16.9351 Y-0.2698
G01 X16.9460 Y-0.1332
G01 X16.9640 Y-0.0026
G01 X16.9893 Y0.1221
G01 X17.0218 Y0.2409
G01 X17.0615 Y0.3536
G01 X17.1084 Y0.4605
G01 X17.1626 Y0.5613
G01 X17.2240 Y0.6563
G01 X17.2926 Y0.7452
G01 X17.3673 Y0.8274
G01 X17.4471 Y0.9010
G01 X17.5320 Y0.9659
G01 X17.6220 Y1.0221
G01 X17.7170 Y1.0697
G01 X17.8171 Y1.1087
G01 X17.9223 Y1.1390
G01 X18.0325 Y1.1606
G01 X18.1478 Y1.1736
G01 X18.2682 Y1.1779
G01 X18.3800 Y1.1742
G01 X18.4872 Y1.1631
G01 X18.5897 Y1.1447
G01 X18.6876 Y1.1188
G01 X18.7809 Y1.0856
G01 X18.8695 Y1.0450
G01 X18.9535 Y0.9970
G01 X19.0329 Y0.9416
G01 X19.1076 Y0.8788
G01 X19.1777 Y0.8086
G01 X19.2421 Y0.7327
G01 X19.2998 Y0.6515
G01 X19.3506 Y0.5651
G01 X19.3947 Y0.4735
G01 X19.4320 Y0.3766
G01 X19.4625 Y0.2745
G01 X19.4862 Y0.1671
G01 X19.5032 Y0.0545
G01 X19.5133 Y-0.0633
G01 X19.5167 Y-0.1863
G01 X19.5167 Y-0.4867
G01 X17.4442 Y-0.4867
G01 X17.4493 Y-0.5873
G01 X17.4590 Y-0.6830
G01 X17.4735 Y-0.7737
G01 X17.4927 Y-0.8594
G01 X17.5165 Y-0.9401
G01 X17.5450 Y-1.0159
G01 X17.5782 Y-1.0867
G01 X17.6161 Y-1.1526
G01 X17.6587 Y-1.2135
G01 X17.7060 Y-1.2695
G01 X17.7577 Y-1.3203
G01 X17.8135 Y-1.3657
G01 X17.8734 Y-1.4058
G01 X17.9375 Y-1.4406
G01 X18.0057 Y-1.4700
G01 X18.0781 Y-1.4940
G01 X18.1545 Y-1.5128
G01 X18.2352 Y-1.5261
G01 X18.3199 Y-1.5341
G01 X18.4088 Y-1.5368
G01 X18.4570 Y-1.5364
G01 X18.5048 Y-1.5352
G01 X18.5521 Y-1.5331
G01 X18.5988 Y-1.5302
G01 X18.6451 Y-1.5265
G01 X18.6909 Y-1.5219
G01 X18.7362 Y-1.5166
G01 X18.7810 Y-1.5104
G01 X18.8253 Y-1.5033
G01 X18.8690 Y-1.4955
G01 X18.9133 Y-1.4859
G01 X18.9591 Y-1.4746
G01 X19.0064 Y-1.4618
G01 X19.0551 Y-1.4474
G01 X19.1054 Y-1.4314
G01 X19.1571 Y-1.4138
G01 X19.2103 Y-1.3946
G01 X19.2650 Y-1.3738
G01 X19.3212 Y-1.3514
G01 X19.3789 Y-1.3274
G01 X19.3789 Y-1.7628
G01 X19.3291 Y-1.7837
G01 X19.2798 Y-1.8033
G01 X19.2312 Y-1.8216
G01 X19.1831 Y-1.8387
G01 X19.1357 Y-1.8545
G01 X19.0889 Y-1.8690
G01 X19.0427 Y-1.8822
G01 X18.9970 Y-1.8942
G01 X18.9520 Y-1.9049
G01 X18.9076 Y-1.9144
G01 X18.8627 Y-1.9228
G01 X18.8162 Y-1.9303
G01 X18.7681 Y-1.9369
G01 X18.7185 Y-1.9426
G01 X18.6672 Y-1.9475
G01 X18.6143 Y-1.9514
G01 X18.5598 Y-1.9545
G01 X18.5037 Y-1.9567
G01 X18.4460 Y-1.9581
G01 X18.3867 Y-1.9585
G00 Z2.0000
G00 X18.2627 Y0.7728
G01 F60.00
G01 Z-0.1200
G01 F80.00
G01 X18.3306 Y0.7706
G01 X18.3953 Y0.7640
G01 X18.4569 Y0.7529
G01 X18.5154 Y0.7375
G01 X18.5707 Y0.7177
G01 X18.6229 Y0.6934
G01 X18.6719 Y0.6647
G01 X18.7178 Y0.6317
G01 X18.7605 Y0.5942
G01 X18.8001 Y0.5523
G01 X18.8363 Y0.5062
G01 X18.8688 Y0.4559
G01 X18.8976 Y0.4016
G01 X18.9227 Y0.3433
G01 X18.9442 Y0.2808
G01 X18.9619 Y0.2143
G01 X18.9759 Y0.1437
G01 X18.9862 Y0.0690
G01 X18.9929 Y-0.0098
G01 X18.9958 Y-0.0926
G01 X17.4552 Y-0.0926
G01 X17.4646 Y-0.0128
G01 X17.4773 Y0.0634
G01 X17.4935 Y0.1360
G01 X17.5129 Y0.2050
G01 X17.5358 Y0.2705
G01 X17.5620 Y0.3324
G01 X17.5916 Y0.3906
G01 X17.6245 Y0.4454
G01 X17.6608 Y0.4965
G01 X17.7005 Y0.5440
G01 X17.7433 Y0.5875
G01 X17.7891 Y0.6264
G01 X17.8379 Y0.6607
G01 X17.8896 Y0.6904
G01 X17.9444 Y0.7156
G01 X18.0021 Y0.7362
G01 X18.0628 Y0.7522
G01 X18.1265 Y0.7636
G01 X18.1931 Y0.7705
G01 X18.2627 Y0.7728
G00 X18.2627 Y0.7728
G01 F60.00
G01 Z-0.2400
G01 F80.00
G01 X18.3306 Y0.7706
G01 X18.3953 Y0.7640
G01 X18.4569 Y0.7529
G01 X18.5154 Y0.7375
G01 X18.5707 Y0.7177
G01 X18.6229 Y0.6934
G01 X18.6719 Y0.6647
G01 X18.7178 Y0.6317
G01 X18.7605 Y0.5942
G01 X18.8001 Y0.5523
G01 X18.8363 Y0.5062
G01 X18.8688 Y0.4559
G01 X18.8976 Y0.4016
G01 X18.9227 Y0.3433
G01 X18.9442 Y0.2808
G01 X18.9619 Y0.2143
G01 X18.9759 Y0.1437
G01 X18.9862 Y0.0690
G01 X18.9929 Y-0.0098
G01 X18.9958 Y-0.0926
G01 X17.4552 Y-0.0926
G01 X17.4646 Y-0.0128
G01 X17.4773 Y0.0634
G01 X17.4935 Y0.1360
G01 X17.5129 Y0.2050
G01 X17.5358 Y0.2705
G01 X17.5620 Y0.3324
G01 X17.5916 Y0.3906
G01 X17.6245 Y0.4454
G01 X17.6608 Y0.4965
G01 X17.7005 Y0.5440
G01 X17.7433 Y0.5875
G01 X17.7891 Y0.6264
G01 X17.8379 Y0.6607
G01 X17.8896 Y0.6904
G01 X17.9444 Y0.7156
G01 X18.0021 Y0.7362
G01 X18.0628 Y0.7522
G01 X18.1265 Y0.7636
G01 X18.1931 Y0.7705
G01 X18.2627 Y0.7728
G00 Z2.0000
G00 X21.6940 Y1.1779
G01 F60.00
G01 Z-0.1200
G01 F80.00
G01 X21.7338 Y1.1776
G01 X21.7726 Y1.1766
G01 X21.8105 Y1.1749
G01 X21.8475 Y1.1726
G01 X21.8835 Y1.1697
G01 X21.9186 Y1.1660
G01 X21.9527 Y1.1617
G01 X21.9859 Y1.1568
G01 X22.0182 Y1.1511
G01 X22.0496 Y1.1448
G01 X21.9889 Y0.6873
G01 X21.9554 Y0.6947
G01 X21.9220 Y0.7012
G01 X21.8888 Y0.7070
G01 X21.8557 Y0.7120
G01 X21.8229 Y0.7163
G01 X21.7902 Y0.7198
G01 X21.7576 Y0.7225
G01 X21.7252 Y0.7244
G01 X21.6930 Y0.7255
G01 X21.6610 Y0.7259
G01 X21.6133 Y0.7246
G01 X21.5664 Y0.7206
G01 X21.5201 Y0.7140
G01 X21.4744 Y0.7048
G01 X21.4294 Y0.6929
G01 X21.3851 Y0.6783
G01 X21.3415 Y0.6611
G01 X21.2985 Y0.6413
G01 X21.2561 Y0.6188
G01 X21.2145 Y0.5936
G01 X21.1746 Y0.5662
G01 X21.1364 Y0.5366
G01 X21.1000 Y0.5051
G01 X21.0654 Y0.4715
G01 X21.0326 Y0.4358
G01 X21.0015 Y0.3982
G01 X20.9722 Y0.3585
G01 X20.9446 Y0.3167
G01 X20.9188 Y0.2729
G01 X20.8948 Y0.2271
G01 X20.8728 Y0.1802
G01 X20.8531 Y0.1324
G01 X20.8357 Y0.0835
G01 X20.8207 Y0.0335
G01 X20.8079 Y-0.0175
G01 X20.7975 Y-0.0696
G01 X20.7894 Y-0.1227
G01 X20.7836 Y-0.1769
G01 X20.7802 Y-0.2321
G01 X20.7790 Y-0.2883
G01 X20.7790 Y-1.9034
G01 X20.2829 Y-1.9034
G01 X20.2829 Y1.1228
G01 X20.6908 Y1.1228
G01 X20.7459 Y0.5688
G01 X20.7680 Y0.5688
G01 X20.8033 Y0.6275
G01 X20.8400 Y0.6832
G01 X20.8779 Y0.7359
G01 X20.9170 Y0.7858
G01 X20.9575 Y0.8327
G01 X20.9992 Y0.8767
G01 X21.0421 Y0.9178
G01 X21.0864 Y0.9560
G01 X21.1319 Y0.9913
G01 X21.1786 Y1.0236
G01 X21.2265 Y1.0529
G01 X21.2751 Y1.0791
G01 X21.3246 Y1.1023
G01 X21.3749 Y1.1224
G01 X21.4260 Y1.1393
G01 X21.4779 Y1.1532
G01 X21.5307 Y1.1640
G01 X21.5843 Y1.1717
G01 X21.6388 Y1.1764
G01 X21.6940 Y1.1779
G00 X21.6940 Y1.1779
G01 F60.00
G01 Z-0.2400
G01 F80.00
G01 X21.7338 Y1.1776
G01 X21.7726 Y1.1766
G01 X21.8105 Y1.1749
G01 X21.8475 Y1.1726
G01 X21.8835 Y1.1697
G01 X21.9186 Y1.1660
G01 X21.9527 Y1.1617
G01 X21.9859 Y1.1568
G01 X22.0182 Y1.1511
G01 X22.0496 Y1.1448
G01 X21.9889 Y0.6873
G01 X21.9554 Y0.6947
G01 X21.9220 Y0.7012
G01 X21.8888 Y0.7070
G01 X21.8557 Y0.7120
G01 X21.8229 Y0.7163
G01 X21.7902 Y0.7198
G01 X21.7576 Y0.7225
G01 X21.7252 Y0.7244
G01 X21.6930 Y0.7255
G01 X21.6610 Y0.7259
G01 X21.6133 Y0.7246
G01 X21.5664 Y0.7206
G01 X21.5201 Y0.7140
G01 X21.4744 Y0.7048
G01 X21.4294 Y0.6929
G01 X21.3851 Y0.6783
G01 X21.3415 Y0.6611
G01 X21.2985 Y0.6413
G01 X21.2561 Y0.6188
G01 X21.2145 Y0.5936
G01 X21.1746 Y0.5662
G01 X21.1364 Y0.5366
G01 X21.1000 Y0.5051
G01 X21.0654 Y0.4715
G01 X21.0326 Y0.4358
G01 X21.0015 Y0.3982
G01 X20.9722 Y0.3585
G01 X20.9446 Y0.3167
G01 X20.9188 Y0.2729
G01 X20.8948 Y0.2271
G01 X20.8728 Y0.1802
G01 X20.8531 Y0.1324
G01 X20.8357 Y0.0835
G01 X20.8207 Y0.0335
G01 X20.8079 Y-0.0175
G01 X20.7975 Y-0.0696
G01 X20.7894 Y-0.1227
G01 X20.7836 Y-0.1769
G01 X20.7802 Y-0.2321
G01 X20.7790 Y-0.2883
G01 X20.7790 Y-1.9034
G01 X20.2829 Y-1.9034
G01 X20.2829 Y1.1228
G01 X20.6908 Y1.1228
G01 X20.7459 Y0.5688
G01 X20.7680 Y0.5688
G01 X20.8033 Y0.6275
G01 X20.8400 Y0.6832
G01 X20.8779 Y0.7359
G01 X20.9170 Y0.7858
G01 X20.9575 Y0.8327
G01 X20.9992 Y0.8767
G01 X21.0421 Y0.9178
G01 X21.0864 Y0.9560
G01 X21.1319 Y0.9913
G01 X21.1786 Y1.0236
G01 X21.2265 Y1.0529
G01 X21.2751 Y1.0791
G01 X21.3246 Y1.1023
G01 X21.3749 Y1.1224
G01 X21.4260 Y1.1393
G01 X21.4779 Y1.1532
G01 X21.5307 Y1.1640
G01 X21.5843 Y1.1717
G01 X21.6388 Y1.1764
G01 X21.6940 Y1.1779
G00 Z2.0000
G00 X25.5608 Y-1.9034
G01 F60.00
G01 Z-0.1200
G01 F80.00
G01 X25.0757 Y-1.9034
G01 X25.0757 Y0.8665
G01 X25.0812 Y1.1338
G01 X25.0861 Y1.2654
G01 X25.0895 Y1.3901
G01 X25.0944 Y1.5066
G01 X25.0978 Y1.6079
G01 X25.0456 Y1.5533
G01 X25.0007 Y1.5082
G01 X24.9786 Y1.4873
G01 X24.9407 Y1.4535
G01 X24.8636 Y1.3819
G01 X24.7643 Y1.2964
G01 X24.3564 Y0.9629
G01 X24.0918 Y1.3019
G01 X25.1474 Y2.1260
G01 X25.5608 Y2.1260
G01 X25.5608 Y-1.9034
G00 X25.5608 Y-1.9034
G01 F60.00
G01 Z-0.2400
G01 F80.00
G01 X25.0757 Y-1.9034
G01 X25.0757 Y0.8665
G01 X25.0812 Y1.1338
G01 X25.0861 Y1.2654
G01 X25.0895 Y1.3901
G01 X25.0944 Y1.5066
G01 X25.0978 Y1.6079
G01 X25.0456 Y1.5533
G01 X25.0007 Y1.5082
G01 X24.9786 Y1.4873
G01 X24.9407 Y1.4535
G01 X24.8636 Y1.3819
G01 X24.7643 Y1.2964
G01 X24.3564 Y0.9629
G01 X24.0918 Y1.3019
G01 X25.1474 Y2.1260
G01 X25.5608 Y2.1260
G01 X25.5608 Y-1.9034
G00 Z2.0000
G00 X38.7695 Y-1.9034
G01 F60.00
G01 Z-0.1200
G01 F80.00
G01 X39.1857 Y-1.9034
G01 X40.5307 Y1.6244
G01 X40.5527 Y1.6244
G01 X40.5454 Y1.4993
G01 X40.5388 Y1.3787
G01 X40.5330 Y1.2625
G01 X40.5280 Y1.1508
G01 X40.5238 Y1.0436
G01 X40.5203 Y0.9408
G01 X40.5176 Y0.8425
G01 X40.5157 Y0.7486
G01 X40.5145 Y0.6593
G01 X40.5141 Y0.5743
G01 X40.5141 Y-1.9034
G01 X41.0157 Y-1.9034
G01 X41.0157 Y2.1260
G01 X40.2716 Y2.1260
G01 X39.0066 Y-1.1758
G01 X38.9845 Y-1.1758
G01 X37.7415 Y2.1260
G01 X36.9919 Y2.1260
G01 X36.9919 Y-1.9034
G01 X37.4604 Y-1.9034
G01 X37.4604 Y0.5413
G01 X37.4600 Y0.6687
G01 X37.4587 Y0.7921
G01 X37.4567 Y0.9113
G01 X37.4538 Y1.0263
G01 X37.4501 Y1.1373
G01 X37.4455 Y1.2441
G01 X37.4401 Y1.3467
G01 X37.4339 Y1.4453
G01 X37.4269 Y1.5397
G01 X37.4191 Y1.6299
G01 X37.4411 Y1.6299
G01 X38.7695 Y-1.9034
G00 X38.7695 Y-1.9034
G01 F60.00
G01 Z-0.2400
G01 F80.00
G01 X39.1857 Y-1.9034
G01 X40.5307 Y1.6244
G01 X40.5527 Y1.6244
G01 X40.5454 Y1.4993
G01 X40.5388 Y1.3787
G01 X40.5330 Y1.2625
G01 X40.5280 Y1.1508
G01 X40.5238 Y1.0436
G01 X40.5203 Y0.9408
G01 X40.5176 Y0.8425
G01 X40.5157 Y0.7486
G01 X40.5145 Y0.6593
G01 X40.5141 Y0.5743
G01 X40.5141 Y-1.9034
G01 X41.0157 Y-1.9034
G01 X41.0157 Y2.1260
G01 X40.2716 Y2.1260
G01 X39.0066 Y-1.1758
G01 X38.9845 Y-1.1758
G01 X37.7415 Y2.1260
G01 X36.9919 Y2.1260
G01 X36.9919 Y-1.9034
G01 X37.4604 Y-1.9034
G01 X37.4604 Y0.5413
G01 X37.4600 Y0.6687
G01 X37.4587 Y0.7921
G01 X37.4567 Y0.9113
G01 X37.4538 Y1.0263
G01 X37.4501 Y1.1373
G01 X37.4455 Y1.2441
G01 X37.4401 Y1.3467
G01 X37.4339 Y1.4453
G01 X37.4269 Y1.5397
G01 X37.4191 Y1.6299
G01 X37.4411 Y1.6299
G01 X38.7695 Y-1.9034
G00 Z2.0000
G00 X42.8899 Y-1.5589
G01 F60.00
G01 Z-0.1200
G01 F80.00
G01 X42.8387 Y-1.5576
G01 X42.7898 Y-1.5538
G01 X42.7432 Y-1.5474
G01 X42.6989 Y-1.5386
G01 X42.6570 Y-1.5272
G01 X42.6173 Y-1.5132
G01 X42.5800 Y-1.4967
G01 X42.5450 Y-1.4777
G01 X42.5123 Y-1.4562
G01 X42.4820 Y-1.4321
G01 X42.4547 Y-1.4056
G01 X42.4304 Y-1.3770
G01 X42.4089 Y-1.3461
G01 X42.3902 Y-1.3130
G01 X42.3745 Y-1.2777
G01 X42.3616 Y-1.2403
G01 X42.3515 Y-1.2006
G01 X42.3444 Y-1.1587
G01 X42.3401 Y-1.1146
G01 X42.3386 Y-1.0683
G01 X42.3410 Y-1.0071
G01 X42.3481 Y-0.9493
G01 X42.3600 Y-0.8949
G01 X42.3766 Y-0.8438
G01 X42.3979 Y-0.7961
G01 X42.4240 Y-0.7518
G01 X42.4548 Y-0.7108
G01 X42.4903 Y-0.6732
G01 X42.5306 Y-0.6389
G01 X42.5757 Y-0.6080
G01 X42.6264 Y-0.5801
G01 X42.6828 Y-0.5547
G01 X42.7448 Y-0.5318
G01 X42.8125 Y-0.5114
G01 X42.8857 Y-0.4936
G01 X42.9646 Y-0.4784
G01 X43.0491 Y-0.4656
G01 X43.1392 Y-0.4554
G01 X43.2350 Y-0.4478
G01 X43.3363 Y-0.4426
G01 X43.7828 Y-0.4234
G01 X43.7828 Y-0.6962
G01 X43.7804 Y-0.7770
G01 X43.7732 Y-0.8541
G01 X43.7612 Y-0.9274
G01 X43.7445 Y-0.9970
G01 X43.7229 Y-1.0628
G01 X43.6965 Y-1.1248
G01 X43.6653 Y-1.1832
G01 X43.6294 Y-1.2377
G01 X43.5886 Y-1.2885
G01 X43.5431 Y-1.3356
G01 X43.4939 Y-1.3780
G01 X43.4411 Y-1.4160
G01 X43.3847 Y-1.4495
G01 X43.3248 Y-1.4785
G01 X43.2612 Y-1.5031
G01 X43.1941 Y-1.5231
G01 X43.1234 Y-1.5388
G01 X43.0492 Y-1.5499
G01 X42.9713 Y-1.5566
G01 X42.8899 Y-1.5589
G00 X42.8899 Y-1.5589
G01 F60.00
G01 Z-0.2400
G01 F80.00
G01 X42.8387 Y-1.5576
G01 X42.7898 Y-1.5538
G01 X42.7432 Y-1.5474
G01 X42.6989 Y-1.5386
G01 X42.6570 Y-1.5272
G01 X42.6173 Y-1.5132
G01 X42.5800 Y-1.4967
G01 X42.5450 Y-1.4777
G01 X42.5123 Y-1.4562
G01 X42.4820 Y-1.4321
G01 X42.4547 Y-1.4056
G01 X42.4304 Y-1.3770
G01 X42.4089 Y-1.3461
G01 X42.3902 Y-1.3130
G01 X42.3745 Y-1.2777
G01 X42.3616 Y-1.2403
G01 X42.3515 Y-1.2006
G01 X42.3444 Y-1.1587
G01 X42.3401 Y-1.1146
G01 X42.3386 Y-1.0683
G01 X42.3410 Y-1.0071
G01 X42.3481 Y-0.9493
G01 X42.3600 Y-0.8949
G01 X42.3766 Y-0.8438
G01 X42.3979 Y-0.7961
G01 X42.4240 Y-0.7518
G01 X42.4548 Y-0.7108
G01 X42.4903 Y-0.6732
G01 X42.5306 Y-0.6389
G01 X42.5757 Y-0.6080
G01 X42.6264 Y-0.5801
G01 X42.6828 Y-0.5547
G01 X42.7448 Y-0.5318
G01 X42.8125 Y-0.5114
G01 X42.8857 Y-0.4936
G01 X42.9646 Y-0.4784
G01 X43.0491 Y-0.4656
G01 X43.1392 Y-0.4554
G01 X43.2350 Y-0.4478
G01 X43.3363 Y-0.4426
G01 X43.7828 Y-0.4234
G01 X43.7828 Y-0.6962
G01 X43.7804 Y-0.7770
G01 X43.7732 Y-0.8541
G01 X43.7612 Y-0.9274
G01 X43.7445 Y-0.9970
G01 X43.7229 Y-1.0628
G01 X43.6965 Y-1.1248
G01 X43.6653 Y-1.1832
G01 X43.6294 Y-1.2377
G01 X43.5886 Y-1.2885
G01 X43.5431 Y-1.3356
G01 X43.4939 Y-1.3780
G01 X43.4411 Y-1.4160
G01 X43.3847 Y-1.4495
G01 X43.3248 Y-1.4785
G01 X43.2612 Y-1.5031
G01 X43.1941 Y-1.5231
G01 X43.1234 Y-1.5388
G01 X43.0492 Y-1.5499
G01 X42.9713 Y-1.5566
G01 X42.8899 Y-1.5589
G00 Z2.0000
G00 X43.9124 Y-1.9034
G01 F60.00
G01 Z-0.1200
G01 F80.00
G01 X43.8159 Y-1.4734
G01 X43.7939 Y-1.4734
G01 X43.7487 Y-1.5284
G01 X43.7035 Y-1.5797
G01 X43.6583 Y-1.6274
G01 X43.6131 Y-1.6714
G01 X43.5679 Y-1.7118
G01 X43.5227 Y-1.7486
G01 X43.4775 Y-1.7817
G01 X43.4323 Y-1.8112
G01 X43.3871 Y-1.8371
G01 X43.3419 Y-1.8593
G01 X43.2960 Y-1.8781
G01 X43.2478 Y-1.8950
G01 X43.1972 Y-1.9099
G01 X43.1443 Y-1.9228
G01 X43.0890 Y-1.9337
G01 X43.0313 Y-1.9426
G01 X42.9712 Y-1.9496
G01 X42.9088 Y-1.9545
G01 X42.8440 Y-1.9575
G01 X42.7769 Y-1.9585
G01 X42.6895 Y-1.9562
G01 X42.6060 Y-1.9491
G01 X42.5263 Y-1.9374
G01 X42.4505 Y-1.9210
G01 X42.3786 Y-1.8999
G01 X42.3105 Y-1.8742
G01 X42.2463 Y-1.8437
G01 X42.1860 Y-1.8086
G01 X42.1295 Y-1.7687
G01 X42.0768 Y-1.7242
G01 X42.0286 Y-1.6754
G01 X41.9855 Y-1.6228
G01 X41.9475 Y-1.5663
G01 X41.9145 Y-1.5059
G01 X41.8867 Y-1.4417
G01 X41.8638 Y-1.3737
G01 X41.8461 Y-1.3017
G01 X41.8334 Y-1.2259
G01 X41.8258 Y-1.1463
G01 X41.8233 Y-1.0628
G01 X41.8378 Y-0.8874
G01 X41.8814 Y-0.7296
G01 X41.9540 Y-0.5893
G01 X42.0557 Y-0.4666
G01 X42.1864 Y-0.3613
G01 X42.3461 Y-0.2737
G01 X42.5350 Y-0.2035
G01 X42.7528 Y-0.1508
G01 X42.9997 Y-0.1157
G01 X43.2757 Y-0.0981
G01 X43.7883 Y-0.0789
G01 X43.7883 Y0.1003
G01 X43.7869 Y0.1674
G01 X43.7824 Y0.2308
G01 X43.7749 Y0.2906
G01 X43.7645 Y0.3468
G01 X43.7511 Y0.3993
G01 X43.7348 Y0.4482
G01 X43.7154 Y0.4935
G01 X43.6931 Y0.5351
G01 X43.6678 Y0.5731
G01 X43.6395 Y0.6074
G01 X43.6080 Y0.6388
G01 X43.5728 Y0.6669
G01 X43.5341 Y0.6917
G01 X43.4918 Y0.7132
G01 X43.4459 Y0.7314
G01 X43.3964 Y0.7463
G01 X43.3434 Y0.7579
G01 X43.2867 Y0.7662
G01 X43.2265 Y0.7711
G01 X43.1627 Y0.7728
G01 X43.1150 Y0.7721
G01 X43.0678 Y0.7699
G01 X43.0211 Y0.7663
G01 X42.9749 Y0.7613
G01 X42.9291 Y0.7549
G01 X42.8839 Y0.7470
G01 X42.8392 Y0.7377
G01 X42.7949 Y0.7269
G01 X42.7512 Y0.7147
G01 X42.7080 Y0.7011
G01 X42.6658 Y0.6866
G01 X42.5829 Y0.6566
G01 X42.5019 Y0.6253
G01 X42.4230 Y0.5927
G01 X42.3843 Y0.5759
G01 X42.3461 Y0.5587
G01 X42.3083 Y0.5413
G01 X42.1567 Y0.9133
G01 X42.2029 Y0.9371
G01 X42.2499 Y0.9598
G01 X42.2977 Y0.9814
G01 X42.3464 Y1.0020
G01 X42.3958 Y1.0215
G01 X42.4461 Y1.0400
G01 X42.4973 Y1.0575
G01 X42.5492 Y1.0739
G01 X42.6020 Y1.0892
G01 X42.6556 Y1.1035
G01 X42.7096 Y1.1166
G01 X42.7634 Y1.1283
G01 X42.8172 Y1.1386
G01 X42.8708 Y1.1476
G01 X42.9243 Y1.1552
G01 X42.9777 Y1.1614
G01 X43.0310 Y1.1662
G01 X43.0842 Y1.1697
G01 X43.1373 Y1.1717
G01 X43.1903 Y1.1724
G01 X43.2972 Y1.1700
G01 X43.3984 Y1.1627
G01 X43.4940 Y1.1506
G01 X43.5841 Y1.1336
G01 X43.6685 Y1.1118
G01 X43.7472 Y1.0851
G01 X43.8204 Y1.0536
G01 X43.8879 Y1.0172
G01 X43.9498 Y0.9760
G01 X44.0061 Y0.9299
G01 X44.0569 Y0.8785
G01 X44.1023 Y0.8214
G01 X44.1424 Y0.7586
G01 X44.1772 Y0.6900
G01 X44.2066 Y0.6157
G01 X44.2306 Y0.5356
G01 X44.2494 Y0.4499
G01 X44.2627 Y0.3584
G01 X44.2707 Y0.2611
G01 X44.2734 Y0.1582
G01 X44.2734 Y-1.9034
G01 X43.9124 Y-1.9034
G00 X43.9124 Y-1.9034
G01 F60.00
G01 Z-0.2400
G01 F80.00
G01 X43.8159 Y-1.4734
G01 X43.7939 Y-1.4734
G01 X43.7487 Y-1.5284
G01 X43.7035 Y-1.5797
G01 X43.6583 Y-1.6274
G01 X43.6131 Y-1.6714
G01 X43.5679 Y-1.7118
G01 X43.5227 Y-1.7486
G01 X43.4775 Y-1.7817
G01 X43.4323 Y-1.8112
G01 X43.3871 Y-1.8371
G01 X43.3419 Y-1.8593
G01 X43.2960 Y-1.8781
G01 X43.2478 Y-1.8950
G01 X43.1972 Y-1.9099
G01 X43.1443 Y-1.9228
G01 X43.0890 Y-1.9337
G01 X43.0313 Y-1.9426
G01 X42.9712 Y-1.9496
G01 X42.9088 Y-1.9545
G01 X42.8440 Y-1.9575
G01 X42.7769 Y-1.9585
G01 X42.6895 Y-1.9562
G01 X42.6060 Y-1.9491
G01 X42.5263 Y-1.9374
G01 X42.4505 Y-1.9210
G01 X42.3786 Y-1.8999
G01 X42.3105 Y-1.8742
G01 X42.2463 Y-1.8437
G01 X42.1860 Y-1.8086
G01 X42.1295 Y-1.7687
G01 X42.0768 Y-1.7242
G01 X42.0286 Y-1.6754
G01 X41.9855 Y-1.6228
G01 X41.9475 Y-1.5663
G01 X41.9145 Y-1.5059
G01 X41.8867 Y-1.4417
G01 X41.8638 Y-1.3737
G01 X41.8461 Y-1.3017
G01 X41.8334 Y-1.2259
G01 X41.8258 Y-1.1463
G01 X41.8233 Y-1.0628
G01 X41.8378 Y-0.8874
G01 X41.8814 Y-0.7296
G01 X41.9540 Y-0.5893
G01 X42.0557 Y-0.4666
G01 X42.1864 Y-0.3613
G01 X42.3461 Y-0.2737
G01 X42.5350 Y-0.2035
G01 X42.7528 Y-0.1508
G01 X42.9997 Y-0.1157
G01 X43.2757 Y-0.0981
G01 X43.7883 Y-0.0789
G01 X43.7883 Y0.1003
G01 X43.7869 Y0.1674
G01 X43.7824 Y0.2308
G01 X43.7749 Y0.2906
G01 X43.7645 Y0.3468
G01 X43.7511 Y0.3993
G01 X43.7348 Y0.4482
G01 X43.7154 Y0.4935
G01 X43.6931 Y0.5351
G01 X43.6678 Y0.5731
G01 X43.6395 Y0.6074
G01 X43.6080 Y0.6388
G01 X43.5728 Y0.6669
G01 X43.5341 Y0.6917
G01 X43.4918 Y0.7132
G01 X43.4459 Y0.7314
G01 X43.3964 Y0.7463
G01 X43.3434 Y0.7579
G01 X43.2867 Y0.7662
G01 X43.2265 Y0.7711
G01 X43.1627 Y0.7728
G01 X43.1150 Y0.7721
G01 X43.0678 Y0.7699
G01 X43.0211 Y0.7663
G01 X42.9749 Y0.7613
G01 X42.9291 Y0.7549
G01 X42.8839 Y0.7470
G01 X42.8392 Y0.7377
G01 X42.7949 Y0.7269
G01 X42.7512 Y0.7147
G01 X42.7080 Y0.7011
G01 X42.6658 Y0.6866
G01 X42.5829 Y0.6566
G01 X42.5019 Y0.6253
G01 X42.4230 Y0.5927
G01 X42.3843 Y0.5759
G01 X42.3461 Y0.5587
G01 X42.3083 Y0.5413
G01 X42.1567 Y0.9133
G01 X42.2029 Y0.9371
G01 X42.2499 Y0.9598
G01 X42.2977 Y0.9814
G01 X42.3464 Y1.0020
G01 X42.3958 Y1.0215
G01 X42.4461 Y1.0400
G01 X42.4973 Y1.0575
G01 X42.5492 Y1.0739
G01 X42.6020 Y1.0892
G01 X42.6556 Y1.1035
G01 X42.7096 Y1.1166
G01 X42.7634 Y1.1283
G01 X42.8172 Y1.1386
G01 X42.8708 Y1.1476
G01 X42.9243 Y1.1552
G01 X42.9777 Y1.1614
G01 X43.0310 Y1.1662
G01 X43.0842 Y1.1697
G01 X43.1373 Y1.1717
G01 X43.1903 Y1.1724
G01 X43.2972 Y1.1700
G01 X43.3984 Y1.1627
G01 X43.4940 Y1.1506
G01 X43.5841 Y1.1336
G01 X43.6685 Y1.1118
G01 X43.7472 Y1.0851
G01 X43.8204 Y1.0536
G01 X43.8879 Y1.0172
G01 X43.9498 Y0.9760
G01 X44.0061 Y0.9299
G01 X44.0569 Y0.8785
G01 X44.1023 Y0.8214
G01 X44.1424 Y0.7586
G01 X44.1772 Y0.6900
G01 X44.2066 Y0.6157
G01 X44.2306 Y0.5356
G01 X44.2494 Y0.4499
G01 X44.2627 Y0.3584
G01 X44.2707 Y0.2611
G01 X44.2734 Y0.1582
G01 X44.2734 Y-1.9034
G01 X43.9124 Y-1.9034
G00 Z2.0000
G00 X47.1811 Y-1.0683
G01 F60.00
G01 Z-0.1200
G01 F80.00
G01 X47.1779 Y-1.1513
G01 X47.1684 Y-1.2304
G01 X47.1525 Y-1.3058
G01 X47.1304 Y-1.3774
G01 X47.1018 Y-1.4452
G01 X47.0670 Y-1.5091
G01 X47.0258 Y-1.5693
G01 X46.9782 Y-1.6257
G01 X46.9243 Y-1.6782
G01 X46.8641 Y-1.7270
G01 X46.7982 Y-1.7710
G01 X46.7271 Y-1.8103
G01 X46.6509 Y-1.8451
G01 X46.5696 Y-1.8751
G01 X46.4831 Y-1.9006
G01 X46.3915 Y-1.9214
G01 X46.2948 Y-1.9377
G01 X46.1930 Y-1.9492
G01 X46.0860 Y-1.9562
G01 X45.9739 Y-1.9585
G01 X45.8567 Y-1.9566
G01 X45.7445 Y-1.9509
G01 X45.6371 Y-1.9414
G01 X45.5347 Y-1.9281
G01 X45.4372 Y-1.9109
G01 X45.3445 Y-1.8900
G01 X45.2568 Y-1.8653
G01 X45.1740 Y-1.8368
G01 X45.0961 Y-1.8045
G01 X45.0231 Y-1.7683
G01 X45.0231 Y-1.3163
G01 X45.1225 Y-1.3624
G01 X45.2212 Y-1.4036
G01 X45.3191 Y-1.4400
G01 X45.4164 Y-1.4715
G01 X45.5130 Y-1.4982
G01 X45.6088 Y-1.5201
G01 X45.7039 Y-1.5370
G01 X45.7983 Y-1.5492
G01 X45.8920 Y-1.5564
G01 X45.9849 Y-1.5589
G01 X46.0579 Y-1.5576
G01 X46.1267 Y-1.5540
G01 X46.1915 Y-1.5479
G01 X46.2522 Y-1.5395
G01 X46.3088 Y-1.5285
G01 X46.3613 Y-1.5152
G01 X46.4098 Y-1.4994
G01 X46.4541 Y-1.4812
G01 X46.4944 Y-1.4606
G01 X46.5306 Y-1.4376
G01 X46.5631 Y-1.4125
G01 X46.5922 Y-1.3858
G01 X46.6178 Y-1.3574
G01 X46.6400 Y-1.3274
G01 X46.6588 Y-1.2957
G01 X46.6742 Y-1.2623
G01 X46.6861 Y-1.2273
G01 X46.6947 Y-1.1906
G01 X46.6998 Y-1.1523
G01 X46.7015 Y-1.1124
G01 X46.6999 Y-1.0771
G01 X46.6949 Y-1.0429
G01 X46.6866 Y-1.0099
G01 X46.6751 Y-0.9779
G01 X46.6602 Y-0.9470
G01 X46.6420 Y-0.9172
G01 X46.6205 Y-0.8886
G01 X46.5957 Y-0.8610
G01 X46.5676 Y-0.8346
G01 X46.5361 Y-0.8092
G01 X46.5011 Y-0.7840
G01 X46.4609 Y-0.7582
G01 X46.4155 Y-0.7316
G01 X46.3651 Y-0.7043
G01 X46.3095 Y-0.6762
G01 X46.2487 Y-0.6475
G01 X46.1829 Y-0.6180
G01 X46.1119 Y-0.5878
G01 X46.0358 Y-0.5569
G01 X45.8717 Y-0.4928
G01 X45.7939 Y-0.4612
G01 X45.7211 Y-0.4306
G01 X45.6534 Y-0.4010
G01 X45.5908 Y-0.3724
G01 X45.5333 Y-0.3448
G01 X45.4808 Y-0.3181
G01 X45.4334 Y-0.2925
G01 X45.3911 Y-0.2679
G01 X45.3538 Y-0.2442
G01 X45.3200 Y-0.2202
G01 X45.2880 Y-0.1957
G01 X45.2578 Y-0.1706
G01 X45.2294 Y-0.1450
G01 X45.2029 Y-0.1188
G01 X45.1782 Y-0.0921
G01 X45.1553 Y-0.0648
G01 X45.1342 Y-0.0370
G01 X45.1149 Y-0.0086
G01 X45.0975 Y0.0204
G01 X45.0823 Y0.0502
G01 X45.0687 Y0.0813
G01 X45.0567 Y0.1137
G01 X45.0463 Y0.1474
G01 X45.0375 Y0.1823
G01 X45.0303 Y0.2185
G01 X45.0247 Y0.2559
G01 X45.0207 Y0.2947
G01 X45.0183 Y0.3346
G01 X45.0175 Y0.3759
G01 X45.0206 Y0.4487
G01 X45.0297 Y0.5184
G01 X45.0448 Y0.5850
G01 X45.0661 Y0.6484
G01 X45.0933 Y0.7087
G01 X45.1267 Y0.7658
G01 X45.1661 Y0.8198
G01 X45.2116 Y0.8707
G01 X45.2631 Y0.9184
G01 X45.3207 Y0.9629
G01 X45.3836 Y1.0038
G01 X45.4510 Y1.0403
G01 X45.5230 Y1.0726
G01 X45.5994 Y1.1005
G01 X45.6804 Y1.1242
G01 X45.7659 Y1.1435
G01 X45.8559 Y1.1586
G01 X45.9504 Y1.1693
G01 X46.0495 Y1.1758
G01 X46.1530 Y1.1779
G01 X46.2555 Y1.1759
G01 X46.3566 Y1.1698
G01 X46.4563 Y1.1596
G01 X46.5548 Y1.1453
G01 X46.6519 Y1.1269
G01 X46.7477 Y1.1045
G01 X46.8422 Y1.0780
G01 X46.9353 Y1.0474
G01 X47.0272 Y1.0127
G01 X47.1177 Y0.9740
G01 X46.9496 Y0.5799
G01 X46.8584 Y0.6165
G01 X46.7691 Y0.6493
G01 X46.6816 Y0.6782
G01 X46.5959 Y0.7033
G01 X46.5120 Y0.7245
G01 X46.4300 Y0.7419
G01 X46.3497 Y0.7554
G01 X46.2713 Y0.7651
G01 X46.1947 Y0.7708
G01 X46.1200 Y0.7728
G01 X46.0597 Y0.7718
G01 X46.0025 Y0.7688
G01 X45.9482 Y0.7638
G01 X45.8968 Y0.7569
G01 X45.8485 Y0.7480
G01 X45.8031 Y0.7371
G01 X45.7607 Y0.7242
G01 X45.7213 Y0.7093
G01 X45.6849 Y0.6924
G01 X45.6514 Y0.6736
G01 X45.6211 Y0.6535
G01 X45.5939 Y0.6320
G01 X45.5699 Y0.6090
G01 X45.5491 Y0.5845
G01 X45.5316 Y0.5585
G01 X45.5172 Y0.5310
G01 X45.5060 Y0.5020
G01 X45.4980 Y0.4716
G01 X45.4932 Y0.4397
G01 X45.4916 Y0.4062
G01 X45.4930 Y0.3737
G01 X45.4971 Y0.3423
G01 X45.5040 Y0.3120
G01 X45.5136 Y0.2827
G01 X45.5260 Y0.2546
G01 X45.5412 Y0.2276
G01 X45.5591 Y0.2017
G01 X45.5798 Y0.1769
G01 X45.6032 Y0.1532
G01 X45.6294 Y0.1306
G01 X45.6606 Y0.1083
G01 X45.6992 Y0.0842
G01 X45.7451 Y0.0584
G01 X45.7983 Y0.0310
G01 X45.8588 Y0.0018
G01 X45.9267 Y-0.0291
G01 X46.0019 Y-0.0617
G01 X46.0845 Y-0.0960
G01 X46.1744 Y-0.1321
G01 X46.2716 Y-0.1698
G01 X46.3451 Y-0.1977
G01 X46.4147 Y-0.2253
G01 X46.4803 Y-0.2524
G01 X46.5419 Y-0.2792
G01 X46.5995 Y-0.3055
G01 X46.6532 Y-0.3315
G01 X46.7029 Y-0.3571
G01 X46.7487 Y-0.3823
G01 X46.7905 Y-0.4072
G01 X46.8283 Y-0.4316
G01 X46.8637 Y-0.4562
G01 X46.8972 Y-0.4813
G01 X46.9287 Y-0.5071
G01 X46.9584 Y-0.5335
G01 X46.9861 Y-0.5605
G01 X47.0118 Y-0.5881
G01 X47.0357 Y-0.6163
G01 X47.0576 Y-0.6451
G01 X47.0776 Y-0.6745
G01 X47.0956 Y-0.7045
G01 X47.1119 Y-0.7354
G01 X47.1264 Y-0.7675
G01 X47.1392 Y-0.8009
G01 X47.1503 Y-0.8354
G01 X47.1597 Y-0.8712
G01 X47.1674 Y-0.9082
G01 X47.1734 Y-0.9464
G01 X47.1776 Y-0.9858
G01 X47.1802 Y-1.0264
G01 X47.1811 Y-1.0683
G00 X47.1811 Y-1.0683
G01 F60.00
G01 Z-0.2400
G01 F80.00
G01 X47.1779 Y-1.1513
G01 X47.1684 Y-1.2304
G01 X47.1525 Y-1.3058
G01 X47.1304 Y-1.3774
G01 X47.1018 Y-1.4452
G01 X47.0670 Y-1.5091
G01 X47.0258 Y-1.5693
G01 X46.9782 Y-1.6257
G01 X46.9243 Y-1.6782
G01 X46.8641 Y-1.7270
G01 X46.7982 Y-1.7710
G01 X46.7271 Y-1.8103
G01 X46.6509 Y-1.8451
G01 X46.5696 Y-1.8751
G01 X46.4831 Y-1.9006
G01 X46.3915 Y-1.9214
G01 X46.2948 Y-1.9377
G01 X46.1930 Y-1.9492
G01 X46.0860 Y-1.9562
G01 X45.9739 Y-1.9585
G01 X45.8567 Y-1.9566
G01 X45.7445 Y-1.9509
G01 X45.6371 Y-1.9414
G01 X45.5347 Y-1.9281
G01 X45.4372 Y-1.9109
G01 X45.3445 Y-1.8900
G01 X45.2568 Y-1.8653
G01 X45.1740 Y-1.8368
G01 X45.0961 Y-1.8045
G01 X45.0231 Y-1.7683
G01 X45.0231 Y-1.3163
G01 X45.1225 Y-1.3624
G01 X45.2212 Y-1.4036
G01 X45.3191 Y-1.4400
G01 X45.4164 Y-1.4715
G01 X45.5130 Y-1.4982
G01 X45.6088 Y-1.5201
G01 X45.7039 Y-1.5370
G01 X45.7983 Y-1.5492
G01 X45.8920 Y-1.5564
G01 X45.9849 Y-1.5589
G01 X46.0579 Y-1.5576
G01 X46.1267 Y-1.5540
G01 X46.1915 Y-1.5479
G01 X46.2522 Y-1.5395
G01 X46.3088 Y-1.5285
G01 X46.3613 Y-1.5152
G01 X46.4098 Y-1.4994
G01 X46.4541 Y-1.4812
G01 X46.4944 Y-1.4606
G01 X46.5306 Y-1.4376
G01 X46.5631 Y-1.4125
G01 X46.5922 Y-1.3858
G01 X46.6178 Y-1.3574
G01 X46.6400 Y-1.3274
G01 X46.6588 Y-1.2957
G01 X46.6742 Y-1.2623
G01 X46.6861 Y-1.2273
G01 X46.6947 Y-1.1906
G01 X46.6998 Y-1.1523
G01 X46.7015 Y-1.1124
G01 X46.6999 Y-1.0771
G01 X46.6949 Y-1.0429
G01 X46.6866 Y-1.0099
G01 X46.6751 Y-0.9779
G01 X46.6602 Y-0.9470
G01 X46.6420 Y-0.9172
G01 X46.6205 Y-0.8886
G01 X46.5957 Y-0.8610
G01 X46.5676 Y-0.8346
G01 X46.5361 Y-0.8092
G01 X46.5011 Y-0.7840
G01 X46.4609 Y-0.7582
G01 X46.4155 Y-0.7316
G01 X46.3651 Y-0.7043
G01 X46.3095 Y-0.6762
G01 X46.2487 Y-0.6475
G01 X46.1829 Y-0.6180
G01 X46.1119 Y-0.5878
G01 X46.0358 Y-0.5569
G01 X45.8717 Y-0.4928
G01 X45.7939 Y-0.4612
G01 X45.7211 Y-0.4306
G01 X45.6534 Y-0.4010
G01 X45.5908 Y-0.3724
G01 X45.5333 Y-0.3448
G01 X45.4808 Y-0.3181
G01 X45.4334 Y-0.2925
G01 X45.3911 Y-0.2679
G01 X45.3538 Y-0.2442
G01 X45.3200 Y-0.2202
G01 X45.2880 Y-0.1957
G01 X45.2578 Y-0.1706
G01 X45.2294 Y-0.1450
G01 X45.2029 Y-0.1188
G01 X45.1782 Y-0.0921
G01 X45.1553 Y-0.0648
G01 X45.1342 Y-0.0370
G01 X45.1149 Y-0.0086
G01 X45.0975 Y0.0204
G01 X45.0823 Y0.0502
G01 X45.0687 Y0.0813
G01 X45.0567 Y0.1137
G01 X45.0463 Y0.1474
G01 X45.0375 Y0.1823
G01 X45.0303 Y0.2185
G01 X45.0247 Y0.2559
G01 X45.0207 Y0.2947
G01 X45.0183 Y0.3346
G01 X45.0175 Y0.3759
G01 X45.0206 Y0.4487
G01 X45.0297 Y0.5184
G01 X45.0448 Y0.5850
G01 X45.0661 Y0.6484
G01 X45.0933 Y0.7087
G01 X45.1267 Y0.7658
G01 X45.1661 Y0.8198
G01 X45.2116 Y0.8707
G01 X45.2631 Y0.9184
G01 X45.3207 Y0.9629
G01 X45.3836 Y1.0038
G01 X45.4510 Y1.0403
G01 X45.5230 Y1.0726
G01 X45.5994 Y1.1005
G01 X45.6804 Y1.1242
G01 X45.7659 Y1.1435
G01 X45.8559 Y1.1586
G01 X45.9504 Y1.1693
G01 X46.0495 Y1.1758
G01 X46.1530 Y1.1779
G01 X46.2555 Y1.1759
G01 X46.3566 Y1.1698
G01 X46.4563 Y1.1596
G01 X46.5548 Y1.1453
G01 X46.6519 Y1.1269
G01 X46.7477 Y1.1045
G01 X46.8422 Y1.0780
G01 X46.9353 Y1.0474
G01 X47.0272 Y1.0127
G01 X47.1177 Y0.9740
G01 X46.9496 Y0.5799
G01 X46.8584 Y0.6165
G01 X46.7691 Y0.6493
G01 X46.6816 Y0.6782
G01 X46.5959 Y0.7033
G01 X46.5120 Y0.7245
G01 X46.4300 Y0.7419
G01 X46.3497 Y0.7554
G01 X46.2713 Y0.7651
G01 X46.1947 Y0.7708
G01 X46.1200 Y0.7728
G01 X46.0597 Y0.7718
G01 X46.0025 Y0.7688
G01 X45.9482 Y0.7638
G01 X45.8968 Y0.7569
G01 X45.8485 Y0.7480
G01 X45.8031 Y0.7371
G01 X45.7607 Y0.7242
G01 X45.7213 Y0.7093
G01 X45.6849 Y0.6924
G01 X45.6514 Y0.6736
G01 X45.6211 Y0.6535
G01 X45.5939 Y0.6320
G01 X45.5699 Y0.6090
G01 X45.5491 Y0.5845
G01 X45.5316 Y0.5585
G01 X45.5172 Y0.5310
G01 X45.5060 Y0.5020
G01 X45.4980 Y0.4716
G01 X45.4932 Y0.4397
G01 X45.4916 Y0.4062
G01 X45.4930 Y0.3737
G01 X45.4971 Y0.3423
G01 X45.5040 Y0.3120
G01 X45.5136 Y0.2827
G01 X45.5260 Y0.2546
G01 X45.5412 Y0.2276
G01 X45.5591 Y0.2017
G01 X45.5798 Y0.1769
G01 X45.6032 Y0.1532
G01 X45.6294 Y0.1306
G01 X45.6606 Y0.1083
G01 X45.6992 Y0.0842
G01 X45.7451 Y0.0584
G01 X45.7983 Y0.0310
G01 X45.8588 Y0.0018
G01 X45.9267 Y-0.0291
G01 X46.0019 Y-0.0617
G01 X46.0845 Y-0.0960
G01 X46.1744 Y-0.1321
G01 X46.2716 Y-0.1698
G01 X46.3451 Y-0.1977
G01 X46.4147 Y-0.2253
G01 X46.4803 Y-0.2524
G01 X46.5419 Y-0.2792
G01 X46.5995 Y-0.3055
G01 X46.6532 Y-0.3315
G01 X46.7029 Y-0.3571
G01 X46.7487 Y-0.3823
G01 X46.7905 Y-0.4072
G01 X46.8283 Y-0.4316
G01 X46.8637 Y-0.4562
G01 X46.8972 Y-0.4813
G01 X46.9287 Y-0.5071
G01 X46.9584 Y-0.5335
G01 X46.9861 Y-0.5605
G01 X47.0118 Y-0.5881
G01 X47.0357 Y-0.6163
G01 X47.0576 Y-0.6451
G01 X47.0776 Y-0.6745
G01 X47.0956 Y-0.7045
G01 X47.1119 Y-0.7354
G01 X47.1264 Y-0.7675
G01 X47.1392 Y-0.8009
G01 X47.1503 Y-0.8354
G01 X47.1597 Y-0.8712
G01 X47.1674 Y-0.9082
G01 X47.1734 Y-0.9464
G01 X47.1776 Y-0.9858
G01 X47.1802 Y-1.0264
G01 X47.1811 Y-1.0683
G00 Z2.0000
G00 X48.9257 Y-1.5533
G01 F60.00
G01 Z-0.1200
G01 F80.00
G01 X48.9656 Y-1.5526
G01 X48.9865 Y-1.5516
G01 X49.0304 Y-1.5485
G01 X49.0533 Y-1.5464
G01 X49.1012 Y-1.5410
G01 X49.1517 Y-1.5341
G01 X49.2009 Y-1.5261
G01 X49.2451 Y-1.5177
G01 X49.2653 Y-1.5134
G01 X49.3020 Y-1.5043
G01 X49.3335 Y-1.4949
G01 X49.3473 Y-1.4900
G01 X49.3473 Y-1.8703
G01 X49.3328 Y-1.8763
G01 X49.3167 Y-1.8823
G01 X49.2991 Y-1.8882
G01 X49.2799 Y-1.8941
G01 X49.2369 Y-1.9057
G01 X49.2131 Y-1.9114
G01 X49.1608 Y-1.9226
G01 X49.1037 Y-1.9339
G01 X49.0748 Y-1.9391
G01 X49.0459 Y-1.9436
G01 X49.0168 Y-1.9476
G01 X48.9877 Y-1.9509
G01 X48.9584 Y-1.9536
G01 X48.9290 Y-1.9558
G01 X48.8995 Y-1.9573
G01 X48.8699 Y-1.9582
G01 X48.8402 Y-1.9585
G01 X48.6716 Y-1.9492
G01 X48.5207 Y-1.9211
G01 X48.3876 Y-1.8744
G01 X48.2723 Y-1.8090
G01 X48.1746 Y-1.7249
G01 X48.0948 Y-1.6221
G01 X48.0326 Y-1.5007
G01 X47.9883 Y-1.3605
G01 X47.9616 Y-1.2017
G01 X47.9528 Y-1.0242
G01 X47.9528 Y0.7369
G01 X47.5256 Y0.7369
G01 X47.5256 Y0.9740
G01 X47.9583 Y1.1724
G01 X48.1567 Y1.8173
G01 X48.4516 Y1.8173
G01 X48.4516 Y1.1228
G01 X49.3253 Y1.1228
G01 X49.3253 Y0.7369
G01 X48.4516 Y0.7369
G01 X48.4516 Y-1.0104
G01 X48.4529 Y-1.0616
G01 X48.4566 Y-1.1103
G01 X48.4628 Y-1.1566
G01 X48.4715 Y-1.2005
G01 X48.4826 Y-1.2419
G01 X48.4963 Y-1.2809
G01 X48.5124 Y-1.3175
G01 X48.5310 Y-1.3517
G01 X48.5521 Y-1.3835
G01 X48.5756 Y-1.4128
G01 X48.6020 Y-1.4395
G01 X48.6302 Y-1.4634
G01 X48.6604 Y-1.4845
G01 X48.6925 Y-1.5027
G01 X48.7265 Y-1.5182
G01 X48.7625 Y-1.5309
G01 X48.8004 Y-1.5407
G01 X48.8402 Y-1.5477
G01 X48.8820 Y-1.5519
G01 X48.9257 Y-1.5533
G00 X48.9257 Y-1.5533
G01 F60.00
G01 Z-0.2400
G01 F80.00
G01 X48.9656 Y-1.5526
G01 X48.9865 Y-1.5516
G01 X49.0304 Y-1.5485
G01 X49.0533 Y-1.5464
G01 X49.1012 Y-1.5410
G01 X49.1517 Y-1.5341
G01 X49.2009 Y-1.5261
G01 X49.2451 Y-1.5177
G01 X49.2653 Y-1.5134
G01 X49.3020 Y-1.5043
G01 X49.3335 Y-1.4949
G01 X49.3473 Y-1.4900
G01 X49.3473 Y-1.8703
G01 X49.3328 Y-1.8763
G01 X49.3167 Y-1.8823
G01 X49.2991 Y-1.8882
G01 X49.2799 Y-1.8941
G01 X49.2369 Y-1.9057
G01 X49.2131 Y-1.9114
G01 X49.1608 Y-1.9226
G01 X49.1037 Y-1.9339
G01 X49.0748 Y-1.9391
G01 X49.0459 Y-1.9436
G01 X49.0168 Y-1.9476
G01 X48.9877 Y-1.9509
G01 X48.9584 Y-1.9536
G01 X48.9290 Y-1.9558
G01 X48.8995 Y-1.9573
G01 X48.8699 Y-1.9582
G01 X48.8402 Y-1.9585
G01 X48.6716 Y-1.9492
G01 X48.5207 Y-1.9211
G01 X48.3876 Y-1.8744
G01 X48.2723 Y-1.8090
G01 X48.1746 Y-1.7249
G01 X48.0948 Y-1.6221
G01 X48.0326 Y-1.5007
G01 X47.9883 Y-1.3605
G01 X47.9616 Y-1.2017
G01 X47.9528 Y-1.0242
G01 X47.9528 Y0.7369
G01 X47.5256 Y0.7369
G01 X47.5256 Y0.9740
G01 X47.9583 Y1.1724
G01 X48.1567 Y1.8173
G01 X48.4516 Y1.8173
G01 X48.4516 Y1.1228
G01 X49.3253 Y1.1228
G01 X49.3253 Y0.7369
G01 X48.4516 Y0.7369
G01 X48.4516 Y-1.0104
G01 X48.4529 Y-1.0616
G01 X48.4566 Y-1.1103
G01 X48.4628 Y-1.1566
G01 X48.4715 Y-1.2005
G01 X48.4826 Y-1.2419
G01 X48.4963 Y-1.2809
G01 X48.5124 Y-1.3175
G01 X48.5310 Y-1.3517
G01 X48.5521 Y-1.3835
G01 X48.5756 Y-1.4128
G01 X48.6020 Y-1.4395
G01 X48.6302 Y-1.4634
G01 X48.6604 Y-1.4845
G01 X48.6925 Y-1.5027
G01 X48.7265 Y-1.5182
G01 X48.7625 Y-1.5309
G01 X48.8004 Y-1.5407
G01 X48.8402 Y-1.5477
G01 X48.8820 Y-1.5519
G01 X48.9257 Y-1.5533
G00 Z2.0000
G00 X51.2380 Y-1.9585
G01 F60.00
G01 Z-0.1200
G01 F80.00
G01 X51.1048 Y-1.9544
G01 X50.9774 Y-1.9421
G01 X50.8559 Y-1.9215
G01 X50.7402 Y-1.8928
G01 X50.6303 Y-1.8558
G01 X50.5263 Y-1.8107
G01 X50.4281 Y-1.7573
G01 X50.3358 Y-1.6957
G01 X50.2493 Y-1.6259
G01 X50.1687 Y-1.5478
G01 X50.0953 Y-1.4621
G01 X50.0297 Y-1.3701
G01 X49.9719 Y-1.2720
G01 X49.9217 Y-1.1677
G01 X49.8793 Y-1.0573
G01 X49.8445 Y-0.9406
G01 X49.8175 Y-0.8178
G01 X49.7982 Y-0.6888
G01 X49.7867 Y-0.5537
G01 X49.7828 Y-0.4123
G01 X49.7864 Y-0.2698
G01 X49.7972 Y-0.1332
G01 X49.8153 Y-0.0026
G01 X49.8406 Y0.1221
G01 X49.8731 Y0.2409
G01 X49.9128 Y0.3536
G01 X49.9597 Y0.4605
G01 X50.0139 Y0.5613
G01 X50.0753 Y0.6563
G01 X50.1438 Y0.7452
G01 X50.2186 Y0.8274
G01 X50.2984 Y0.9010
G01 X50.3833 Y0.9659
G01 X50.4733 Y1.0221
G01 X50.5683 Y1.0697
G01 X50.6684 Y1.1087
G01 X50.7736 Y1.1390
G01 X50.8838 Y1.1606
G01 X50.9991 Y1.1736
G01 X51.1195 Y1.1779
G01 X51.2313 Y1.1742
G01 X51.3384 Y1.1631
G01 X51.4410 Y1.1447
G01 X51.5389 Y1.1188
G01 X51.6321 Y1.0856
G01 X51.7208 Y1.0450
G01 X51.8048 Y0.9970
G01 X51.8841 Y0.9416
G01 X51.9589 Y0.8788
G01 X52.0290 Y0.8086
G01 X52.0934 Y0.7327
G01 X52.1510 Y0.6515
G01 X52.2019 Y0.5651
G01 X52.2460 Y0.4735
G01 X52.2833 Y0.3766
G01 X52.3138 Y0.2745
G01 X52.3375 Y0.1671
G01 X52.3544 Y0.0545
G01 X52.3646 Y-0.0633
G01 X52.3680 Y-0.1863
G01 X52.3680 Y-0.4867
G01 X50.2954 Y-0.4867
G01 X50.3005 Y-0.5873
G01 X50.3103 Y-0.6830
G01 X50.3248 Y-0.7737
G01 X50.3439 Y-0.8594
G01 X50.3678 Y-0.9401
G01 X50.3963 Y-1.0159
G01 X50.4295 Y-1.0867
G01 X50.4674 Y-1.1526
G01 X50.5100 Y-1.2135
G01 X50.5573 Y-1.2695
G01 X50.6089 Y-1.3203
G01 X50.6647 Y-1.3657
G01 X50.7247 Y-1.4058
G01 X50.7888 Y-1.4406
G01 X50.8570 Y-1.4700
G01 X50.9293 Y-1.4940
G01 X51.0058 Y-1.5128
G01 X51.0864 Y-1.5261
G01 X51.1712 Y-1.5341
G01 X51.2601 Y-1.5368
G01 X51.3083 Y-1.5364
G01 X51.3561 Y-1.5352
G01 X51.4033 Y-1.5331
G01 X51.4501 Y-1.5302
G01 X51.4964 Y-1.5265
G01 X51.5422 Y-1.5219
G01 X51.5875 Y-1.5166
G01 X51.6322 Y-1.5104
G01 X51.6765 Y-1.5033
G01 X51.7203 Y-1.4955
G01 X51.7646 Y-1.4859
G01 X51.8104 Y-1.4746
G01 X51.8577 Y-1.4618
G01 X51.9064 Y-1.4474
G01 X51.9567 Y-1.4314
G01 X52.0084 Y-1.4138
G01 X52.0616 Y-1.3946
G01 X52.1163 Y-1.3738
G01 X52.1725 Y-1.3514
G01 X52.2302 Y-1.3274
G01 X52.2302 Y-1.7628
G01 X52.1803 Y-1.7837
G01 X52.1311 Y-1.8033
G01 X52.0824 Y-1.8216
G01 X52.0344 Y-1.8387
G01 X51.9870 Y-1.8545
G01 X51.9401 Y-1.8690
G01 X51.8939 Y-1.8822
G01 X51.8483 Y-1.8942
G01 X51.8033 Y-1.9049
G01 X51.7589 Y-1.9144
G01 X51.7140 Y-1.9228
G01 X51.6675 Y-1.9303
G01 X51.6194 Y-1.9369
G01 X51.5697 Y-1.9426
G01 X51.5184 Y-1.9475
G01 X51.4656 Y-1.9514
G01 X51.4111 Y-1.9545
G01 X51.3550 Y-1.9567
G01 X51.2973 Y-1.9581
G01 X51.2380 Y-1.9585
G00 X51.2380 Y-1.9585
G01 F60.00
G01 Z-0.2400
G01 F80.00
G01 X51.1048 Y-1.9544
G01 X50.9774 Y-1.9421
G01 X50.8559 Y-1.9215
G01 X50.7402 Y-1.8928
G01 X50.6303 Y-1.8558
G01 X50.5263 Y-1.8107
G01 X50.4281 Y-1.7573
G01 X50.3358 Y-1.6957
G01 X50.2493 Y-1.6259
G01 X50.1687 Y-1.5478
G01 X50.0953 Y-1.4621
G01 X50.0297 Y-1.3701
G01 X49.9719 Y-1.2720
G01 X49.9217 Y-1.1677
G01 X49.8793 Y-1.0573
G01 X49.8445 Y-0.9406
G01 X49.8175 Y-0.8178
G01 X49.7982 Y-0.6888
G01 X49.7867 Y-0.5537
G01 X49.7828 Y-0.4123
G01 X49.7864 Y-0.2698
G01 X49.7972 Y-0.1332
G01 X49.8153 Y-0.0026
G01 X49.8406 Y0.1221
G01 X49.8731 Y0.2409
G01 X49.9128 Y0.3536
G01 X49.9597 Y0.4605
G01 X50.0139 Y0.5613
G01 X50.0753 Y0.6563
G01 X50.1438 Y0.7452
G01 X50.2186 Y0.8274
G01 X50.2984 Y0.9010
G01 X50.3833 Y0.9659
G01 X50.4733 Y1.0221
G01 X50.5683 Y1.0697
G01 X50.6684 Y1.1087
G01 X50.7736 Y1.1390
G01 X50.8838 Y1.1606
G01 X50.9991 Y1.1736
G01 X51.1195 Y1.1779
G01 X51.2313 Y1.1742
G01 X51.3384 Y1.1631
G01 X51.4410 Y1.1447
G01 X51.5389 Y1.1188
G01 X51.6321 Y1.0856
G01 X51.7208 Y1.0450
G01 X51.8048 Y0.9970
G01 X51.8841 Y0.9416
G01 X51.9589 Y0.8788
G01 X52.0290 Y0.8086
G01 X52.0934 Y0.7327
G01 X52.1510 Y0.6515
G01 X52.2019 Y0.5651
G01 X52.2460 Y0.4735
G01 X52.2833 Y0.3766
G01 X52.3138 Y0.2745
G01 X52.3375 Y0.1671
G01 X52.3544 Y0.0545
G01 X52.3646 Y-0.0633
G01 X52.3680 Y-0.1863
G01 X52.3680 Y-0.4867
G01 X50.2954 Y-0.4867
G01 X50.3005 Y-0.5873
G01 X50.3103 Y-0.6830
G01 X50.3248 Y-0.7737
G01 X50.3439 Y-0.8594
G01 X50.3678 Y-0.9401
G01 X50.3963 Y-1.0159
G01 X50.4295 Y-1.0867
G01 X50.4674 Y-1.1526
G01 X50.5100 Y-1.2135
G01 X50.5573 Y-1.2695
G01 X50.6089 Y-1.3203
G01 X50.6647 Y-1.3657
G01 X50.7247 Y-1.4058
G01 X50.7888 Y-1.4406
G01 X50.8570 Y-1.4700
G01 X50.9293 Y-1.4940
G01 X51.0058 Y-1.5128
G01 X51.0864 Y-1.5261
G01 X51.1712 Y-1.5341
G01 X51.2601 Y-1.5368
G01 X51.3083 Y-1.5364
G01 X51.3561 Y-1.5352
G01 X51.4033 Y-1.5331
G01 X51.4501 Y-1.5302
G01 X51.4964 Y-1.5265
G01 X51.5422 Y-1.5219
G01 X51.5875 Y-1.5166
G01 X51.6322 Y-1.5104
G01 X51.6765 Y-1.5033
G01 X51.7203 Y-1.4955
G01 X51.7646 Y-1.4859
G01 X51.8104 Y-1.4746
G01 X51.8577 Y-1.4618
G01 X51.9064 Y-1.4474
G01 X51.9567 Y-1.4314
G01 X52.0084 Y-1.4138
G01 X52.0616 Y-1.3946
G01 X52.1163 Y-1.3738
G01 X52.1725 Y-1.3514
G01 X52.2302 Y-1.3274
G01 X52.2302 Y-1.7628
G01 X52.1803 Y-1.7837
G01 X52.1311 Y-1.8033
G01 X52.0824 Y-1.8216
G01 X52.0344 Y-1.8387
G01 X51.9870 Y-1.8545
G01 X51.9401 Y-1.8690
G01 X51.8939 Y-1.8822
G01 X51.8483 Y-1.8942
G01 X51.8033 Y-1.9049
G01 X51.7589 Y-1.9144
G01 X51.7140 Y-1.9228
G01 X51.6675 Y-1.9303
G01 X51.6194 Y-1.9369
G01 X51.5697 Y-1.9426
G01 X51.5184 Y-1.9475
G01 X51.4656 Y-1.9514
G01 X51.4111 Y-1.9545
G01 X51.3550 Y-1.9567
G01 X51.2973 Y-1.9581
G01 X51.2380 Y-1.9585
G00 Z2.0000
G00 X51.1140 Y0.7728
G01 F60.00
G01 Z-0.1200
G01 F80.00
G01 X51.1819 Y0.7706
G01 X51.2466 Y0.7640
G01 X51.3082 Y0.7529
G01 X51.3667 Y0.7375
G01 X51.4220 Y0.7177
G01 X51.4742 Y0.6934
G01 X51.5232 Y0.6647
G01 X51.5691 Y0.6317
G01 X51.6118 Y0.5942
G01 X51.6514 Y0.5523
G01 X51.6876 Y0.5062
G01 X51.7201 Y0.4559
G01 X51.7489 Y0.4016
G01 X51.7740 Y0.3433
G01 X51.7954 Y0.2808
G01 X51.8132 Y0.2143
G01 X51.8272 Y0.1437
G01 X51.8375 Y0.0690
G01 X51.8442 Y-0.0098
G01 X51.8471 Y-0.0926
G01 X50.3065 Y-0.0926
G01 X50.3159 Y-0.0128
G01 X50.3286 Y0.0634
G01 X50.3447 Y0.1360
G01 X50.3642 Y0.2050
G01 X50.3871 Y0.2705
G01 X50.4133 Y0.3324
G01 X50.4429 Y0.3906
G01 X50.4758 Y0.4454
G01 X50.5121 Y0.4965
G01 X50.5517 Y0.5440
G01 X50.5946 Y0.5875
G01 X50.6404 Y0.6264
G01 X50.6892 Y0.6607
G01 X50.7409 Y0.6904
G01 X50.7957 Y0.7156
G01 X50.8534 Y0.7362
G01 X50.9141 Y0.7522
G01 X50.9777 Y0.7636
G01 X51.0444 Y0.7705
G01 X51.1140 Y0.7728
G00 X51.1140 Y0.7728
G01 F60.00
G01 Z-0.2400
G01 F80.00
G01 X51.1819 Y0.7706
G01 X51.2466 Y0.7640
G01 X51.3082 Y0.7529
G01 X51.3667 Y0.7375
G01 X51.4220 Y0.7177
G01 X51.4742 Y0.6934
G01 X51.5232 Y0.6647
G01 X51.5691 Y0.6317
G01 X51.6118 Y0.5942
G01 X51.6514 Y0.5523
G01 X51.6876 Y0.5062
G01 X51.7201 Y0.4559
G01 X51.7489 Y0.4016
G01 X51.7740 Y0.3433
G01 X51.7954 Y0.2808
G01 X51.8132 Y0.2143
G01 X51.8272 Y0.1437
G01 X51.8375 Y0.0690
G01 X51.8442 Y-0.0098
G01 X51.8471 Y-0.0926
G01 X50.3065 Y-0.0926
G01 X50.3159 Y-0.0128
G01 X50.3286 Y0.0634
G01 X50.3447 Y0.1360
G01 X50.3642 Y0.2050
G01 X50.3871 Y0.2705
G01 X50.4133 Y0.3324
G01 X50.4429 Y0.3906
G01 X50.4758 Y0.4454
G01 X50.5121 Y0.4965
G01 X50.5517 Y0.5440
G01 X50.5946 Y0.5875
G01 X50.6404 Y0.6264
G01 X50.6892 Y0.6607
G01 X50.7409 Y0.6904
G01 X50.7957 Y0.7156
G01 X50.8534 Y0.7362
G01 X50.9141 Y0.7522
G01 X50.9777 Y0.7636
G01 X51.0444 Y0.7705
G01 X51.1140 Y0.7728
G00 Z2.0000
G00 X54.5453 Y1.1779
G01 F60.00
G01 Z-0.1200
G01 F80.00
G01 X54.5851 Y1.1776
G01 X54.6239 Y1.1766
G01 X54.6618 Y1.1749
G01 X54.6988 Y1.1726
G01 X54.7348 Y1.1697
G01 X54.7699 Y1.1660
G01 X54.8040 Y1.1617
G01 X54.8372 Y1.1568
G01 X54.8695 Y1.1511
G01 X54.9008 Y1.1448
G01 X54.8402 Y0.6873
G01 X54.8067 Y0.6947
G01 X54.7733 Y0.7012
G01 X54.7401 Y0.7070
G01 X54.7070 Y0.7120
G01 X54.6741 Y0.7163
G01 X54.6414 Y0.7198
G01 X54.6089 Y0.7225
G01 X54.5765 Y0.7244
G01 X54.5443 Y0.7255
G01 X54.5122 Y0.7259
G01 X54.4646 Y0.7246
G01 X54.4176 Y0.7206
G01 X54.3713 Y0.7140
G01 X54.3257 Y0.7048
G01 X54.2807 Y0.6929
G01 X54.2364 Y0.6783
G01 X54.1927 Y0.6611
G01 X54.1497 Y0.6413
G01 X54.1074 Y0.6188
G01 X54.0657 Y0.5936
G01 X54.0258 Y0.5662
G01 X53.9877 Y0.5366
G01 X53.9513 Y0.5051
G01 X53.9167 Y0.4715
G01 X53.8838 Y0.4358
G01 X53.8528 Y0.3982
G01 X53.8234 Y0.3585
G01 X53.7959 Y0.3167
G01 X53.7701 Y0.2729
G01 X53.7460 Y0.2271
G01 X53.7240 Y0.1802
G01 X53.7044 Y0.1324
G01 X53.6870 Y0.0835
G01 X53.6720 Y0.0335
G01 X53.6592 Y-0.0175
G01 X53.6488 Y-0.0696
G01 X53.6407 Y-0.1227
G01 X53.6349 Y-0.1769
G01 X53.6314 Y-0.2321
G01 X53.6303 Y-0.2883
G01 X53.6303 Y-1.9034
G01 X53.1342 Y-1.9034
G01 X53.1342 Y1.1228
G01 X53.5421 Y1.1228
G01 X53.5972 Y0.5688
G01 X53.6193 Y0.5688
G01 X53.6546 Y0.6275
G01 X53.6912 Y0.6832
G01 X53.7291 Y0.7359
G01 X53.7683 Y0.7858
G01 X53.8087 Y0.8327
G01 X53.8504 Y0.8767
G01 X53.8934 Y0.9178
G01 X53.9376 Y0.9560
G01 X53.9831 Y0.9913
G01 X54.0299 Y1.0236
G01 X54.0777 Y1.0529
G01 X54.1264 Y1.0791
G01 X54.1758 Y1.1023
G01 X54.2261 Y1.1224
G01 X54.2773 Y1.1393
G01 X54.3292 Y1.1532
G01 X54.3820 Y1.1640
G01 X54.4356 Y1.1717
G01 X54.4900 Y1.1764
G01 X54.5453 Y1.1779
G00 X54.5453 Y1.1779
G01 F60.00
G01 Z-0.2400
G01 F80.00
G01 X54.5851 Y1.1776
G01 X54.6239 Y1.1766
G01 X54.6618 Y1.1749
G01 X54.6988 Y1.1726
G01 X54.7348 Y1.1697
G01 X54.7699 Y1.1660
G01 X54.8040 Y1.1617
G01 X54.8372 Y1.1568
G01 X54.8695 Y1.1511
G01 X54.9008 Y1.1448
G01 X54.8402 Y0.6873
G01 X54.8067 Y0.6947
G01 X54.7733 Y0.7012
G01 X54.7401 Y0.7070
G01 X54.7070 Y0.7120
G01 X54.6741 Y0.7163
G01 X54.6414 Y0.7198
G01 X54.6089 Y0.7225
G01 X54.5765 Y0.7244
G01 X54.5443 Y0.7255
G01 X54.5122 Y0.7259
G01 X54.4646 Y0.7246
G01 X54.4176 Y0.7206
G01 X54.3713 Y0.7140
G01 X54.3257 Y0.7048
G01 X54.2807 Y0.6929
G01 X54.2364 Y0.6783
G01 X54.1927 Y0.6611
G01 X54.1497 Y0.6413
G01 X54.1074 Y0.6188
G01 X54.0657 Y0.5936
G01 X54.0258 Y0.5662
G01 X53.9877 Y0.5366
G01 X53.9513 Y0.5051
G01 X53.9167 Y0.4715
G01 X53.8838 Y0.4358
G01 X53.8528 Y0.3982
G01 X53.8234 Y0.3585
G01 X53.7959 Y0.3167
G01 X53.7701 Y0.2729
G01 X53.7460 Y0.2271
G01 X53.7240 Y0.1802
G01 X53.7044 Y0.1324
G01 X53.6870 Y0.0835
G01 X53.6720 Y0.0335
G01 X53.6592 Y-0.0175
G01 X53.6488 Y-0.0696
G01 X53.6407 Y-0.1227
G01 X53.6349 Y-0.1769
G01 X53.6314 Y-0.2321
G01 X53.6303 Y-0.2883
G01 X53.6303 Y-1.9034
G01 X53.1342 Y-1.9034
G01 X53.1342 Y1.1228
G01 X53.5421 Y1.1228
G01 X53.5972 Y0.5688
G01 X53.6193 Y0.5688
G01 X53.6546 Y0.6275
G01 X53.6912 Y0.6832
G01 X53.7291 Y0.7359
G01 X53.7683 Y0.7858
G01 X53.8087 Y0.8327
G01 X53.8504 Y0.8767
G01 X53.8934 Y0.9178
G01 X53.9376 Y0.9560
G01 X53.9831 Y0.9913
G01 X54.0299 Y1.0236
G01 X54.0777 Y1.0529
G01 X54.1264 Y1.0791
G01 X54.1758 Y1.1023
G01 X54.2261 Y1.1224
G01 X54.2773 Y1.1393
G01 X54.3292 Y1.1532
G01 X54.3820 Y1.1640
G01 X54.4356 Y1.1717
G01 X54.4900 Y1.1764
G01 X54.5453 Y1.1779
G00 Z2.0000
G00 X59.2306 Y-1.9034
G01 F60.00
G01 Z-0.1200
G01 F80.00
G01 X56.7171 Y-1.9034
G01 X56.7171 Y-1.4734
G01 X57.7626 Y-0.3356
G01 X57.8774 Y-0.2098
G01 X57.9842 Y-0.0909
G01 X58.0510 Y-0.0155
G01 X58.0831 Y0.0214
G01 X58.1141 Y0.0581
G01 X58.1441 Y0.0946
G01 X58.1732 Y0.1309
G01 X58.2012 Y0.1671
G01 X58.2283 Y0.2032
G01 X58.2544 Y0.2390
G01 X58.2794 Y0.2747
G01 X58.3035 Y0.3102
G01 X58.3492 Y0.3809
G01 X58.3707 Y0.4161
G01 X58.3911 Y0.4514
G01 X58.4104 Y0.4867
G01 X58.4286 Y0.5220
G01 X58.4457 Y0.5573
G01 X58.4617 Y0.5925
G01 X58.4766 Y0.6278
G01 X58.4903 Y0.6631
G01 X58.5030 Y0.6984
G01 X58.5145 Y0.7345
G01 X58.5248 Y0.7712
G01 X58.5339 Y0.8086
G01 X58.5418 Y0.8465
G01 X58.5485 Y0.8851
G01 X58.5540 Y0.9243
G01 X58.5582 Y0.9640
G01 X58.5612 Y1.0044
G01 X58.5630 Y1.0454
G01 X58.5637 Y1.0870
G01 X58.5632 Y1.1191
G01 X58.5618 Y1.1505
G01 X58.5594 Y1.1811
G01 X58.5562 Y1.2109
G01 X58.5519 Y1.2399
G01 X58.5468 Y1.2682
G01 X58.5407 Y1.2957
G01 X58.5337 Y1.3224
G01 X58.5257 Y1.3484
G01 X58.5168 Y1.3736
G01 X58.5070 Y1.3980
G01 X58.4964 Y1.4217
G01 X58.4850 Y1.4445
G01 X58.4727 Y1.4666
G01 X58.4596 Y1.4880
G01 X58.4457 Y1.5085
G01 X58.4310 Y1.5283
G01 X58.4154 Y1.5473
G01 X58.3990 Y1.5656
G01 X58.3643 Y1.6003
G01 X58.3463 Y1.6166
G01 X58.3275 Y1.6320
G01 X58.3081 Y1.6466
G01 X58.2880 Y1.6602
G01 X58.2673 Y1.6730
G01 X58.2459 Y1.6849
G01 X58.2239 Y1.6960
G01 X58.2012 Y1.7061
G01 X58.1778 Y1.7154
G01 X58.1538 Y1.7237
G01 X58.1293 Y1.7312
G01 X58.1042 Y1.7378
G01 X58.0786 Y1.7436
G01 X58.0524 Y1.7484
G01 X58.0257 Y1.7524
G01 X57.9984 Y1.7555
G01 X57.9705 Y1.7577
G01 X57.9422 Y1.7590
G01 X57.9132 Y1.7595
G01 X57.8614 Y1.7584
G01 X57.8105 Y1.7552
G01 X57.7606 Y1.7498
G01 X57.7117 Y1.7423
G01 X57.6638 Y1.7326
G01 X57.6169 Y1.7208
G01 X57.5710 Y1.7068
G01 X57.5260 Y1.6907
G01 X57.4821 Y1.6724
G01 X57.4392 Y1.6520
G01 X57.3975 Y1.6304
G01 X57.3562 Y1.6076
G01 X57.3152 Y1.5837
G01 X57.2747 Y1.5585
G01 X57.2345 Y1.5321
G01 X57.1948 Y1.5045
G01 X57.1554 Y1.4756
G01 X57.1164 Y1.4456
G01 X57.0778 Y1.4143
G01 X57.0395 Y1.3819
G01 X56.7584 Y1.7098
G01 X56.8032 Y1.7490
G01 X56.8493 Y1.7870
G01 X56.8967 Y1.8239
G01 X56.9454 Y1.8598
G01 X56.9703 Y1.8773
G01 X57.0210 Y1.9119
G01 X57.0469 Y1.9288
G01 X57.0733 Y1.9452
G01 X57.1000 Y1.9611
G01 X57.1271 Y1.9765
G01 X57.1545 Y1.9914
G01 X57.1824 Y2.0058
G01 X57.2106 Y2.0197
G01 X57.2393 Y2.0332
G01 X57.2683 Y2.0461
G01 X57.2977 Y2.0585
G01 X57.3274 Y2.0703
G01 X57.3574 Y2.0816
G01 X57.3878 Y2.0924
G01 X57.4185 Y2.1026
G01 X57.4495 Y2.1122
G01 X57.4809 Y2.1213
G01 X57.5126 Y2.1299
G01 X57.5446 Y2.1379
G01 X57.6097 Y2.1526
G01 X57.6427 Y2.1592
G01 X57.6760 Y2.1650
G01 X57.7097 Y2.1700
G01 X57.7437 Y2.1742
G01 X57.7781 Y2.1777
G01 X57.8127 Y2.1804
G01 X57.8477 Y2.1823
G01 X57.8831 Y2.1835
G01 X57.9187 Y2.1839
G01 X57.9711 Y2.1831
G01 X58.0225 Y2.1809
G01 X58.0728 Y2.1772
G01 X58.1220 Y2.1720
G01 X58.1702 Y2.1653
G01 X58.2174 Y2.1571
G01 X58.2635 Y2.1474
G01 X58.3086 Y2.1363
G01 X58.3526 Y2.1236
G01 X58.3955 Y2.1095
G01 X58.4379 Y2.0939
G01 X58.4789 Y2.0771
G01 X58.5186 Y2.0589
G01 X58.5569 Y2.0394
G01 X58.5940 Y2.0185
G01 X58.6297 Y1.9964
G01 X58.6641 Y1.9729
G01 X58.6972 Y1.9481
G01 X58.7289 Y1.9220
G01 X58.7593 Y1.8945
G01 X58.7884 Y1.8663
G01 X58.8161 Y1.8368
G01 X58.8424 Y1.8061
G01 X58.8674 Y1.7741
G01 X58.8909 Y1.7408
G01 X58.9131 Y1.7063
G01 X58.9339 Y1.6705
G01 X58.9534 Y1.6334
G01 X58.9714 Y1.5951
G01 X58.9881 Y1.5555
G01 X59.0038 Y1.5153
G01 X59.0179 Y1.4740
G01 X59.0303 Y1.4317
G01 X59.0410 Y1.3884
G01 X59.0501 Y1.3440
G01 X59.0575 Y1.2985
G01 X59.0633 Y1.2520
G01 X59.0675 Y1.2045
G01 X59.0699 Y1.1559
G01 X59.0708 Y1.1063
G01 X59.0700 Y1.0596
G01 X59.0678 Y1.0134
G01 X59.0641 Y0.9677
G01 X59.0589 Y0.9224
G01 X59.0522 Y0.8775
G01 X59.0440 Y0.8331
G01 X59.0343 Y0.7891
G01 X59.0231 Y0.7455
G01 X59.0105 Y0.7024
G01 X58.9964 Y0.6598
G01 X58.9815 Y0.6174
G01 X58.9654 Y0.5751
G01 X58.9482 Y0.5329
G01 X58.9298 Y0.4909
G01 X58.9102 Y0.4489
G01 X58.8895 Y0.4071
G01 X58.8677 Y0.3654
G01 X58.8447 Y0.3238
G01 X58.8205 Y0.2823
G01 X58.7952 Y0.2409
G01 X58.7693 Y0.2000
G01 X58.7424 Y0.1592
G01 X58.7144 Y0.1182
G01 X58.6854 Y0.0773
G01 X58.6553 Y0.0362
G01 X58.6242 Y-0.0049
G01 X58.5920 Y-0.0460
G01 X58.5588 Y-0.0872
G01 X58.5245 Y-0.1285
G01 X58.4537 Y-0.2113
G01 X58.3807 Y-0.2953
G01 X58.3053 Y-0.3806
G01 X58.2274 Y-0.4673
G01 X58.1062 Y-0.5997
G01 X57.3317 Y-1.4238
G01 X57.3317 Y-1.4459
G01 X59.2306 Y-1.4459
G01 X59.2306 Y-1.9034
G00 X59.2306 Y-1.9034
G01 F60.00
G01 Z-0.2400
G01 F80.00
G01 X56.7171 Y-1.9034
G01 X56.7171 Y-1.4734
G01 X57.7626 Y-0.3356
G01 X57.8774 Y-0.2098
G01 X57.9842 Y-0.0909
G01 X58.0510 Y-0.0155
G01 X58.0831 Y0.0214
G01 X58.1141 Y0.0581
G01 X58.1441 Y0.0946
G01 X58.1732 Y0.1309
G01 X58.2012 Y0.1671
G01 X58.2283 Y0.2032
G01 X58.2544 Y0.2390
G01 X58.2794 Y0.2747
G01 X58.3035 Y0.3102
G01 X58.3492 Y0.3809
G01 X58.3707 Y0.4161
G01 X58.3911 Y0.4514
G01 X58.4104 Y0.4867
G01 X58.4286 Y0.5220
G01 X58.4457 Y0.5573
G01 X58.4617 Y0.5925
G01 X58.4766 Y0.6278
G01 X58.4903 Y0.6631
G01 X58.5030 Y0.6984
G01 X58.5145 Y0.7345
G01 X58.5248 Y0.7712
G01 X58.5339 Y0.8086
G01 X58.5418 Y0.8465
G01 X58.5485 Y0.8851
G01 X58.5540 Y0.9243
G01 X58.5582 Y0.9640
G01 X58.5612 Y1.0044
G01 X58.5630 Y1.0454
G01 X58.5637 Y1.0870
G01 X58.5632 Y1.1191
G01 X58.5618 Y1.1505
G01 X58.5594 Y1.1811
G01 X58.5562 Y1.2109
G01 X58.5519 Y1.2399
G01 X58.5468 Y1.2682
G01 X58.5407 Y1.2957
G01 X58.5337 Y1.3224
G01 X58.5257 Y1.3484
G01 X58.5168 Y1.3736
G01 X58.5070 Y1.3980
G01 X58.4964 Y1.4217
G01 X58.4850 Y1.4445
G01 X58.4727 Y1.4666
G01 X58.4596 Y1.4880
G01 X58.4457 Y1.5085
G01 X58.4310 Y1.5283
G01 X58.4154 Y1.5473
G01 X58.3990 Y1.5656
G01 X58.3643 Y1.6003
G01 X58.3463 Y1.6166
G01 X58.3275 Y1.6320
G01 X58.3081 Y1.6466
G01 X58.2880 Y1.6602
G01 X58.2673 Y1.6730
G01 X58.2459 Y1.6849
G01 X58.2239 Y1.6960
G01 X58.2012 Y1.7061
G01 X58.1778 Y1.7154
G01 X58.1538 Y1.7237
G01 X58.1293 Y1.7312
G01 X58.1042 Y1.7378
G01 X58.0786 Y1.7436
G01 X58.0524 Y1.7484
G01 X58.0257 Y1.7524
G01 X57.9984 Y1.7555
G01 X57.9705 Y1.7577
G01 X57.9422 Y1.7590
G01 X57.9132 Y1.7595
G01 X57.8614 Y1.7584
G01 X57.8105 Y1.7552
G01 X57.7606 Y1.7498
G01 X57.7117 Y1.7423
G01 X57.6638 Y1.7326
G01 X57.6169 Y1.7208
G01 X57.5710 Y1.7068
G01 X57.5260 Y1.6907
G01 X57.4821 Y1.6724
G01 X57.4392 Y1.6520
G01 X57.3975 Y1.6304
G01 X57.3562 Y1.6076
G01 X57.3152 Y1.5837
G01 X57.2747 Y1.5585
G01 X57.2345 Y1.5321
G01 X57.1948 Y1.5045
G01 X57.1554 Y1.4756
G01 X57.1164 Y1.4456
G01 X57.0778 Y1.4143
G01 X57.0395 Y1.3819
G01 X56.7584 Y1.7098
G01 X56.8032 Y1.7490
G01 X56.8493 Y1.7870
G01 X56.8967 Y1.8239
G01 X56.9454 Y1.8598
G01 X56.9703 Y1.8773
G01 X57.0210 Y1.9119
G01 X57.0469 Y1.9288
G01 X57.0733 Y1.9452
G01 X57.1000 Y1.9611
G01 X57.1271 Y1.9765
G01 X57.1545 Y1.9914
G01 X57.1824 Y2.0058
G01 X57.2106 Y2.0197
G01 X57.2393 Y2.0332
G01 X57.2683 Y2.0461
G01 X57.2977 Y2.0585
G01 X57.3274 Y2.0703
G01 X57.3574 Y2.0816
G01 X57.3878 Y2.0924
G01 X57.4185 Y2.1026
G01 X57.4495 Y2.1122
G01 X57.4809 Y2.1213
G01 X57.5126 Y2.1299
G01 X57.5446 Y2.1379
G01 X57.6097 Y2.1526
G01 X57.6427 Y2.1592
G01 X57.6760 Y2.1650
G01 X57.7097 Y2.1700
G01 X57.7437 Y2.1742
G01 X57.7781 Y2.1777
G01 X57.8127 Y2.1804
G01 X57.8477 Y2.1823
G01 X57.8831 Y2.1835
G01 X57.9187 Y2.1839
G01 X57.9711 Y2.1831
G01 X58.0225 Y2.1809
G01 X58.0728 Y2.1772
G01 X58.1220 Y2.1720
G01 X58.1702 Y2.1653
G01 X58.2174 Y2.1571
G01 X58.2635 Y2.1474
G01 X58.3086 Y2.1363
G01 X58.3526 Y2.1236
G01 X58.3955 Y2.1095
G01 X58.4379 Y2.0939
G01 X58.4789 Y2.0771
G01 X58.5186 Y2.0589
G01 X58.5569 Y2.0394
G01 X58.5940 Y2.0185
G01 X58.6297 Y1.9964
G01 X58.6641 Y1.9729
G01 X58.6972 Y1.9481
G01 X58.7289 Y1.9220
G01 X58.7593 Y1.8945
G01 X58.7884 Y1.8663
G01 X58.8161 Y1.8368
G01 X58.8424 Y1.8061
G01 X58.8674 Y1.7741
G01 X58.8909 Y1.7408
G01 X58.9131 Y1.7063
G01 X58.9339 Y1.6705
G01 X58.9534 Y1.6334
G01 X58.9714 Y1.5951
G01 X58.9881 Y1.5555
G01 X59.0038 Y1.5153
G01 X59.0179 Y1.4740
G01 X59.0303 Y1.4317
G01 X59.0410 Y1.3884
G01 X59.0501 Y1.3440
G01 X59.0575 Y1.2985
G01 X59.0633 Y1.2520
G01 X59.0675 Y1.2045
G01 X59.0699 Y1.1559
G01 X59.0708 Y1.1063
G01 X59.0700 Y1.0596
G01 X59.0678 Y1.0134
G01 X59.0641 Y0.9677
G01 X59.0589 Y0.9224
G01 X59.0522 Y0.8775
G01 X59.0440 Y0.8331
G01 X59.0343 Y0.7891
G01 X59.0231 Y0.7455
G01 X59.0105 Y0.7024
G01 X58.9964 Y0.6598
G01 X58.9815 Y0.6174
G01 X58.9654 Y0.5751
G01 X58.9482 Y0.5329
G01 X58.9298 Y0.4909
G01 X58.9102 Y0.4489
G01 X58.8895 Y0.4071
G01 X58.8677 Y0.3654
G01 X58.8447 Y0.3238
G01 X58.8205 Y0.2823
G01 X58.7952 Y0.2409
G01 X58.7693 Y0.2000
G01 X58.7424 Y0.1592
G01 X58.7144 Y0.1182
G01 X58.6854 Y0.0773
G01 X58.6553 Y0.0362
G01 X58.6242 Y-0.0049
G01 X58.5920 Y-0.0460
G01 X58.5588 Y-0.0872
G01 X58.5245 Y-0.1285
G01 X58.4537 Y-0.2113
G01 X58.3807 Y-0.2953
G01 X58.3053 Y-0.3806
G01 X58.2274 Y-0.4673
G01 X58.1062 Y-0.5997
G01 X57.3317 Y-1.4238
G01 X57.3317 Y-1.4459
G01 X59.2306 Y-1.4459
G01 X59.2306 Y-1.9034
G00 Z2.0000
G00 X85.3000 Y-1.9034
G01 F60.00
G01 Z-0.1200
G01 F80.00
G01 X85.3000 Y-0.1918
G01 X86.9371 Y-0.1918
G01 X86.9371 Y0.2519
G01 X85.3000 Y0.2519
G01 X85.3000 Y1.6795
G01 X87.0446 Y1.6795
G01 X87.0446 Y2.1260
G01 X84.7929 Y2.1260
G01 X84.7929 Y-1.9034
G01 X85.3000 Y-1.9034
G00 X85.3000 Y-1.9034
G01 F60.00
G01 Z-0.2400
G01 F80.00
G01 X85.3000 Y-0.1918
G01 X86.9371 Y-0.1918
G01 X86.9371 Y0.2519
G01 X85.3000 Y0.2519
G01 X85.3000 Y1.6795
G01 X87.0446 Y1.6795
G01 X87.0446 Y2.1260
G01 X84.7929 Y2.1260
G01 X84.7929 Y-1.9034
G01 X85.3000 Y-1.9034
G00 Z2.0000
G00 X90.4594 Y-1.9034
G01 F60.00
G01 Z-0.1200
G01 F80.00
G01 X89.8833 Y-1.9034
G01 X88.8167 Y-0.1533
G01 X87.7336 Y-1.9034
G01 X87.1962 Y-1.9034
G01 X88.5356 Y0.1968
G01 X87.2816 Y2.1260
G01 X87.8466 Y2.1260
G01 X88.8333 Y0.5468
G01 X89.8282 Y2.1260
G01 X90.3629 Y2.1260
G01 X89.1172 Y0.2078
G01 X90.4594 Y-1.9034
G00 X90.4594 Y-1.9034
G01 F60.00
G01 Z-0.2400
G01 F80.00
G01 X89.8833 Y-1.9034
G01 X88.8167 Y-0.1533
G01 X87.7336 Y-1.9034
G01 X87.1962 Y-1.9034
G01 X88.5356 Y0.1968
G01 X87.2816 Y2.1260
G01 X87.8466 Y2.1260
G01 X88.8333 Y0.5468
G01 X89.8282 Y2.1260
G01 X90.3629 Y2.1260
G01 X89.1172 Y0.2078
G01 X90.4594 Y-1.9034
G00 Z2.0000
G00 X92.4961 Y-1.9034
G01 F60.00
G01 Z-0.1200
G01 F80.00
G01 X92.4961 Y2.1260
G01 X93.0032 Y2.1260
G01 X93.0032 Y-1.4514
G01 X94.7644 Y-1.4514
G01 X94.7644 Y-1.9034
G01 X92.4961 Y-1.9034
G00 X92.4961 Y-1.9034
G01 F60.00
G01 Z-0.2400
G01 F80.00
G01 X92.4961 Y2.1260
G01 X93.0032 Y2.1260
G01 X93.0032 Y-1.4514
G01 X94.7644 Y-1.4514
G01 X94.7644 Y-1.9034
G01 X92.4961 Y-1.9034
G00 Z2.0000
G00 X95.7290 Y-0.3848
G01 F60.00
G01 Z-0.1200
G01 F80.00
G01 X95.7378 Y-0.1669
G01 X95.7641 Y0.0280
G01 X95.8081 Y0.2000
G01 X95.8697 Y0.3490
G01 X95.9488 Y0.4751
G01 X96.0455 Y0.5783
G01 X96.1598 Y0.6586
G01 X96.2917 Y0.7159
G01 X96.4411 Y0.7503
G01 X96.6082 Y0.7618
G01 X96.6937 Y0.7589
G01 X96.7750 Y0.7502
G01 X96.8520 Y0.7357
G01 X96.9248 Y0.7155
G01 X96.9933 Y0.6894
G01 X97.0576 Y0.6576
G01 X97.1177 Y0.6200
G01 X97.1735 Y0.5765
G01 X97.2251 Y0.5273
G01 X97.2724 Y0.4724
G01 X97.3158 Y0.4122
G01 X97.3547 Y0.3464
G01 X97.3890 Y0.2748
G01 X97.4188 Y0.1976
G01 X97.4439 Y0.1148
G01 X97.4645 Y0.0262
G01 X97.4805 Y-0.0680
G01 X97.4920 Y-0.1679
G01 X97.4988 Y-0.2735
G01 X97.5011 Y-0.3848
G01 X97.4989 Y-0.4961
G01 X97.4921 Y-0.6021
G01 X97.4808 Y-0.7025
G01 X97.4650 Y-0.7975
G01 X97.4446 Y-0.8871
G01 X97.4198 Y-0.9712
G01 X97.3904 Y-1.0498
G01 X97.3565 Y-1.1230
G01 X97.3181 Y-1.1907
G01 X97.2751 Y-1.2529
G01 X97.2279 Y-1.3090
G01 X97.1765 Y-1.3591
G01 X97.1209 Y-1.4033
G01 X97.0613 Y-1.4417
G01 X96.9975 Y-1.4741
G01 X96.9295 Y-1.5007
G01 X96.8575 Y-1.5213
G01 X96.7812 Y-1.5360
G01 X96.7009 Y-1.5449
G01 X96.6164 Y-1.5478
G01 X96.5309 Y-1.5449
G01 X96.4496 Y-1.5360
G01 X96.3726 Y-1.5213
G01 X96.2998 Y-1.5007
G01 X96.2313 Y-1.4741
G01 X96.1670 Y-1.4417
G01 X96.1069 Y-1.4033
G01 X96.0511 Y-1.3591
G01 X95.9995 Y-1.3090
G01 X95.9522 Y-1.2529
G01 X95.9098 Y-1.1907
G01 X95.8719 Y-1.1230
G01 X95.8384 Y-1.0498
G01 X95.8093 Y-0.9712
G01 X95.7848 Y-0.8871
G01 X95.7647 Y-0.7975
G01 X95.7491 Y-0.7025
G01 X95.7379 Y-0.6021
G01 X95.7312 Y-0.4961
G01 X95.7290 Y-0.3848
G00 X95.7290 Y-0.3848
G01 F60.00
G01 Z-0.2400
G01 F80.00
G01 X95.7378 Y-0.1669
G01 X95.7641 Y0.0280
G01 X95.8081 Y0.2000
G01 X95.8697 Y0.3490
G01 X95.9488 Y0.4751
G01 X96.0455 Y0.5783
G01 X96.1598 Y0.6586
G01 X96.2917 Y0.7159
G01 X96.4411 Y0.7503
G01 X96.6082 Y0.7618
G01 X96.6937 Y0.7589
G01 X96.7750 Y0.7502
G01 X96.8520 Y0.7357
G01 X96.9248 Y0.7155
G01 X96.9933 Y0.6894
G01 X97.0576 Y0.6576
G01 X97.1177 Y0.6200
G01 X97.1735 Y0.5765
G01 X97.2251 Y0.5273
G01 X97.2724 Y0.4724
G01 X97.3158 Y0.4122
G01 X97.3547 Y0.3464
G01 X97.3890 Y0.2748
G01 X97.4188 Y0.1976
G01 X97.4439 Y0.1148
G01 X97.4645 Y0.0262
G01 X97.4805 Y-0.0680
G01 X97.4920 Y-0.1679
G01 X97.4988 Y-0.2735
G01 X97.5011 Y-0.3848
G01 X97.4989 Y-0.4961
G01 X97.4921 Y-0.6021
G01 X97.4808 Y-0.7025
G01 X97.4650 Y-0.7975
G01 X97.4446 Y-0.8871
G01 X97.4198 Y-0.9712
G01 X97.3904 Y-1.0498
G01 X97.3565 Y-1.1230
G01 X97.3181 Y-1.1907
G01 X97.2751 Y-1.2529
G01 X97.2279 Y-1.3090
G01 X97.1765 Y-1.3591
G01 X97.1209 Y-1.4033
G01 X97.0613 Y-1.4417
G01 X96.9975 Y-1.4741
G01 X96.9295 Y-1.5007
G01 X96.8575 Y-1.5213
G01 X96.7812 Y-1.5360
G01 X96.7009 Y-1.5449
G01 X96.6164 Y-1.5478
G01 X96.5309 Y-1.5449
G01 X96.4496 Y-1.5360
G01 X96.3726 Y-1.5213
G01 X96.2998 Y-1.5007
G01 X96.2313 Y-1.4741
G01 X96.1670 Y-1.4417
G01 X96.1069 Y-1.4033
G01 X96.0511 Y-1.3591
G01 X95.9995 Y-1.3090
G01 X95.9522 Y-1.2529
G01 X95.9098 Y-1.1907
G01 X95.8719 Y-1.1230
G01 X95.8384 Y-1.0498
G01 X95.8093 Y-0.9712
G01 X95.7848 Y-0.8871
G01 X95.7647 Y-0.7975
G01 X95.7491 Y-0.7025
G01 X95.7379 Y-0.6021
G01 X95.7312 Y-0.4961
G01 X95.7290 Y-0.3848
G00 Z2.0000
G00 X98.0138 Y-0.3848
G01 F60.00
G01 Z-0.1200
G01 F80.00
G01 X98.0100 Y-0.5298
G01 X97.9988 Y-0.6683
G01 X97.9800 Y-0.8003
G01 X97.9538 Y-0.9258
G01 X97.9201 Y-1.0449
G01 X97.8788 Y-1.1574
G01 X97.8301 Y-1.2634
G01 X97.7739 Y-1.3628
G01 X97.7102 Y-1.4558
G01 X97.6389 Y-1.5423
G01 X97.5611 Y-1.6214
G01 X97.4775 Y-1.6921
G01 X97.3882 Y-1.7546
G01 X97.2932 Y-1.8087
G01 X97.1925 Y-1.8544
G01 X97.0860 Y-1.8919
G01 X96.9737 Y-1.9210
G01 X96.8558 Y-1.9418
G01 X96.7321 Y-1.9543
G01 X96.6027 Y-1.9585
G01 X96.5215 Y-1.9566
G01 X96.4421 Y-1.9509
G01 X96.3647 Y-1.9414
G01 X96.2891 Y-1.9281
G01 X96.2154 Y-1.9109
G01 X96.1436 Y-1.8900
G01 X96.0737 Y-1.8653
G01 X96.0056 Y-1.8368
G01 X95.9394 Y-1.8045
G01 X95.8751 Y-1.7683
G01 X95.8131 Y-1.7281
G01 X95.7541 Y-1.6845
G01 X95.6980 Y-1.6377
G01 X95.6449 Y-1.5875
G01 X95.5946 Y-1.5341
G01 X95.5473 Y-1.4773
G01 X95.5029 Y-1.4172
G01 X95.4614 Y-1.3538
G01 X95.4229 Y-1.2871
G01 X95.3872 Y-1.2171
G01 X95.3548 Y-1.1443
G01 X95.3257 Y-1.0692
G01 X95.3001 Y-0.9917
G01 X95.2779 Y-0.9120
G01 X95.2591 Y-0.8299
G01 X95.2437 Y-0.7455
G01 X95.2317 Y-0.6588
G01 X95.2232 Y-0.5698
G01 X95.2181 Y-0.4784
G01 X95.2164 Y-0.3848
G01 X95.2200 Y-0.2403
G01 X95.2311 Y-0.1024
G01 X95.2496 Y0.0289
G01 X95.2754 Y0.1537
G01 X95.3087 Y0.2719
G01 X95.3493 Y0.3835
G01 X95.3973 Y0.4886
G01 X95.4527 Y0.5871
G01 X95.5155 Y0.6791
G01 X95.5857 Y0.7645
G01 X95.6625 Y0.8431
G01 X95.7453 Y0.9133
G01 X95.8340 Y0.9753
G01 X95.9287 Y1.0291
G01 X96.0294 Y1.0746
G01 X96.1360 Y1.1118
G01 X96.2486 Y1.1407
G01 X96.3671 Y1.1614
G01 X96.4915 Y1.1738
G01 X96.6219 Y1.1779
G01 X96.7472 Y1.1737
G01 X96.8671 Y1.1611
G01 X96.9818 Y1.1400
G01 X97.0911 Y1.1105
G01 X97.1952 Y1.0725
G01 X97.2940 Y1.0261
G01 X97.3875 Y0.9713
G01 X97.4757 Y0.9080
G01 X97.5586 Y0.8364
G01 X97.6362 Y0.7562
G01 X97.7079 Y0.6694
G01 X97.7721 Y0.5765
G01 X97.8287 Y0.4776
G01 X97.8778 Y0.3726
G01 X97.9194 Y0.2615
G01 X97.9534 Y0.1444
G01 X97.9798 Y0.0212
G01 X97.9987 Y-0.1081
G01 X98.0100 Y-0.2434
G01 X98.0138 Y-0.3848
G00 X98.0138 Y-0.3848
G01 F60.00
G01 Z-0.2400
G01 F80.00
G01 X98.0100 Y-0.5298
G01 X97.9988 Y-0.6683
G01 X97.9800 Y-0.8003
G01 X97.9538 Y-0.9258
G01 X97.9201 Y-1.0449
G01 X97.8788 Y-1.1574
G01 X97.8301 Y-1.2634
G01 X97.7739 Y-1.3628
G01 X97.7102 Y-1.4558
G01 X97.6389 Y-1.5423
G01 X97.5611 Y-1.6214
G01 X97.4775 Y-1.6921
G01 X97.3882 Y-1.7546
G01 X97.2932 Y-1.8087
G01 X97.1925 Y-1.8544
G01 X97.0860 Y-1.8919
G01 X96.9737 Y-1.9210
G01 X96.8558 Y-1.9418
G01 X96.7321 Y-1.9543
G01 X96.6027 Y-1.9585
G01 X96.5215 Y-1.9566
G01 X96.4421 Y-1.9509
G01 X96.3647 Y-1.9414
G01 X96.2891 Y-1.9281
G01 X96.2154 Y-1.9109
G01 X96.1436 Y-1.8900
G01 X96.0737 Y-1.8653
G01 X96.0056 Y-1.8368
G01 X95.9394 Y-1.8045
G01 X95.8751 Y-1.7683
G01 X95.8131 Y-1.7281
G01 X95.7541 Y-1.6845
G01 X95.6980 Y-1.6377
G01 X95.6449 Y-1.5875
G01 X95.5946 Y-1.5341
G01 X95.5473 Y-1.4773
G01 X95.5029 Y-1.4172
G01 X95.4614 Y-1.3538
G01 X95.4229 Y-1.2871
G01 X95.3872 Y-1.2171
G01 X95.3548 Y-1.1443
G01 X95.3257 Y-1.0692
G01 X95.3001 Y-0.9917
G01 X95.2779 Y-0.9120
G01 X95.2591 Y-0.8299
G01 X95.2437 Y-0.7455
G01 X95.2317 Y-0.6588
G01 X95.2232 Y-0.5698
G01 X95.2181 Y-0.4784
G01 X95.2164 Y-0.3848
G01 X95.2200 Y-0.2403
G01 X95.2311 Y-0.1024
G01 X95.2496 Y0.0289
G01 X95.2754 Y0.1537
G01 X95.3087 Y0.2719
G01 X95.3493 Y0.3835
G01 X95.3973 Y0.4886
G01 X95.4527 Y0.5871
G01 X95.5155 Y0.6791
G01 X95.5857 Y0.7645
G01 X95.6625 Y0.8431
G01 X95.7453 Y0.9133
G01 X95.8340 Y0.9753
G01 X95.9287 Y1.0291
G01 X96.0294 Y1.0746
G01 X96.1360 Y1.1118
G01 X96.2486 Y1.1407
G01 X96.3671 Y1.1614
G01 X96.4915 Y1.1738
G01 X96.6219 Y1.1779
G01 X96.7472 Y1.1737
G01 X96.8671 Y1.1611
G01 X96.9818 Y1.1400
G01 X97.0911 Y1.1105
G01 X97.1952 Y1.0725
G01 X97.2940 Y1.0261
G01 X97.3875 Y0.9713
G01 X97.4757 Y0.9080
G01 X97.5586 Y0.8364
G01 X97.6362 Y0.7562
G01 X97.7079 Y0.6694
G01 X97.7721 Y0.5765
G01 X97.8287 Y0.4776
G01 X97.8778 Y0.3726
G01 X97.9194 Y0.2615
G01 X97.9534 Y0.1444
G01 X97.9798 Y0.0212
G01 X97.9987 Y-0.1081
G01 X98.0100 Y-0.2434
G01 X98.0138 Y-0.3848
G00 Z2.0000
G00 X99.1438 Y-0.3848
G01 F60.00
G01 Z-0.1200
G01 F80.00
G01 X99.1525 Y-0.1669
G01 X99.1789 Y0.0280
G01 X99.2229 Y0.2000
G01 X99.2844 Y0.3490
G01 X99.3636 Y0.4751
G01 X99.4603 Y0.5783
G01 X99.5746 Y0.6586
G01 X99.7064 Y0.7159
G01 X99.8559 Y0.7503
G01 X100.0229 Y0.7618
G01 X100.1085 Y0.7589
G01 X100.1897 Y0.7502
G01 X100.2668 Y0.7357
G01 X100.3396 Y0.7155
G01 X100.4081 Y0.6894
G01 X100.4724 Y0.6576
G01 X100.5325 Y0.6200
G01 X100.5883 Y0.5765
G01 X100.6398 Y0.5273
G01 X100.6872 Y0.4724
G01 X100.7306 Y0.4122
G01 X100.7695 Y0.3464
G01 X100.8038 Y0.2748
G01 X100.8336 Y0.1976
G01 X100.8587 Y0.1148
G01 X100.8793 Y0.0262
G01 X100.8953 Y-0.0680
G01 X100.9068 Y-0.1679
G01 X100.9136 Y-0.2735
G01 X100.9159 Y-0.3848
G01 X100.9137 Y-0.4961
G01 X100.9069 Y-0.6021
G01 X100.8956 Y-0.7025
G01 X100.8798 Y-0.7975
G01 X100.8594 Y-0.8871
G01 X100.8346 Y-0.9712
G01 X100.8052 Y-1.0498
G01 X100.7713 Y-1.1230
G01 X100.7329 Y-1.1907
G01 X100.6899 Y-1.2529
G01 X100.6426 Y-1.3090
G01 X100.5912 Y-1.3591
G01 X100.5357 Y-1.4033
G01 X100.4760 Y-1.4417
G01 X100.4122 Y-1.4741
G01 X100.3443 Y-1.5007
G01 X100.2722 Y-1.5213
G01 X100.1960 Y-1.5360
G01 X100.1157 Y-1.5449
G01 X100.0312 Y-1.5478
G01 X99.9457 Y-1.5449
G01 X99.8644 Y-1.5360
G01 X99.7874 Y-1.5213
G01 X99.7146 Y-1.5007
G01 X99.6461 Y-1.4741
G01 X99.5818 Y-1.4417
G01 X99.5217 Y-1.4033
G01 X99.4659 Y-1.3591
G01 X99.4143 Y-1.3090
G01 X99.3670 Y-1.2529
G01 X99.3246 Y-1.1907
G01 X99.2866 Y-1.1230
G01 X99.2531 Y-1.0498
G01 X99.2241 Y-0.9712
G01 X99.1996 Y-0.8871
G01 X99.1795 Y-0.7975
G01 X99.1638 Y-0.7025
G01 X99.1527 Y-0.6021
G01 X99.1460 Y-0.4961
G01 X99.1438 Y-0.3848
G00 X99.1438 Y-0.3848
G01 F60.00
G01 Z-0.2400
G01 F80.00
G01 X99.1525 Y-0.1669
G01 X99.1789 Y0.0280
G01 X99.2229 Y0.2000
G01 X99.2844 Y0.3490
G01 X99.3636 Y0.4751
G01 X99.4603 Y0.5783
G01 X99.5746 Y0.6586
G01 X99.7064 Y0.7159
G01 X99.8559 Y0.7503
G01 X100.0229 Y0.7618
G01 X100.1085 Y0.7589
G01 X100.1897 Y0.7502
G01 X100.2668 Y0.7357
G01 X100.3396 Y0.7155
G01 X100.4081 Y0.6894
G01 X100.4724 Y0.6576
G01 X100.5325 Y0.6200
G01 X100.5883 Y0.5765
G01 X100.6398 Y0.5273
G01 X100.6872 Y0.4724
G01 X100.7306 Y0.4122
G01 X100.7695 Y0.3464
G01 X100.8038 Y0.2748
G01 X100.8336 Y0.1976
G01 X100.8587 Y0.1148
G01 X100.8793 Y0.0262
G01 X100.8953 Y-0.0680
G01 X100.9068 Y-0.1679
G01 X100.9136 Y-0.2735
G01 X100.9159 Y-0.3848
G01 X100.9137 Y-0.4961
G01 X100.9069 Y-0.6021
G01 X100.8956 Y-0.7025
G01 X100.8798 Y-0.7975
G01 X100.8594 Y-0.8871
G01 X100.8346 Y-0.9712
G01 X100.8052 Y-1.0498
G01 X100.7713 Y-1.1230
G01 X100.7329 Y-1.1907
G01 X100.6899 Y-1.2529
G01 X100.6426 Y-1.3090
G01 X100.5912 Y-1.3591
G01 X100.5357 Y-1.4033
G01 X100.4760 Y-1.4417
G01 X100.4122 Y-1.4741
G01 X100.3443 Y-1.5007
G01 X100.2722 Y-1.5213
G01 X100.1960 Y-1.5360
G01 X100.1157 Y-1.5449
G01 X100.0312 Y-1.5478
G01 X99.9457 Y-1.5449
G01 X99.8644 Y-1.5360
G01 X99.7874 Y-1.5213
G01 X99.7146 Y-1.5007
G01 X99.6461 Y-1.4741
G01 X99.5818 Y-1.4417
G01 X99.5217 Y-1.4033
G01 X99.4659 Y-1.3591
G01 X99.4143 Y-1.3090
G01 X99.3670 Y-1.2529
G01 X99.3246 Y-1.1907
G01 X99.2866 Y-1.1230
G01 X99.2531 Y-1.0498
G01 X99.2241 Y-0.9712
G01 X99.1996 Y-0.8871
G01 X99.1795 Y-0.7975
G01 X99.1638 Y-0.7025
G01 X99.1527 Y-0.6021
G01 X99.1460 Y-0.4961
G01 X99.1438 Y-0.3848
G00 Z2.0000
G00 X101.4285 Y-0.3848
G01 F60.00
G01 Z-0.1200
G01 F80.00
G01 X101.4248 Y-0.5298
G01 X101.4135 Y-0.6683
G01 X101.3948 Y-0.8003
G01 X101.3686 Y-0.9258
G01 X101.3348 Y-1.0449
G01 X101.2936 Y-1.1574
G01 X101.2449 Y-1.2634
G01 X101.1887 Y-1.3628
G01 X101.1249 Y-1.4558
G01 X101.0537 Y-1.5423
G01 X100.9759 Y-1.6214
G01 X100.8923 Y-1.6921
G01 X100.8030 Y-1.7546
G01 X100.7080 Y-1.8087
G01 X100.6072 Y-1.8544
G01 X100.5007 Y-1.8919
G01 X100.3885 Y-1.9210
G01 X100.2705 Y-1.9418
G01 X100.1469 Y-1.9543
G01 X100.0174 Y-1.9585
G01 X99.9362 Y-1.9566
G01 X99.8569 Y-1.9509
G01 X99.7795 Y-1.9414
G01 X99.7039 Y-1.9281
G01 X99.6302 Y-1.9109
G01 X99.5584 Y-1.8900
G01 X99.4884 Y-1.8653
G01 X99.4204 Y-1.8368
G01 X99.3542 Y-1.8045
G01 X99.2898 Y-1.7683
G01 X99.2279 Y-1.7281
G01 X99.1689 Y-1.6845
G01 X99.1128 Y-1.6377
G01 X99.0596 Y-1.5875
G01 X99.0094 Y-1.5341
G01 X98.9621 Y-1.4773
G01 X98.9177 Y-1.4172
G01 X98.8762 Y-1.3538
G01 X98.8376 Y-1.2871
G01 X98.8020 Y-1.2171
G01 X98.7695 Y-1.1443
G01 X98.7405 Y-1.0692
G01 X98.7149 Y-0.9917
G01 X98.6926 Y-0.9120
G01 X98.6738 Y-0.8299
G01 X98.6585 Y-0.7455
G01 X98.6465 Y-0.6588
G01 X98.6380 Y-0.5698
G01 X98.6328 Y-0.4784
G01 X98.6311 Y-0.3848
G01 X98.6348 Y-0.2403
G01 X98.6459 Y-0.1024
G01 X98.6644 Y0.0289
G01 X98.6902 Y0.1537
G01 X98.7235 Y0.2719
G01 X98.7641 Y0.3835
G01 X98.8121 Y0.4886
G01 X98.8675 Y0.5871
G01 X98.9303 Y0.6791
G01 X99.0004 Y0.7645
G01 X99.0773 Y0.8431
G01 X99.1601 Y0.9133
G01 X99.2488 Y0.9753
G01 X99.3435 Y1.0291
G01 X99.4442 Y1.0746
G01 X99.5508 Y1.1118
G01 X99.6633 Y1.1407
G01 X99.7818 Y1.1614
G01 X99.9063 Y1.1738
G01 X100.0367 Y1.1779
G01 X100.1620 Y1.1737
G01 X100.2819 Y1.1611
G01 X100.3966 Y1.1400
G01 X100.5059 Y1.1105
G01 X100.6100 Y1.0725
G01 X100.7088 Y1.0261
G01 X100.8023 Y0.9713
G01 X100.8904 Y0.9080
G01 X100.9733 Y0.8364
G01 X101.0510 Y0.7562
G01 X101.1227 Y0.6694
G01 X101.1869 Y0.5765
G01 X101.2435 Y0.4776
G01 X101.2926 Y0.3726
G01 X101.3341 Y0.2615
G01 X101.3681 Y0.1444
G01 X101.3946 Y0.0212
G01 X101.4134 Y-0.1081
G01 X101.4248 Y-0.2434
G01 X101.4285 Y-0.3848
G00 X101.4285 Y-0.3848
G01 F60.00
G01 Z-0.2400
G01 F80.00
G01 X101.4248 Y-0.5298
G01 X101.4135 Y-0.6683
G01 X101.3948 Y-0.8003
G01 X101.3686 Y-0.9258
G01 X101.3348 Y-1.0449
G01 X101.2936 Y-1.1574
G01 X101.2449 Y-1.2634
G01 X101.1887 Y-1.3628
G01 X101.1249 Y-1.4558
G01 X101.0537 Y-1.5423
G01 X100.9759 Y-1.6214
G01 X100.8923 Y-1.6921
G01 X100.8030 Y-1.7546
G01 X100.7080 Y-1.8087
G01 X100.6072 Y-1.8544
G01 X100.5007 Y-1.8919
G01 X100.3885 Y-1.9210
G01 X100.2705 Y-1.9418
G01 X100.1469 Y-1.9543
G01 X100.0174 Y-1.9585
G01 X99.9362 Y-1.9566
G01 X99.8569 Y-1.9509
G01 X99.7795 Y-1.9414
G01 X99.7039 Y-1.9281
G01 X99.6302 Y-1.9109
G01 X99.5584 Y-1.8900
G01 X99.4884 Y-1.8653
G01 X99.4204 Y-1.8368
G01 X99.3542 Y-1.8045
G01 X99.2898 Y-1.7683
G01 X99.2279 Y-1.7281
G01 X99.1689 Y-1.6845
G01 X99.1128 Y-1.6377
G01 X99.0596 Y-1.5875
G01 X99.0094 Y-1.5341
G01 X98.9621 Y-1.4773
G01 X98.9177 Y-1.4172
G01 X98.8762 Y-1.3538
G01 X98.8376 Y-1.2871
G01 X98.8020 Y-1.2171
G01 X98.7695 Y-1.1443
G01 X98.7405 Y-1.0692
G01 X98.7149 Y-0.9917
G01 X98.6926 Y-0.9120
G01 X98.6738 Y-0.8299
G01 X98.6585 Y-0.7455
G01 X98.6465 Y-0.6588
G01 X98.6380 Y-0.5698
G01 X98.6328 Y-0.4784
G01 X98.6311 Y-0.3848
G01 X98.6348 Y-0.2403
G01 X98.6459 Y-0.1024
G01 X98.6644 Y0.0289
G01 X98.6902 Y0.1537
G01 X98.7235 Y0.2719
G01 X98.7641 Y0.3835
G01 X98.8121 Y0.4886
G01 X98.8675 Y0.5871
G01 X98.9303 Y0.6791
G01 X99.0004 Y0.7645
G01 X99.0773 Y0.8431
G01 X99.1601 Y0.9133
G01 X99.2488 Y0.9753
G01 X99.3435 Y1.0291
G01 X99.4442 Y1.0746
G01 X99.5508 Y1.1118
G01 X99.6633 Y1.1407
G01 X99.7818 Y1.1614
G01 X99.9063 Y1.1738
G01 X100.0367 Y1.1779
G01 X100.1620 Y1.1737
G01 X100.2819 Y1.1611
G01 X100.3966 Y1.1400
G01 X100.5059 Y1.1105
G01 X100.6100 Y1.0725
G01 X100.7088 Y1.0261
G01 X100.8023 Y0.9713
G01 X100.8904 Y0.9080
G01 X100.9733 Y0.8364
G01 X101.0510 Y0.7562
G01 X101.1227 Y0.6694
G01 X101.1869 Y0.5765
G01 X101.2435 Y0.4776
G01 X101.2926 Y0.3726
G01 X101.3341 Y0.2615
G01 X101.3681 Y0.1444
G01 X101.3946 Y0.0212
G01 X101.4134 Y-0.1081
G01 X101.4248 Y-0.2434
G01 X101.4285 Y-0.3848
G00 Z2.0000
G00 X103.5645 Y0.7618
G01 F60.00
G01 Z-0.1200
G01 F80.00
G01 X103.6410 Y0.7588
G01 X103.7139 Y0.7500
G01 X103.7832 Y0.7352
G01 X103.8489 Y0.7146
G01 X103.9111 Y0.6880
G01 X103.9696 Y0.6556
G01 X104.0246 Y0.6173
G01 X104.0760 Y0.5730
G01 X104.1238 Y0.5229
G01 X104.1681 Y0.4669
G01 X104.2089 Y0.4058
G01 X104.2455 Y0.3395
G01 X104.2777 Y0.2680
G01 X104.3057 Y0.1912
G01 X104.3293 Y0.1093
G01 X104.3487 Y0.0220
G01 X104.3637 Y-0.0704
G01 X104.3745 Y-0.1681
G01 X104.3809 Y-0.2711
G01 X104.3831 Y-0.3793
G01 X104.3809 Y-0.4871
G01 X104.3745 Y-0.5900
G01 X104.3637 Y-0.6882
G01 X104.3487 Y-0.7814
G01 X104.3293 Y-0.8698
G01 X104.3057 Y-0.9534
G01 X104.2777 Y-1.0321
G01 X104.2455 Y-1.1060
G01 X104.2089 Y-1.1750
G01 X104.1681 Y-1.2392
G01 X104.1240 Y-1.2978
G01 X104.0765 Y-1.3503
G01 X104.0256 Y-1.3966
G01 X103.9714 Y-1.4367
G01 X103.9138 Y-1.4707
G01 X103.8529 Y-1.4984
G01 X103.7886 Y-1.5201
G01 X103.7209 Y-1.5355
G01 X103.6499 Y-1.5447
G01 X103.5755 Y-1.5478
G01 X103.4866 Y-1.5451
G01 X103.4027 Y-1.5369
G01 X103.3238 Y-1.5233
G01 X103.2501 Y-1.5042
