(G-CODE GENERATED BY FLATCAM v8.994 - www.flatcam.org - Version Date: 2020/11/7)

(Name: copper_bottom.gbr_iso_combined_cnc)
(Type: G-code from Geometry)
(Units: MM)

(Created on Tuesday, 09 December 2025 at 13:34)

(This preprocessor is the default preprocessor used by FlatCAM.)
(It is made to work with MACH3 compatible motion controllers.)

(TOOL DIAMETER: 0.1 mm)
(Feedrate_XY: 120.0 mm/min)
(Feedrate_Z: 60.0 mm/min)
(Feedrate rapids 1500.0 mm/min)

(Z_Cut: -0.07 mm)
(Z_Move: 2.0 mm)
(Z Start: None mm)
(Z End: 1.0 mm)
(X,Y End: 0.0000, 0.0000 mm)
(Steps per circle: 64)
(Preprocessor Geometry: Default_no_M6)

(X range:  -93.3205 ...   -4.8378  mm)
(Y range:    2.3360 ...   47.0925  mm)

(Spindle Speed: 10000.0 RPM)
G21
G90
G94

G01 F120.00

M5
G00 Z15.0000
G00 X0.0000 Y0.0000
T1
(MSG, Change to Tool Dia = 0.1000)
M0
G00 Z15.0000
        
M03 S10000.0
G01 F120.00
G00 X-15.3381 Y6.6412
G01 F60.00
G01 Z-0.0700
G01 F120.00
G01 X-15.6219 Y6.6412
G01 X-15.6219 Y6.7953
G01 X-15.4201 Y6.7954
G01 X-15.4116 Y6.7965
G01 X-15.4046 Y6.7987
G01 X-15.3969 Y6.8024
G01 X-15.3899 Y6.8074
G01 X-14.7474 Y7.4497
G01 X-14.7426 Y7.4553
G01 X-14.7387 Y7.4615
G01 X-14.7357 Y7.4683
G01 X-14.7338 Y7.4753
G01 X-14.7329 Y7.4826
G01 X-14.7328 Y7.6844
G01 X-14.5787 Y7.6844
G01 X-14.5787 Y7.4006
G01 X-15.3381 Y6.6412
G00 Z2.0000
G00 X-16.1281 Y6.6412
G01 F60.00
G01 Z-0.0700
G01 F120.00
G01 X-16.4119 Y6.6412
G01 X-17.1713 Y7.4006
G01 X-17.1713 Y7.6844
G01 X-17.0172 Y7.6844
G01 X-17.0171 Y7.4826
G01 X-17.0162 Y7.4753
G01 X-17.0143 Y7.4683
G01 X-17.0113 Y7.4615
G01 X-17.0074 Y7.4553
G01 X-17.0026 Y7.4497
G01 X-16.3601 Y6.8074
G01 X-16.3542 Y6.8031
G01 X-16.3465 Y6.7991
G01 X-16.3384 Y6.7965
G01 X-16.3299 Y6.7954
G01 X-16.1281 Y6.7953
G01 X-16.1281 Y6.6412
G00 Z2.0000
G00 X-14.5787 Y8.1906
G01 F60.00
G01 Z-0.0700
G01 F120.00
G01 X-14.7328 Y8.1906
G01 X-14.7329 Y8.3924
G01 X-14.7338 Y8.3997
G01 X-14.7353 Y8.4056
G01 X-14.7376 Y8.4113
G01 X-14.7412 Y8.4177
G01 X-14.7474 Y8.4253
G01 X-15.1897 Y8.8675
G01 X-15.1897 Y9.0854
G01 X-14.5787 Y8.4744
G01 X-14.5787 Y8.1906
G00 Z2.0000
G00 X-16.5603 Y9.0854
G01 F60.00
G01 Z-0.0700
G01 F120.00
G01 X-16.5603 Y8.8675
G01 X-17.0026 Y8.4253
G01 X-17.0088 Y8.4177
G01 X-17.0119 Y8.4124
G01 X-17.0147 Y8.4056
G01 X-17.0162 Y8.3997
G01 X-17.0171 Y8.3924
G01 X-17.0172 Y8.1906
G01 X-17.1713 Y8.1906
G01 X-17.1713 Y8.4744
G01 X-16.5603 Y9.0854
G00 Z2.0000
G00 X-16.8493 Y16.0592
G01 F60.00
G01 Z-0.0700
G01 F120.00
G01 X-16.8054 Y16.0153
G01 X-16.8681 Y16.0153
G01 X-16.8628 Y16.0245
G01 X-16.8584 Y16.0336
G01 X-16.8527 Y16.0480
G01 X-16.8493 Y16.0592
G00 Z2.0000
G00 X-19.4330 Y20.4603
G01 F60.00
G01 Z-0.0700
G01 F120.00
G01 X-22.3893 Y20.4603
G01 X-22.3895 Y20.6571
G01 X-22.3943 Y20.7552
G01 X-22.3955 Y20.7654
G01 X-22.4028 Y20.8147
G01 X-22.3946 Y20.8129
G01 X-22.3810 Y20.8108
G01 X-22.3673 Y20.8081
G01 X-22.3541 Y20.8067
G01 X-22.3398 Y20.8064
G01 X-22.3327 Y20.8066
G01 X-22.3018 Y20.8098
G01 X-22.2878 Y20.8121
G01 X-22.2773 Y20.8146
G01 X-22.2676 Y20.8175
G01 X-22.2377 Y20.8295
G01 X-22.2254 Y20.8353
G01 X-22.2127 Y20.8426
G01 X-22.2039 Y20.8486
G01 X-22.1791 Y20.8682
G01 X-22.1717 Y20.8748
G01 X-21.9189 Y21.1275
G01 X-21.2935 Y21.3866
G01 X-20.6165 Y21.3866
G01 X-19.9911 Y21.1275
G01 X-19.5125 Y20.6489
G01 X-19.4431 Y20.4815
G01 X-19.4380 Y20.4700
G01 X-19.4330 Y20.4603
G00 Z2.0000
G00 X-22.4029 Y18.5549
G01 F60.00
G01 Z-0.0700
G01 F120.00
G01 X-22.3955 Y18.6046
G01 X-22.3943 Y18.6148
G01 X-22.3895 Y18.7129
G01 X-22.3893 Y18.9097
G01 X-19.4323 Y18.9097
G01 X-19.4377 Y18.9002
G01 X-19.4421 Y18.8911
G01 X-19.5125 Y18.7211
G01 X-19.9911 Y18.2425
G01 X-20.6165 Y17.9834
G01 X-21.2935 Y17.9834
G01 X-21.9189 Y18.2425
G01 X-22.1719 Y18.4954
G01 X-22.1828 Y18.5048
G01 X-22.2088 Y18.5243
G01 X-22.2200 Y18.5316
G01 X-22.2315 Y18.5379
G01 X-22.2468 Y18.5446
G01 X-22.2774 Y18.5552
G01 X-22.2932 Y18.5590
G01 X-22.3072 Y18.5612
G01 X-22.3403 Y18.5634
G01 X-22.3541 Y18.5632
G01 X-22.3649 Y18.5623
G01 X-22.3752 Y18.5609
G01 X-22.4029 Y18.5549
G00 Z2.0000
G00 X-23.2826 Y17.6521
G01 F60.00
G01 Z-0.0700
G01 F120.00
G01 X-23.7074 Y17.6521
G01 X-24.0998 Y17.8147
G01 X-24.4001 Y18.1150
G01 X-24.5627 Y18.5074
G01 X-24.5627 Y20.8626
G01 X-24.4001 Y21.2550
G01 X-24.0998 Y21.5553
G01 X-23.7074 Y21.7179
G01 X-23.2826 Y21.7179
G01 X-22.8902 Y21.5553
G01 X-22.5899 Y21.2550
G01 X-22.4796 Y20.9887
G01 X-22.4772 Y20.9839
G01 X-22.4627 Y20.9594
G01 X-22.4584 Y20.9532
G01 X-22.4512 Y20.9450
G01 X-22.4408 Y20.9359
G01 X-22.4316 Y20.9273
G01 X-22.4222 Y20.9206
G01 X-22.4171 Y20.9176
G01 X-22.4058 Y20.9124
G01 X-22.3946 Y20.9066
G01 X-22.3836 Y20.9027
G01 X-22.3778 Y20.9013
G01 X-22.3500 Y20.8967
G01 X-22.3376 Y20.8965
G01 X-22.3120 Y20.8992
G01 X-22.3057 Y20.9003
G01 X-22.2951 Y20.9032
G01 X-22.2825 Y20.9087
G01 X-22.2709 Y20.9132
G01 X-22.2610 Y20.9186
G01 X-22.2558 Y20.9221
G01 X-22.2463 Y20.9301
G01 X-22.2364 Y20.9376
G01 X-21.9699 Y21.2038
G01 X-21.3114 Y21.4766
G01 X-20.5986 Y21.4766
G01 X-19.9401 Y21.2038
G01 X-19.4362 Y20.6999
G01 X-19.3573 Y20.5097
G01 X-19.3532 Y20.5024
G01 X-19.3370 Y20.4781
G01 X-19.3325 Y20.4725
G01 X-19.3282 Y20.4683
G01 X-19.3056 Y20.4492
G01 X-19.3008 Y20.4458
G01 X-19.2948 Y20.4426
G01 X-19.2680 Y20.4304
G01 X-19.2621 Y20.4284
G01 X-19.2560 Y20.4271
G01 X-19.2239 Y20.4226
G01 X-6.9215 Y20.4225
G01 X-6.9158 Y20.4228
G01 X-6.9099 Y20.4237
G01 X-6.8970 Y20.4245
G01 X-6.8921 Y20.4255
G01 X-6.8836 Y20.4281
G01 X-6.8733 Y20.4303
G01 X-6.8551 Y20.4378
G01 X-6.8451 Y20.4440
G01 X-6.8368 Y20.4485
G01 X-6.8328 Y20.4512
G01 X-6.8190 Y20.4624
G01 X-6.8122 Y20.4701
G01 X-6.8056 Y20.4765
G01 X-6.8017 Y20.4812
G01 X-6.7924 Y20.4948
G01 X-6.7877 Y20.5045
G01 X-6.7835 Y20.5117
G01 X-6.7810 Y20.5173
G01 X-6.7790 Y20.5240
G01 X-6.7764 Y20.5304
G01 X-6.7751 Y20.5351
G01 X-6.7737 Y20.5442
G01 X-6.7711 Y20.5555
G01 X-6.7700 Y20.5740
G01 X-6.7701 Y26.2938
G01 X-6.7716 Y26.3041
G01 X-6.7733 Y26.3218
G01 X-6.7775 Y26.3373
G01 X-6.7795 Y26.3429
G01 X-6.7837 Y26.3514
G01 X-6.7873 Y26.3605
G01 X-6.7904 Y26.3661
G01 X-6.7989 Y26.3791
G01 X-6.8061 Y26.3871
G01 X-6.8127 Y26.3956
G01 X-7.2272 Y26.8101
G01 X-7.2272 Y27.7999
G01 X-6.8126 Y28.2144
G01 X-6.8056 Y28.2238
G01 X-6.7944 Y28.2373
G01 X-6.7855 Y28.2531
G01 X-6.7761 Y28.2773
G01 X-6.7726 Y28.2920
G01 X-6.7717 Y28.2982
G01 X-6.7713 Y28.3068
G01 X-6.7702 Y28.3152
G01 X-6.7700 Y28.3198
G01 X-6.7700 Y31.4960
G01 X-6.7703 Y31.5017
G01 X-6.7712 Y31.5076
G01 X-6.7720 Y31.5205
G01 X-6.7730 Y31.5254
G01 X-6.7756 Y31.5339
G01 X-6.7778 Y31.5442
G01 X-6.7853 Y31.5624
G01 X-6.7915 Y31.5724
G01 X-6.7960 Y31.5807
G01 X-6.7987 Y31.5847
G01 X-6.8091 Y31.5976
G01 X-6.8176 Y31.6053
G01 X-6.8231 Y31.6111
G01 X-6.8268 Y31.6143
G01 X-6.8412 Y31.6245
G01 X-6.8520 Y31.6298
G01 X-6.8592 Y31.6340
G01 X-6.8659 Y31.6369
G01 X-6.8826 Y31.6424
G01 X-6.8917 Y31.6438
G01 X-6.9030 Y31.6464
G01 X-6.9215 Y31.6475
G01 X-15.0692 Y31.6475
G01 X-15.3403 Y31.7598
G01 X-15.5477 Y31.9672
G01 X-15.6600 Y32.2383
G01 X-15.6600 Y41.5648
G01 X-15.6604 Y41.5696
G01 X-15.6616 Y41.5775
G01 X-15.6629 Y41.5927
G01 X-15.6642 Y41.5990
G01 X-15.6691 Y41.6154
G01 X-15.6738 Y41.6248
G01 X-15.6773 Y41.6338
G01 X-15.6804 Y41.6394
G01 X-15.6888 Y41.6524
G01 X-15.6962 Y41.6606
G01 X-15.7027 Y41.6690
G01 X-15.7630 Y41.7294
G01 X-15.9140 Y42.0938
G01 X-15.9140 Y44.2663
G01 X-15.7630 Y44.6307
G01 X-15.4842 Y44.9095
G01 X-15.1198 Y45.0605
G01 X-14.7252 Y45.0605
G01 X-14.3608 Y44.9095
G01 X-14.0820 Y44.6307
G01 X-13.9310 Y44.2663
G01 X-13.9310 Y42.0938
G01 X-14.0820 Y41.7294
G01 X-14.1415 Y41.6698
G01 X-14.1446 Y41.6662
G01 X-14.1493 Y41.6597
G01 X-14.1584 Y41.6489
G01 X-14.1620 Y41.6438
G01 X-14.1707 Y41.6279
G01 X-14.1743 Y41.6175
G01 X-14.1789 Y41.6060
G01 X-14.1830 Y41.5878
G01 X-14.1837 Y41.5765
G01 X-14.1850 Y41.5648
G01 X-14.1850 Y33.2740
G01 X-14.1847 Y33.2683
G01 X-14.1838 Y33.2624
G01 X-14.1830 Y33.2495
G01 X-14.1820 Y33.2446
G01 X-14.1794 Y33.2361
G01 X-14.1772 Y33.2258
G01 X-14.1697 Y33.2076
G01 X-14.1635 Y33.1976
G01 X-14.1590 Y33.1893
G01 X-14.1563 Y33.1853
G01 X-14.1459 Y33.1724
G01 X-14.1374 Y33.1647
G01 X-14.1319 Y33.1589
G01 X-14.1282 Y33.1557
G01 X-14.1138 Y33.1455
G01 X-14.1030 Y33.1402
G01 X-14.0958 Y33.1360
G01 X-14.0891 Y33.1331
G01 X-14.0724 Y33.1276
G01 X-14.0633 Y33.1262
G01 X-14.0520 Y33.1236
G01 X-14.0335 Y33.1225
G01 X-5.8858 Y33.1225
G01 X-5.6147 Y33.0102
G01 X-5.4073 Y32.8028
G01 X-5.2950 Y32.5317
G01 X-5.2948 Y28.3150
G01 X-5.2934 Y28.3059
G01 X-5.2917 Y28.2882
G01 X-5.2875 Y28.2727
G01 X-5.2855 Y28.2671
G01 X-5.2813 Y28.2586
G01 X-5.2777 Y28.2495
G01 X-5.2746 Y28.2439
G01 X-5.2661 Y28.2309
G01 X-5.2589 Y28.2229
G01 X-5.2523 Y28.2144
G01 X-4.8378 Y27.7999
G01 X-4.8378 Y26.8101
G01 X-5.2532 Y26.3946
G01 X-5.2594 Y26.3862
G01 X-5.2706 Y26.3727
G01 X-5.2784 Y26.3591
G01 X-5.2811 Y26.3535
G01 X-5.2843 Y26.3441
G01 X-5.2885 Y26.3338
G01 X-5.2921 Y26.3192
G01 X-5.2932 Y26.3131
G01 X-5.2937 Y26.3031
G01 X-5.2949 Y26.2925
G01 X-5.2950 Y19.5383
G01 X-5.4073 Y19.2672
G01 X-5.6147 Y19.0598
G01 X-5.8858 Y18.9475
G01 X-19.2200 Y18.9475
G01 X-19.2305 Y18.9472
G01 X-19.2640 Y18.9408
G01 X-19.2704 Y18.9389
G01 X-19.2762 Y18.9364
G01 X-19.3027 Y18.9228
G01 X-19.3077 Y18.9197
G01 X-19.3123 Y18.9159
G01 X-19.3360 Y18.8934
G01 X-19.3417 Y18.8860
G01 X-19.3569 Y18.8604
G01 X-19.3596 Y18.8550
G01 X-19.4362 Y18.6701
G01 X-19.9401 Y18.1662
G01 X-20.5986 Y17.8934
G01 X-21.3114 Y17.8934
G01 X-21.9699 Y18.1662
G01 X-22.2329 Y18.4293
G01 X-22.2368 Y18.4327
G01 X-22.2634 Y18.4527
G01 X-22.2727 Y18.4578
G01 X-22.2782 Y18.4603
G01 X-22.2901 Y18.4641
G01 X-22.3030 Y18.4689
G01 X-22.3134 Y18.4712
G01 X-22.3184 Y18.4719
G01 X-22.3311 Y18.4724
G01 X-22.3425 Y18.4734
G01 X-22.3498 Y18.4733
G01 X-22.3609 Y18.4720
G01 X-22.3731 Y18.4690
G01 X-22.3855 Y18.4665
G01 X-22.3916 Y18.4646
G01 X-22.4017 Y18.4604
G01 X-22.4125 Y18.4541
G01 X-22.4246 Y18.4478
G01 X-22.4334 Y18.4416
G01 X-22.4379 Y18.4377
G01 X-22.4578 Y18.4176
G01 X-22.4658 Y18.4064
G01 X-22.4796 Y18.3812
G01 X-22.5899 Y18.1150
G01 X-22.8902 Y17.8147
G01 X-23.2826 Y17.6521
G00 Z2.0000
G00 X-25.8226 Y17.6521
G01 F60.00
G01 Z-0.0700
G01 F120.00
G01 X-26.2474 Y17.6521
G01 X-26.6398 Y17.8147
G01 X-26.9401 Y18.1150
G01 X-27.1027 Y18.5074
G01 X-27.1027 Y20.8626
G01 X-26.9401 Y21.2550
G01 X-26.8135 Y21.3819
G01 X-26.8081 Y21.3894
G01 X-26.7969 Y21.4029
G01 X-26.7880 Y21.4187
G01 X-26.7790 Y21.4418
G01 X-26.7746 Y21.4600
G01 X-26.7725 Y21.4854
G01 X-26.7725 Y23.0067
G01 X-26.6602 Y23.2778
G01 X-26.4528 Y23.4852
G01 X-26.1817 Y23.5975
G01 X-15.6082 Y23.5975
G01 X-15.5804 Y23.6003
G01 X-15.5741 Y23.6014
G01 X-15.5566 Y23.6065
G01 X-15.5469 Y23.6113
G01 X-15.5390 Y23.6144
G01 X-15.5345 Y23.6166
G01 X-15.5194 Y23.6263
G01 X-15.5113 Y23.6336
G01 X-15.5047 Y23.6386
G01 X-15.5010 Y23.6418
G01 X-11.7157 Y27.4272
G01 X-11.7125 Y27.4310
G01 X-11.7078 Y27.4375
G01 X-11.6968 Y27.4508
G01 X-11.6875 Y27.4670
G01 X-11.6783 Y27.4911
G01 X-11.6748 Y27.5055
G01 X-11.6740 Y27.5106
G01 X-11.6735 Y27.5206
G01 X-11.6724 Y27.5289
G01 X-11.6722 Y27.5335
G01 X-11.6722 Y27.7999
G01 X-10.9724 Y28.4997
G01 X-9.9826 Y28.4997
G01 X-9.2828 Y27.7999
G01 X-9.2828 Y26.8101
G01 X-9.9826 Y26.1103
G01 X-10.8852 Y26.1103
G01 X-10.8900 Y26.1099
G01 X-10.8979 Y26.1087
G01 X-10.9144 Y26.1072
G01 X-10.9194 Y26.1061
G01 X-10.9254 Y26.1041
G01 X-10.9322 Y26.1025
G01 X-10.9367 Y26.1008
G01 X-10.9453 Y26.0965
G01 X-10.9564 Y26.0919
G01 X-10.9729 Y26.0814
G01 X-10.9809 Y26.0742
G01 X-10.9875 Y26.0692
G01 X-10.9912 Y26.0660
G01 X-14.8222 Y22.2348
G01 X-15.0933 Y22.1225
G01 X-25.1460 Y22.1225
G01 X-25.1517 Y22.1222
G01 X-25.1576 Y22.1213
G01 X-25.1705 Y22.1205
G01 X-25.1754 Y22.1195
G01 X-25.1839 Y22.1169
G01 X-25.1942 Y22.1147
G01 X-25.2124 Y22.1072
G01 X-25.2224 Y22.1010
G01 X-25.2307 Y22.0965
G01 X-25.2449 Y22.0858
G01 X-25.2494 Y22.0817
G01 X-25.2553 Y22.0749
G01 X-25.2636 Y22.0667
G01 X-25.2745 Y22.0513
G01 X-25.2798 Y22.0405
G01 X-25.2851 Y22.0311
G01 X-25.2907 Y22.0157
G01 X-25.2924 Y22.0099
G01 X-25.2938 Y22.0008
G01 X-25.2958 Y21.9932
G01 X-25.2967 Y21.9870
G01 X-25.2968 Y21.9794
G01 X-25.2975 Y21.9710
G01 X-25.2975 Y21.4854
G01 X-25.2971 Y21.4794
G01 X-25.2959 Y21.4715
G01 X-25.2947 Y21.4576
G01 X-25.2939 Y21.4525
G01 X-25.2889 Y21.4349
G01 X-25.2838 Y21.4242
G01 X-25.2802 Y21.4151
G01 X-25.2778 Y21.4106
G01 X-25.2739 Y21.4050
G01 X-25.2714 Y21.4004
G01 X-25.2671 Y21.3946
G01 X-25.2614 Y21.3885
G01 X-25.2564 Y21.3819
G01 X-25.2532 Y21.3782
G01 X-25.1299 Y21.2550
G01 X-24.9673 Y20.8626
G01 X-24.9673 Y18.5074
G01 X-25.1299 Y18.1150
G01 X-25.4302 Y17.8147
G01 X-25.8226 Y17.6521
G00 Z2.0000
G00 X-28.3626 Y17.6521
G01 F60.00
G01 Z-0.0700
G01 F120.00
G01 X-28.7874 Y17.6521
G01 X-29.1798 Y17.8147
G01 X-29.4801 Y18.1150
G01 X-29.6427 Y18.5074
G01 X-29.6427 Y20.8626
G01 X-29.4801 Y21.2550
G01 X-29.3560 Y21.3791
G01 X-29.3528 Y21.3829
G01 X-29.3481 Y21.3894
G01 X-29.3392 Y21.3999
G01 X-29.3349 Y21.4061
G01 X-29.3319 Y21.4121
G01 X-29.3285 Y21.4176
G01 X-29.3260 Y21.4232
G01 X-29.3232 Y21.4315
G01 X-29.3186 Y21.4429
G01 X-29.3151 Y21.4576
G01 X-29.3142 Y21.4638
G01 X-29.3138 Y21.4724
G01 X-29.3127 Y21.4808
G01 X-29.3125 Y21.4854
G01 X-29.3125 Y25.2292
G01 X-29.2002 Y25.5003
G01 X-28.9928 Y25.7077
G01 X-28.7217 Y25.8200
G01 X-22.9107 Y25.8200
G01 X-22.9059 Y25.8202
G01 X-22.8968 Y25.8216
G01 X-22.8803 Y25.8231
G01 X-22.8753 Y25.8242
G01 X-22.8602 Y25.8286
G01 X-22.8494 Y25.8338
G01 X-22.8392 Y25.8379
G01 X-22.8260 Y25.8460
G01 X-22.8209 Y25.8496
G01 X-22.8138 Y25.8561
G01 X-22.8072 Y25.8611
G01 X-22.8035 Y25.8643
G01 X-21.9521 Y26.7158
G01 X-21.9490 Y26.7193
G01 X-21.9449 Y26.7248
G01 X-21.9381 Y26.7321
G01 X-21.9339 Y26.7379
G01 X-21.9292 Y26.7468
G01 X-21.9253 Y26.7524
G01 X-21.9231 Y26.7566
G01 X-21.9158 Y26.7743
G01 X-21.9134 Y26.7847
G01 X-21.9103 Y26.7950
G01 X-21.9082 Y26.8116
G01 X-21.9079 Y26.8176
G01 X-21.9085 Y26.8267
G01 X-21.9083 Y26.8347
G01 X-21.9090 Y26.8421
G01 X-21.9120 Y26.8584
G01 X-21.9156 Y26.8686
G01 X-21.9177 Y26.8764
G01 X-21.9193 Y26.8808
G01 X-21.9270 Y26.8968
G01 X-21.9337 Y26.9064
G01 X-21.9383 Y26.9142
G01 X-21.9422 Y26.9191
G01 X-21.9466 Y26.9236
G01 X-21.9522 Y26.9302
G01 X-22.1497 Y27.1276
G01 X-22.1497 Y28.1174
G01 X-21.4499 Y28.8172
G01 X-20.4601 Y28.8172
G01 X-19.7603 Y28.1174
G01 X-19.7603 Y27.1276
G01 X-20.1732 Y26.7149
G01 X-20.1765 Y26.7112
G01 X-20.1819 Y26.7037
G01 X-20.1908 Y26.6932
G01 X-20.1938 Y26.6891
G01 X-20.2026 Y26.6733
G01 X-20.2068 Y26.6616
G01 X-20.2102 Y26.6536
G01 X-20.2120 Y26.6479
G01 X-20.2155 Y26.6318
G01 X-20.2162 Y26.6206
G01 X-20.2175 Y26.6089
G01 X-20.2175 Y26.5233
G01 X-20.3298 Y26.2522
G01 X-22.1247 Y24.4573
G01 X-22.3958 Y24.3450
G01 X-27.6860 Y24.3450
G01 X-27.6917 Y24.3447
G01 X-27.6976 Y24.3438
G01 X-27.7081 Y24.3433
G01 X-27.7142 Y24.3423
G01 X-27.7239 Y24.3394
G01 X-27.7342 Y24.3372
G01 X-27.7524 Y24.3297
G01 X-27.7624 Y24.3235
G01 X-27.7717 Y24.3184
G01 X-27.7849 Y24.3083
G01 X-27.7894 Y24.3042
G01 X-27.7953 Y24.2974
G01 X-27.8011 Y24.2919
G01 X-27.8058 Y24.2863
G01 X-27.8151 Y24.2727
G01 X-27.8198 Y24.2630
G01 X-27.8240 Y24.2558
G01 X-27.8265 Y24.2502
G01 X-27.8285 Y24.2435
G01 X-27.8307 Y24.2382
G01 X-27.8324 Y24.2324
G01 X-27.8338 Y24.2233
G01 X-27.8362 Y24.2132
G01 X-27.8375 Y24.1935
G01 X-27.8374 Y21.4830
G01 X-27.8359 Y21.4715
G01 X-27.8344 Y21.4550
G01 X-27.8333 Y21.4500
G01 X-27.8313 Y21.4440
G01 X-27.8297 Y21.4372
G01 X-27.8275 Y21.4316
G01 X-27.8238 Y21.4242
G01 X-27.8196 Y21.4139
G01 X-27.8093 Y21.3974
G01 X-27.8014 Y21.3885
G01 X-27.7964 Y21.3819
G01 X-27.7932 Y21.3782
G01 X-27.6699 Y21.2550
G01 X-27.5073 Y20.8626
G01 X-27.5073 Y18.5074
G01 X-27.6699 Y18.1150
G01 X-27.9702 Y17.8147
G01 X-28.3626 Y17.6521
G00 Z2.0000
G00 X-30.9026 Y17.6521
G01 F60.00
G01 Z-0.0700
G01 F120.00
G01 X-31.3274 Y17.6521
G01 X-31.7198 Y17.8147
G01 X-32.0201 Y18.1150
G01 X-32.1827 Y18.5074
G01 X-32.1827 Y20.8626
G01 X-32.0201 Y21.2550
G01 X-31.8960 Y21.3791
G01 X-31.8928 Y21.3829
G01 X-31.8881 Y21.3894
G01 X-31.8777 Y21.4019
G01 X-31.8749 Y21.4061
G01 X-31.8674 Y21.4198
G01 X-31.8586 Y21.4429
G01 X-31.8546 Y21.4600
G01 X-31.8538 Y21.4724
G01 X-31.8526 Y21.4820
G01 X-31.8525 Y25.8642
G01 X-31.7402 Y26.1353
G01 X-29.9453 Y27.9302
G01 X-29.6742 Y28.0425
G01 X-25.7798 Y28.0425
G01 X-25.7750 Y28.0427
G01 X-25.7659 Y28.0441
G01 X-25.7507 Y28.0454
G01 X-25.7444 Y28.0467
G01 X-25.7384 Y28.0487
G01 X-25.7304 Y28.0507
G01 X-25.7260 Y28.0525
G01 X-25.7186 Y28.0562
G01 X-25.7072 Y28.0610
G01 X-25.6918 Y28.0707
G01 X-25.6829 Y28.0786
G01 X-25.6735 Y28.0860
G01 X-24.9424 Y28.8172
G01 X-23.9526 Y28.8172
G01 X-23.2528 Y28.1174
G01 X-23.2528 Y27.1276
G01 X-23.9526 Y26.4278
G01 X-24.9424 Y26.4278
G01 X-25.0385 Y26.5240
G01 X-25.0423 Y26.5272
G01 X-25.0488 Y26.5319
G01 X-25.0623 Y26.5431
G01 X-25.0792 Y26.5526
G01 X-25.1023 Y26.5614
G01 X-25.1207 Y26.5655
G01 X-25.1319 Y26.5662
G01 X-25.1436 Y26.5675
G01 X-29.1593 Y26.5675
G01 X-29.1641 Y26.5673
G01 X-29.1732 Y26.5659
G01 X-29.1897 Y26.5644
G01 X-29.1947 Y26.5633
G01 X-29.2098 Y26.5589
G01 X-29.2206 Y26.5537
G01 X-29.2319 Y26.5490
G01 X-29.2471 Y26.5394
G01 X-29.2562 Y26.5314
G01 X-29.2656 Y26.5240
G01 X-30.3332 Y25.4565
G01 X-30.3372 Y25.4518
G01 X-30.3419 Y25.4453
G01 X-30.3508 Y25.4349
G01 X-30.3542 Y25.4301
G01 X-30.3627 Y25.4147
G01 X-30.3714 Y25.3917
G01 X-30.3755 Y25.3735
G01 X-30.3762 Y25.3622
G01 X-30.3773 Y25.3539
G01 X-30.3775 Y25.3493
G01 X-30.3774 Y21.4830
G01 X-30.3759 Y21.4715
G01 X-30.3744 Y21.4550
G01 X-30.3733 Y21.4500
G01 X-30.3713 Y21.4440
G01 X-30.3697 Y21.4372
G01 X-30.3675 Y21.4316
G01 X-30.3638 Y21.4242
G01 X-30.3596 Y21.4139
G01 X-30.3493 Y21.3974
G01 X-30.3414 Y21.3885
G01 X-30.3364 Y21.3819
G01 X-30.3332 Y21.3782
G01 X-30.2099 Y21.2550
G01 X-30.0473 Y20.8626
G01 X-30.0473 Y18.5074
G01 X-30.2099 Y18.1150
G01 X-30.5102 Y17.8147
G01 X-30.9026 Y17.6521
G00 Z2.0000
G00 X-29.5907 Y20.6502
G01 F60.00
G01 Z-0.0700
G01 F120.00
G01 X-29.5907 Y18.7198
G01 X-29.5860 Y18.6227
G01 X-29.5712 Y18.5217
G01 X-29.5469 Y18.4250
G01 X-29.5134 Y18.3311
G01 X-29.4708 Y18.2410
G01 X-29.4195 Y18.1555
G01 X-29.3601 Y18.0755
G01 X-29.2932 Y18.0016
G01 X-29.2193 Y17.9347
G01 X-29.1393 Y17.8753
G01 X-29.0538 Y17.8240
G01 X-28.9637 Y17.7814
G01 X-28.8698 Y17.7479
G01 X-28.7731 Y17.7236
G01 X-28.6746 Y17.7090
G01 X-28.5750 Y17.7041
G01 X-28.4754 Y17.7090
G01 X-28.3769 Y17.7236
G01 X-28.2802 Y17.7479
G01 X-28.1863 Y17.7814
G01 X-28.0962 Y17.8240
G01 X-28.0087 Y17.8767
G01 X-27.9307 Y17.9347
G01 X-27.8586 Y17.9999
G01 X-27.7899 Y18.0755
G01 X-27.7292 Y18.1576
G01 X-27.6792 Y18.2410
G01 X-27.6376 Y18.3289
G01 X-27.6031 Y18.4250
G01 X-27.5784 Y18.5241
G01 X-27.5642 Y18.6202
G01 X-27.5593 Y18.7186
G01 X-27.5593 Y20.6502
G01 X-27.5643 Y20.7510
G01 X-27.5788 Y20.8483
G01 X-27.6031 Y20.9450
G01 X-27.6366 Y21.0389
G01 X-27.6787 Y21.1279
G01 X-27.7305 Y21.2145
G01 X-27.7891 Y21.2936
G01 X-27.8559 Y21.3675
G01 X-27.8897 Y21.3983
G01 X-27.8897 Y24.3972
G01 X-22.5425 Y24.3972
G01 X-22.4753 Y24.4005
G01 X-22.4088 Y24.4104
G01 X-22.3436 Y24.4267
G01 X-22.2780 Y24.4503
G01 X-22.2194 Y24.4781
G01 X-22.1618 Y24.5127
G01 X-22.1077 Y24.5527
G01 X-22.0588 Y24.5971
G01 X-20.4704 Y26.1854
G01 X-20.4252 Y26.2352
G01 X-20.3852 Y26.2893
G01 X-20.3506 Y26.3469
G01 X-20.3228 Y26.4055
G01 X-20.2989 Y26.4722
G01 X-20.2829 Y26.5363
G01 X-20.2731 Y26.6016
G01 X-20.2697 Y26.6675
G01 X-20.2697 Y26.6925
G01 X-19.8274 Y27.1347
G01 X-19.8234 Y27.1393
G01 X-19.8199 Y27.1444
G01 X-19.8171 Y27.1498
G01 X-19.8150 Y27.1556
G01 X-19.8133 Y27.1628
G01 X-19.8128 Y27.1701
G01 X-19.8128 Y28.0749
G01 X-19.8135 Y28.0835
G01 X-19.8153 Y28.0906
G01 X-19.8187 Y28.0985
G01 X-19.8234 Y28.1057
G01 X-19.8274 Y28.1103
G01 X-20.4672 Y28.7501
G01 X-20.4748 Y28.7563
G01 X-20.4835 Y28.7609
G01 X-20.4928 Y28.7637
G01 X-20.5026 Y28.7647
G01 X-21.4074 Y28.7647
G01 X-21.4160 Y28.7640
G01 X-21.4231 Y28.7622
G01 X-21.4310 Y28.7588
G01 X-21.4382 Y28.7541
G01 X-21.4428 Y28.7501
G01 X-22.0826 Y28.1103
G01 X-22.0874 Y28.1047
G01 X-22.0919 Y28.0974
G01 X-22.0947 Y28.0906
G01 X-22.0965 Y28.0835
G01 X-22.0972 Y28.0749
G01 X-22.0972 Y27.1701
G01 X-22.0968 Y27.1640
G01 X-22.0957 Y27.1579
G01 X-22.0938 Y27.1521
G01 X-22.0913 Y27.1465
G01 X-22.0874 Y27.1403
G01 X-22.0834 Y27.1356
G01 X-21.7710 Y26.8232
G01 X-22.8264 Y25.7678
G01 X-28.5762 Y25.7678
G01 X-28.6422 Y25.7645
G01 X-28.7063 Y25.7551
G01 X-28.7763 Y25.7375
G01 X-28.8373 Y25.7157
G01 X-28.8981 Y25.6869
G01 X-28.9557 Y25.6523
G01 X-29.0088 Y25.6130
G01 X-29.0596 Y25.5671
G01 X-29.1048 Y25.5173
G01 X-29.1448 Y25.4632
G01 X-29.1794 Y25.4056
G01 X-29.2082 Y25.3448
G01 X-29.2308 Y25.2814
G01 X-29.2471 Y25.2162
G01 X-29.2572 Y25.1472
G01 X-29.2603 Y25.0825
G01 X-29.2603 Y21.3983
G01 X-29.2941 Y21.3675
G01 X-29.3593 Y21.2955
G01 X-29.4188 Y21.2155
G01 X-29.4708 Y21.1290
G01 X-29.5129 Y21.0400
G01 X-29.5469 Y20.9450
G01 X-29.5712 Y20.8483
G01 X-29.5858 Y20.7498
G01 X-29.5907 Y20.6502
G00 Z2.0000
G00 X-31.8003 Y21.3983
G01 F60.00
G01 Z-0.0700
G01 F120.00
G01 X-31.8341 Y21.3675
G01 X-31.9009 Y21.2936
G01 X-31.9595 Y21.2145
G01 X-32.0113 Y21.1279
G01 X-32.0534 Y21.0389
G01 X-32.0869 Y20.9450
G01 X-32.1112 Y20.8483
G01 X-32.1258 Y20.7498
G01 X-32.1307 Y20.6502
G01 X-32.1307 Y18.7186
G01 X-32.1255 Y18.6178
G01 X-32.1112 Y18.5217
G01 X-32.0873 Y18.4261
G01 X-32.0534 Y18.3311
G01 X-32.0108 Y18.2410
G01 X-31.9595 Y18.1555
G01 X-31.9001 Y18.0755
G01 X-31.8332 Y18.0016
G01 X-31.7593 Y17.9347
G01 X-31.6793 Y17.8753
G01 X-31.5938 Y17.8240
G01 X-31.5037 Y17.7814
G01 X-31.4098 Y17.7479
G01 X-31.3131 Y17.7236
G01 X-31.2146 Y17.7090
G01 X-31.1150 Y17.7041
G01 X-31.0154 Y17.7090
G01 X-30.9169 Y17.7236
G01 X-30.8213 Y17.7475
G01 X-30.7241 Y17.7824
G01 X-30.6362 Y17.8240
G01 X-30.5507 Y17.8753
G01 X-30.4688 Y17.9363
G01 X-30.3968 Y18.0016
G01 X-30.3299 Y18.0755
G01 X-30.2705 Y18.1555
G01 X-30.2205 Y18.2389
G01 X-30.1766 Y18.3311
G01 X-30.1431 Y18.4250
G01 X-30.1194 Y18.5193
G01 X-30.1040 Y18.6227
G01 X-30.0993 Y18.7198
G01 X-30.0993 Y20.6502
G01 X-30.1043 Y20.7510
G01 X-30.1188 Y20.8483
G01 X-30.1431 Y20.9450
G01 X-30.1766 Y21.0389
G01 X-30.2187 Y21.1279
G01 X-30.2705 Y21.2145
G01 X-30.3291 Y21.2936
G01 X-30.3959 Y21.3675
G01 X-30.4297 Y21.3983
G01 X-30.4297 Y25.4336
G01 X-29.2436 Y26.6197
G01 X-25.0600 Y26.6197
G01 X-24.9335 Y26.4933
G01 X-24.9277 Y26.4887
G01 X-24.9213 Y26.4851
G01 X-24.9132 Y26.4821
G01 X-24.9060 Y26.4807
G01 X-24.8999 Y26.4803
G01 X-23.9951 Y26.4803
G01 X-23.9853 Y26.4813
G01 X-23.9771 Y26.4837
G01 X-23.9683 Y26.4881
G01 X-23.9643 Y26.4909
G01 X-23.9597 Y26.4949
G01 X-23.3199 Y27.1347
G01 X-23.3137 Y27.1423
G01 X-23.3091 Y27.1510
G01 X-23.3063 Y27.1603
G01 X-23.3053 Y27.1701
G01 X-23.3053 Y28.0749
G01 X-23.3060 Y28.0835
G01 X-23.3078 Y28.0906
G01 X-23.3112 Y28.0985
G01 X-23.3159 Y28.1057
G01 X-23.3199 Y28.1103
G01 X-23.9597 Y28.7501
G01 X-23.9673 Y28.7563
G01 X-23.9760 Y28.7609
G01 X-23.9853 Y28.7637
G01 X-23.9951 Y28.7647
G01 X-24.9024 Y28.7646
G01 X-24.9109 Y28.7635
G01 X-24.9190 Y28.7609
G01 X-24.9267 Y28.7569
G01 X-24.9344 Y28.7509
G01 X-25.5767 Y28.1085
G01 X-25.5819 Y28.1017
G01 X-25.5854 Y28.0952
G01 X-25.5879 Y28.0882
G01 X-25.5895 Y28.0798
G01 X-25.5897 Y27.9903
G01 X-29.5287 Y27.9903
G01 X-29.5947 Y27.9870
G01 X-29.6588 Y27.9776
G01 X-29.7288 Y27.9600
G01 X-29.7898 Y27.9382
G01 X-29.8506 Y27.9094
G01 X-29.9082 Y27.8748
G01 X-29.9613 Y27.8355
G01 X-30.0121 Y27.7896
G01 X-31.6004 Y26.2012
G01 X-31.6463 Y26.1503
G01 X-31.6848 Y26.0982
G01 X-31.7182 Y26.0427
G01 X-31.7482 Y25.9798
G01 X-31.7711 Y25.9153
G01 X-31.7871 Y25.8512
G01 X-31.7967 Y25.7871
G01 X-31.8003 Y25.7175
G01 X-31.8003 Y21.3983
G00 Z2.0000
G00 X-26.7203 Y21.3983
G01 F60.00
G01 Z-0.0700
G01 F120.00
G01 X-26.7541 Y21.3675
G01 X-26.8209 Y21.2936
G01 X-26.8795 Y21.2145
G01 X-26.9313 Y21.1279
G01 X-26.9734 Y21.0389
G01 X-27.0069 Y20.9450
G01 X-27.0312 Y20.8483
G01 X-27.0458 Y20.7498
G01 X-27.0507 Y20.6502
G01 X-27.0507 Y18.7186
G01 X-27.0455 Y18.6178
G01 X-27.0312 Y18.5217
G01 X-27.0073 Y18.4261
G01 X-26.9734 Y18.3311
G01 X-26.9308 Y18.2410
G01 X-26.8795 Y18.1555
G01 X-26.8201 Y18.0755
G01 X-26.7532 Y18.0016
G01 X-26.6793 Y17.9347
G01 X-26.5993 Y17.8753
G01 X-26.5138 Y17.8240
G01 X-26.4237 Y17.7814
G01 X-26.3298 Y17.7479
G01 X-26.2331 Y17.7236
G01 X-26.1346 Y17.7090
G01 X-26.0350 Y17.7041
G01 X-25.9354 Y17.7090
G01 X-25.8369 Y17.7236
G01 X-25.7413 Y17.7475
G01 X-25.6441 Y17.7824
G01 X-25.5562 Y17.8240
G01 X-25.4707 Y17.8753
G01 X-25.3888 Y17.9363
G01 X-25.3168 Y18.0016
G01 X-25.2499 Y18.0755
G01 X-25.1905 Y18.1555
G01 X-25.1405 Y18.2389
G01 X-25.0966 Y18.3311
G01 X-25.0624 Y18.4273
G01 X-25.0388 Y18.5217
G01 X-25.0242 Y18.6202
G01 X-25.0193 Y18.7198
G01 X-25.0193 Y20.6502
G01 X-25.0242 Y20.7498
G01 X-25.0388 Y20.8483
G01 X-25.0631 Y20.9450
G01 X-25.0966 Y21.0389
G01 X-25.1387 Y21.1279
G01 X-25.1905 Y21.2145
G01 X-25.2491 Y21.2936
G01 X-25.3159 Y21.3675
G01 X-25.3497 Y21.3983
G01 X-25.3497 Y22.1747
G01 X-15.2400 Y22.1747
G01 X-15.1728 Y22.1780
G01 X-15.1087 Y22.1874
G01 X-15.0387 Y22.2050
G01 X-14.9755 Y22.2278
G01 X-14.9169 Y22.2556
G01 X-14.8613 Y22.2889
G01 X-14.8052 Y22.3302
G01 X-14.7563 Y22.3746
G01 X-10.9588 Y26.1720
G01 X-10.9524 Y26.1681
G01 X-10.9456 Y26.1653
G01 X-10.9372 Y26.1633
G01 X-10.9299 Y26.1628
G01 X-10.0251 Y26.1628
G01 X-10.0153 Y26.1638
G01 X-10.0060 Y26.1666
G01 X-9.9973 Y26.1712
G01 X-9.9897 Y26.1774
G01 X-9.3499 Y26.8172
G01 X-9.3437 Y26.8248
G01 X-9.3391 Y26.8335
G01 X-9.3363 Y26.8428
G01 X-9.3353 Y26.8526
G01 X-9.3353 Y27.7574
G01 X-9.3360 Y27.7660
G01 X-9.3382 Y27.7742
G01 X-9.3401 Y27.7788
G01 X-9.3431 Y27.7842
G01 X-9.3467 Y27.7891
G01 X-9.3499 Y27.7928
G01 X-9.9897 Y28.4326
G01 X-9.9973 Y28.4388
G01 X-10.0060 Y28.4434
G01 X-10.0153 Y28.4462
G01 X-10.0251 Y28.4472
G01 X-10.9299 Y28.4472
G01 X-10.9372 Y28.4467
G01 X-10.9444 Y28.4450
G01 X-10.9513 Y28.4424
G01 X-10.9577 Y28.4388
G01 X-10.9653 Y28.4326
G01 X-11.6051 Y27.7928
G01 X-11.6113 Y27.7852
G01 X-11.6149 Y27.7788
G01 X-11.6172 Y27.7731
G01 X-11.6190 Y27.7660
G01 X-11.6197 Y27.7586
G01 X-11.6197 Y27.4495
G01 X-15.5239 Y23.5453
G01 X-26.0350 Y23.5453
G01 X-26.1022 Y23.5420
G01 X-26.1687 Y23.5321
G01 X-26.2339 Y23.5158
G01 X-26.2740 Y23.5016
G01 X-26.2984 Y23.4927
G01 X-26.3581 Y23.4644
G01 X-26.4177 Y23.4284
G01 X-26.4698 Y23.3898
G01 X-26.5178 Y23.3463
G01 X-26.5663 Y23.2928
G01 X-26.6048 Y23.2407
G01 X-26.6382 Y23.1852
G01 X-26.6682 Y23.1223
G01 X-26.6915 Y23.0566
G01 X-26.7071 Y22.9937
G01 X-26.7167 Y22.9296
G01 X-26.7203 Y22.8612
G01 X-26.7203 Y21.3983
G00 Z2.0000
G00 X-24.5107 Y20.6502
G01 F60.00
G01 Z-0.0700
G01 F120.00
G01 X-24.5107 Y18.7186
G01 X-24.5058 Y18.6202
G01 X-24.4916 Y18.5241
G01 X-24.4669 Y18.4250
G01 X-24.4334 Y18.3311
G01 X-24.3919 Y18.2432
G01 X-24.3395 Y18.1555
G01 X-24.2785 Y18.0736
G01 X-24.2132 Y18.0016
G01 X-24.1393 Y17.9347
G01 X-24.0593 Y17.8753
G01 X-23.9759 Y17.8253
G01 X-23.8837 Y17.7814
G01 X-23.7898 Y17.7479
G01 X-23.6955 Y17.7242
G01 X-23.5933 Y17.7089
G01 X-23.4925 Y17.7042
G01 X-23.3954 Y17.7090
G01 X-23.2993 Y17.7232
G01 X-23.2002 Y17.7479
G01 X-23.1063 Y17.7814
G01 X-23.0162 Y17.8240
G01 X-22.9287 Y17.8767
G01 X-22.8507 Y17.9347
G01 X-22.7786 Y17.9999
G01 X-22.7107 Y18.0745
G01 X-22.6505 Y18.1555
G01 X-22.5981 Y18.2432
G01 X-22.5557 Y18.3334
G01 X-22.5231 Y18.4250
G01 X-22.4994 Y18.5193
G01 X-22.4842 Y18.6202
G01 X-22.4794 Y18.7173
G01 X-22.4793 Y18.9997
G01 X-6.0313 Y18.9997
G01 X-5.9653 Y19.0030
G01 X-5.9012 Y19.0124
G01 X-5.8336 Y19.0292
G01 X-5.7680 Y19.0528
G01 X-5.7094 Y19.0806
G01 X-5.6518 Y19.1152
G01 X-5.5959 Y19.1568
G01 X-5.5479 Y19.2004
G01 X-5.5027 Y19.2502
G01 X-5.4627 Y19.3043
G01 X-5.4293 Y19.3598
G01 X-5.3993 Y19.4227
G01 X-5.3767 Y19.4861
G01 X-5.3604 Y19.5513
G01 X-5.3505 Y19.6178
G01 X-5.3472 Y19.6850
G01 X-5.3472 Y26.3750
G01 X-4.9041 Y26.8181
G01 X-4.8987 Y26.8248
G01 X-4.8941 Y26.8335
G01 X-4.8913 Y26.8428
G01 X-4.8903 Y26.8526
G01 X-4.8903 Y27.7574
G01 X-4.8910 Y27.7660
G01 X-4.8928 Y27.7731
G01 X-4.8951 Y27.7788
G01 X-4.8974 Y27.7831
G01 X-4.9009 Y27.7882
G01 X-4.9049 Y27.7928
G01 X-5.3472 Y28.2350
G01 X-5.3472 Y32.3850
G01 X-5.3505 Y32.4522
G01 X-5.3604 Y32.5187
G01 X-5.3767 Y32.5839
G01 X-5.3985 Y32.6450
G01 X-5.4293 Y32.7102
G01 X-5.4627 Y32.7657
G01 X-5.5027 Y32.8198
G01 X-5.5479 Y32.8696
G01 X-5.5959 Y32.9132
G01 X-5.6518 Y32.9548
G01 X-5.7094 Y32.9894
G01 X-5.7680 Y33.0172
G01 X-5.8336 Y33.0408
G01 X-5.9012 Y33.0576
G01 X-5.9653 Y33.0670
G01 X-6.0300 Y33.0703
G01 X-14.2372 Y33.0703
G01 X-14.2372 Y41.6498
G01 X-14.1963 Y41.6950
G01 X-14.1407 Y41.7701
G01 X-14.0940 Y41.8481
G01 X-14.0550 Y41.9304
G01 X-14.0229 Y42.0207
G01 X-14.0011 Y42.1077
G01 X-13.9876 Y42.1989
G01 X-13.9831 Y42.2910
G01 X-13.9831 Y44.0702
G01 X-13.9876 Y44.1611
G01 X-14.0007 Y44.2499
G01 X-14.0235 Y44.3417
G01 X-14.0556 Y44.4308
G01 X-14.0940 Y44.5119
G01 X-14.1414 Y44.5909
G01 X-14.1963 Y44.6650
G01 X-14.2565 Y44.7315
G01 X-14.3265 Y44.7952
G01 X-14.4006 Y44.8501
G01 X-14.4775 Y44.8963
G01 X-14.5630 Y44.9369
G01 X-14.6522 Y44.9686
G01 X-14.7392 Y44.9904
G01 X-14.8280 Y45.0036
G01 X-14.9225 Y45.0084
G01 X-15.0146 Y45.0039
G01 X-15.1058 Y44.9904
G01 X-15.1975 Y44.9672
G01 X-15.2820 Y44.9369
G01 X-15.3632 Y44.8986
G01 X-15.4424 Y44.8514
G01 X-15.5185 Y44.7952
G01 X-15.5868 Y44.7333
G01 X-15.6487 Y44.6650
G01 X-15.7049 Y44.5889
G01 X-15.7521 Y44.5097
G01 X-15.7904 Y44.4285
G01 X-15.8207 Y44.3440
G01 X-15.8439 Y44.2523
G01 X-15.8575 Y44.1599
G01 X-15.8619 Y44.0690
G01 X-15.8619 Y42.2910
G01 X-15.8574 Y42.1989
G01 X-15.8439 Y42.1077
G01 X-15.8221 Y42.0207
G01 X-15.7900 Y41.9304
G01 X-15.7510 Y41.8481
G01 X-15.7043 Y41.7701
G01 X-15.6487 Y41.6950
G01 X-15.6078 Y41.6498
G01 X-15.6078 Y32.3850
G01 X-15.6045 Y32.3178
G01 X-15.5951 Y32.2537
G01 X-15.5779 Y32.1849
G01 X-15.5557 Y32.1227
G01 X-15.5280 Y32.0641
G01 X-15.4923 Y32.0043
G01 X-15.4507 Y31.9484
G01 X-15.4071 Y31.9004
G01 X-15.3573 Y31.8552
G01 X-15.3032 Y31.8152
G01 X-15.2477 Y31.7818
G01 X-15.1848 Y31.7518
G01 X-15.1214 Y31.7292
G01 X-15.0586 Y31.7134
G01 X-14.9872 Y31.7028
G01 X-14.9225 Y31.6997
G01 X-6.7178 Y31.6997
G01 X-6.7178 Y28.2350
G01 X-7.1609 Y27.7919
G01 X-7.1663 Y27.7852
G01 X-7.1709 Y27.7765
G01 X-7.1737 Y27.7672
G01 X-7.1747 Y27.7574
G01 X-7.1747 Y26.8526
G01 X-7.1740 Y26.8440
G01 X-7.1722 Y26.8369
G01 X-7.1699 Y26.8312
G01 X-7.1676 Y26.8269
G01 X-7.1641 Y26.8218
G01 X-7.1601 Y26.8172
G01 X-6.7178 Y26.3750
G01 X-6.7178 Y20.3703
G01 X-22.4793 Y20.3703
G01 X-22.4794 Y20.6527
G01 X-22.4842 Y20.7498
G01 X-22.4994 Y20.8507
G01 X-22.5231 Y20.9450
G01 X-22.5557 Y21.0366
G01 X-22.5981 Y21.1268
G01 X-22.6505 Y21.2145
G01 X-22.7091 Y21.2936
G01 X-22.7768 Y21.3684
G01 X-22.8507 Y21.4353
G01 X-22.9307 Y21.4947
G01 X-23.0184 Y21.5471
G01 X-23.1086 Y21.5895
G01 X-23.2002 Y21.6221
G01 X-23.2945 Y21.6458
G01 X-23.3954 Y21.6610
G01 X-23.4938 Y21.6659
G01 X-23.5946 Y21.6610
G01 X-23.6931 Y21.6464
G01 X-23.7898 Y21.6221
G01 X-23.8837 Y21.5886
G01 X-23.9738 Y21.5460
G01 X-24.0593 Y21.4947
G01 X-24.1393 Y21.4353
G01 X-24.2132 Y21.3684
G01 X-24.2801 Y21.2945
G01 X-24.3395 Y21.2145
G01 X-24.3908 Y21.1290
G01 X-24.4334 Y21.0389
G01 X-24.4669 Y20.9450
G01 X-24.4912 Y20.8483
G01 X-24.5058 Y20.7498
G01 X-24.5107 Y20.6502
G00 Z2.0000
G00 X-28.4418 Y31.8903
G01 F60.00
G01 Z-0.0700
G01 F120.00
G01 X-28.4365 Y31.8995
G01 X-28.4321 Y31.9086
G01 X-28.4264 Y31.9230
G01 X-28.4233 Y31.9329
G01 X-28.4169 Y31.9600
G01 X-28.4149 Y31.9700
G01 X-28.4131 Y31.9867
G01 X-28.4126 Y31.9970
G01 X-28.4129 Y32.0072
G01 X-28.4146 Y32.0350
G01 X-28.4161 Y32.0455
G01 X-28.4184 Y32.0571
G01 X-28.4218 Y32.0697
G01 X-28.4310 Y32.0963
G01 X-28.4348 Y32.1056
G01 X-28.4385 Y32.1131
G01 X-28.4264 Y32.1095
G01 X-28.4163 Y32.1074
G01 X-28.4027 Y32.1057
G01 X-28.3924 Y32.1053
G01 X-27.4876 Y32.1053
G01 X-27.4739 Y32.1060
G01 X-27.4637 Y32.1074
G01 X-27.4536 Y32.1095
G01 X-27.4415 Y32.1131
G01 X-27.4487 Y32.0976
G01 X-27.4523 Y32.0879
G01 X-27.4602 Y32.0612
G01 X-27.4629 Y32.0509
G01 X-27.4654 Y32.0360
G01 X-27.4665 Y32.0257
G01 X-27.4669 Y32.0153
G01 X-27.4669 Y31.9898
G01 X-27.4662 Y31.9795
G01 X-27.4644 Y31.9653
G01 X-27.4624 Y31.9552
G01 X-27.4606 Y31.9485
G01 X-27.4516 Y31.9179
G01 X-27.4453 Y31.9027
G01 X-27.4390 Y31.8903
G01 X-28.4418 Y31.8903
G00 Z2.0000
G00 X-29.2363 Y33.6646
G01 F60.00
G01 Z-0.0700
G01 F120.00
G01 X-29.1623 Y33.5906
G01 X-29.2363 Y33.5906
G01 X-29.2363 Y33.6646
G00 Z2.0000
G00 X-28.1931 Y34.5598
G01 F60.00
G01 Z-0.0700
G01 F120.00
G01 X-28.2671 Y34.6338
G01 X-28.1931 Y34.6338
G01 X-28.1931 Y34.5598
G00 Z2.0000
G00 X-26.6437 Y33.5906
G01 F60.00
G01 Z-0.0700
G01 F120.00
G01 X-26.7978 Y33.5906
G01 X-26.7979 Y33.7924
G01 X-26.7988 Y33.7997
G01 X-26.8007 Y33.8067
G01 X-26.8037 Y33.8135
G01 X-26.8076 Y33.8197
G01 X-26.8124 Y33.8253
G01 X-27.4549 Y34.4676
G01 X-27.4608 Y34.4719
G01 X-27.4685 Y34.4759
G01 X-27.4766 Y34.4785
G01 X-27.4851 Y34.4796
G01 X-27.6869 Y34.4797
G01 X-27.6869 Y34.6338
G01 X-27.4031 Y34.6338
G01 X-26.6437 Y33.8744
G01 X-26.6437 Y33.5906
G00 Z2.0000
G00 X-26.7876 Y40.7387
G01 F60.00
G01 Z-0.0700
G01 F120.00
G01 X-26.7148 Y40.7570
G01 X-26.6303 Y40.7872
G01 X-26.5468 Y40.8264
G01 X-26.4656 Y40.8749
G01 X-26.3935 Y40.9283
G01 X-26.3232 Y40.9917
G01 X-26.2613 Y41.0600
G01 X-26.2064 Y41.1341
G01 X-26.1596 Y41.2121
G01 X-26.1196 Y41.2965
G01 X-26.0885 Y41.3833
G01 X-26.0661 Y41.4727
G01 X-26.0526 Y41.5639
G01 X-26.0481 Y41.6560
G01 X-26.0481 Y42.3451
G01 X-25.8944 Y42.3451
G01 X-25.8944 Y41.5699
G01 X-25.9214 Y41.4000
G01 X-25.9745 Y41.2364
G01 X-26.0527 Y41.0831
G01 X-26.1537 Y40.9439
G01 X-26.2754 Y40.8222
G01 X-26.4146 Y40.7212
G01 X-26.5679 Y40.6430
G01 X-26.7315 Y40.5899
G01 X-26.7876 Y40.5810
G01 X-26.7876 Y40.7387
G00 Z2.0000
G00 X-27.9269 Y42.3451
G01 F60.00
G01 Z-0.0700
G01 F120.00
G01 X-27.9269 Y41.6560
G01 X-27.9225 Y41.5651
G01 X-27.9084 Y41.4703
G01 X-27.8865 Y41.3833
G01 X-27.8554 Y41.2965
G01 X-27.8148 Y41.2110
G01 X-27.7686 Y41.1341
G01 X-27.7152 Y41.0620
G01 X-27.6518 Y40.9917
G01 X-27.5835 Y40.9298
G01 X-27.5094 Y40.8749
G01 X-27.4282 Y40.8264
G01 X-27.3447 Y40.7872
G01 X-27.2602 Y40.7570
G01 X-27.1874 Y40.7387
G01 X-27.1874 Y40.5810
G01 X-27.2435 Y40.5899
G01 X-27.4071 Y40.6430
G01 X-27.5604 Y40.7212
G01 X-27.6996 Y40.8222
G01 X-27.8213 Y40.9439
G01 X-27.9223 Y41.0831
G01 X-28.0005 Y41.2364
G01 X-28.0536 Y41.4000
G01 X-28.0806 Y41.5699
G01 X-28.0806 Y42.3451
G01 X-27.9269 Y42.3451
G00 Z2.0000
G00 X-27.6728 Y44.2872
G01 F60.00
G01 Z-0.0700
G01 F120.00
G01 X-27.6728 Y44.0752
G01 X-27.7137 Y44.0300
G01 X-27.7679 Y43.9569
G01 X-27.8166 Y43.8758
G01 X-27.8554 Y43.7935
G01 X-27.8857 Y43.7090
G01 X-27.9091 Y43.6161
G01 X-27.9224 Y43.5261
G01 X-27.9269 Y43.4352
G01 X-27.9269 Y42.7449
G01 X-28.0806 Y42.7449
G01 X-28.0806 Y43.5201
G01 X-28.0536 Y43.6900
G01 X-28.0005 Y43.8536
G01 X-27.9223 Y44.0069
G01 X-27.8213 Y44.1461
G01 X-27.6996 Y44.2678
G01 X-27.6728 Y44.2872
G00 Z2.0000
G00 X-25.8944 Y42.7449
G01 F60.00
G01 Z-0.0700
G01 F120.00
G01 X-26.0481 Y42.7449
G01 X-26.0481 Y43.4352
G01 X-26.0526 Y43.5261
G01 X-26.0659 Y43.6161
G01 X-26.0893 Y43.7090
G01 X-26.1196 Y43.7935
G01 X-26.1584 Y43.8758
G01 X-26.2071 Y43.9569
G01 X-26.2613 Y44.0300
G01 X-26.3022 Y44.0752
G01 X-26.3022 Y44.2872
G01 X-26.2754 Y44.2678
G01 X-26.1537 Y44.1461
G01 X-26.0527 Y44.0069
G01 X-25.9745 Y43.8536
G01 X-25.9214 Y43.6900
G01 X-25.8944 Y43.5201
G01 X-25.8944 Y42.7449
G00 Z2.0000
G00 X-25.3869 Y43.4340
G01 F60.00
G01 Z-0.0700
G01 F120.00
G01 X-25.3869 Y41.6560
G01 X-25.3825 Y41.5651
G01 X-25.3689 Y41.4727
G01 X-25.3457 Y41.3810
G01 X-25.3154 Y41.2965
G01 X-25.2771 Y41.2153
G01 X-25.2299 Y41.1361
G01 X-25.1737 Y41.0600
G01 X-25.1118 Y40.9917
G01 X-25.0435 Y40.9298
G01 X-24.9674 Y40.8736
G01 X-24.8904 Y40.8275
G01 X-24.8093 Y40.7891
G01 X-24.7225 Y40.7578
G01 X-24.6308 Y40.7346
G01 X-24.5408 Y40.7212
G01 X-24.4475 Y40.7166
G01 X-24.3554 Y40.7211
G01 X-24.2642 Y40.7346
G01 X-24.1736 Y40.7574
G01 X-24.0880 Y40.7881
G01 X-24.0036 Y40.8281
G01 X-23.9246 Y40.8756
G01 X-23.8525 Y40.9290
G01 X-23.8252 Y40.9535
G01 X-21.6403 Y38.7686
G01 X-21.6403 Y37.4425
G01 X-22.0826 Y37.0003
G01 X-22.0866 Y36.9957
G01 X-22.0901 Y36.9906
G01 X-22.0924 Y36.9863
G01 X-22.0947 Y36.9806
G01 X-22.0967 Y36.9722
G01 X-22.0972 Y36.9649
G01 X-22.0972 Y36.0601
G01 X-22.0965 Y36.0515
G01 X-22.0947 Y36.0444
G01 X-22.0924 Y36.0387
G01 X-22.0901 Y36.0344
G01 X-22.0866 Y36.0293
G01 X-22.0826 Y36.0247
G01 X-21.4428 Y35.3849
G01 X-21.4352 Y35.3787
G01 X-21.4265 Y35.3741
G01 X-21.4172 Y35.3713
G01 X-21.4074 Y35.3703
G01 X-20.5026 Y35.3703
G01 X-20.4953 Y35.3708
G01 X-20.4893 Y35.3721
G01 X-20.4823 Y35.3746
G01 X-20.4769 Y35.3774
G01 X-20.4718 Y35.3809
G01 X-20.4672 Y35.3849
G01 X-19.8266 Y36.0256
G01 X-19.8212 Y36.0323
G01 X-19.8166 Y36.0410
G01 X-19.8140 Y36.0491
G01 X-19.8128 Y36.0589
G01 X-19.8128 Y36.9649
G01 X-19.8133 Y36.9722
G01 X-19.8153 Y36.9806
G01 X-19.8176 Y36.9863
G01 X-19.8206 Y36.9917
G01 X-19.8234 Y36.9957
G01 X-19.8274 Y37.0003
G01 X-20.2697 Y37.4425
G01 X-20.2697 Y39.0525
G01 X-20.2728 Y39.1172
G01 X-20.2829 Y39.1862
G01 X-20.3000 Y39.2538
G01 X-20.3218 Y39.3148
G01 X-20.3495 Y39.3734
G01 X-20.3839 Y39.4312
G01 X-20.4252 Y39.4873
G01 X-20.4704 Y39.5371
G01 X-23.5081 Y42.5747
G01 X-23.5081 Y43.4352
G01 X-23.5126 Y43.5261
G01 X-23.5264 Y43.6185
G01 X-23.5485 Y43.7067
G01 X-23.5796 Y43.7935
G01 X-23.6190 Y43.8769
G01 X-23.6651 Y43.9539
G01 X-23.7229 Y44.0318
G01 X-23.7832 Y44.0983
G01 X-23.8525 Y44.1610
G01 X-23.9256 Y44.2151
G01 X-24.0025 Y44.2613
G01 X-24.0880 Y44.3019
G01 X-24.1748 Y44.3330
G01 X-24.2618 Y44.3549
G01 X-24.3554 Y44.3689
G01 X-24.4500 Y44.3734
G01 X-24.5396 Y44.3689
G01 X-24.6308 Y44.3554
G01 X-24.7225 Y44.3322
G01 X-24.8070 Y44.3019
G01 X-24.8882 Y44.2636
G01 X-24.9694 Y44.2151
G01 X-25.0453 Y44.1586
G01 X-25.1118 Y44.0983
G01 X-25.1721 Y44.0318
G01 X-25.2299 Y43.9539
G01 X-25.2760 Y43.8769
G01 X-25.3144 Y43.7958
G01 X-25.3465 Y43.7067
G01 X-25.3689 Y43.6173
G01 X-25.3821 Y43.5285
G01 X-25.3869 Y43.4340
G00 Z2.0000
G00 X-23.8930 Y40.8125
G01 F60.00
G01 Z-0.0700
G01 F120.00
G01 X-24.2502 Y40.6645
G01 X-24.6448 Y40.6645
G01 X-25.0092 Y40.8155
G01 X-25.2880 Y41.0943
G01 X-25.4390 Y41.4587
G01 X-25.4390 Y43.6313
G01 X-25.2880 Y43.9957
G01 X-25.0092 Y44.2745
G01 X-24.6448 Y44.4255
G01 X-24.2502 Y44.4255
G01 X-23.8858 Y44.2745
G01 X-23.6070 Y43.9957
G01 X-23.4560 Y43.6313
G01 X-23.4560 Y42.6580
G01 X-23.4556 Y42.6532
G01 X-23.4544 Y42.6453
G01 X-23.4529 Y42.6288
G01 X-23.4518 Y42.6238
G01 X-23.4498 Y42.6178
G01 X-23.4482 Y42.6110
G01 X-23.4465 Y42.6065
G01 X-23.4422 Y42.5979
G01 X-23.4381 Y42.5879
G01 X-23.4278 Y42.5712
G01 X-23.4199 Y42.5623
G01 X-23.4149 Y42.5557
G01 X-23.4117 Y42.5520
G01 X-20.3298 Y39.4703
G01 X-20.2175 Y39.1992
G01 X-20.2175 Y37.5273
G01 X-20.2173 Y37.5225
G01 X-20.2159 Y37.5134
G01 X-20.2144 Y37.4969
G01 X-20.2133 Y37.4919
G01 X-20.2089 Y37.4768
G01 X-20.2038 Y37.4661
G01 X-20.1990 Y37.4547
G01 X-20.1893 Y37.4393
G01 X-20.1814 Y37.4304
G01 X-20.1748 Y37.4219
G01 X-19.7603 Y37.0074
G01 X-19.7603 Y36.0176
G01 X-20.4601 Y35.3178
G01 X-21.4499 Y35.3178
G01 X-22.1497 Y36.0176
G01 X-22.1497 Y37.0074
G01 X-21.7351 Y37.4219
G01 X-21.7281 Y37.4313
G01 X-21.7169 Y37.4448
G01 X-21.7080 Y37.4606
G01 X-21.6990 Y37.4837
G01 X-21.6946 Y37.5020
G01 X-21.6925 Y37.5273
G01 X-21.6925 Y38.6843
G01 X-21.6927 Y38.6891
G01 X-21.6941 Y38.6982
G01 X-21.6956 Y38.7147
G01 X-21.6967 Y38.7197
G01 X-21.7011 Y38.7348
G01 X-21.7063 Y38.7456
G01 X-21.7104 Y38.7558
G01 X-21.7185 Y38.7690
G01 X-21.7221 Y38.7741
G01 X-21.7286 Y38.7812
G01 X-21.7336 Y38.7878
G01 X-21.7368 Y38.7915
G01 X-23.7309 Y40.7852
G01 X-23.7375 Y40.7904
G01 X-23.7607 Y40.8061
G01 X-23.7664 Y40.8094
G01 X-23.7732 Y40.8122
G01 X-23.8015 Y40.8213
G01 X-23.8073 Y40.8227
G01 X-23.8133 Y40.8233
G01 X-23.8423 Y40.8243
G01 X-23.8495 Y40.8240
G01 X-23.8553 Y40.8230
G01 X-23.8843 Y40.8156
G01 X-23.8930 Y40.8125
G00 Z2.0000
G00 X-30.2712 Y40.9700
G01 F60.00
G01 Z-0.0700
G01 F120.00
G01 X-30.2737 Y40.9792
G01 X-30.2788 Y40.9898
G01 X-30.2823 Y40.9988
G01 X-30.2847 Y41.0033
G01 X-30.2938 Y41.0174
G01 X-30.3012 Y41.0256
G01 X-30.3085 Y41.0348
G01 X-30.3680 Y41.0944
G01 X-30.5190 Y41.4588
G01 X-30.5190 Y43.6313
G01 X-30.3680 Y43.9957
G01 X-30.0892 Y44.2745
G01 X-29.7248 Y44.4255
G01 X-29.3302 Y44.4255
G01 X-28.9658 Y44.2745
G01 X-28.6870 Y43.9957
G01 X-28.5360 Y43.6313
G01 X-28.5360 Y41.4588
G01 X-28.6870 Y41.0944
G01 X-28.7465 Y41.0348
G01 X-28.7649 Y41.0119
G01 X-28.7736 Y40.9972
G01 X-28.7766 Y40.9907
G01 X-28.7793 Y40.9825
G01 X-28.7839 Y40.9710
G01 X-28.7880 Y40.9528
G01 X-28.7887 Y40.9415
G01 X-28.7898 Y40.9332
G01 X-28.7900 Y40.9286
G01 X-28.7900 Y39.7370
G01 X-28.7896 Y39.7322
G01 X-28.7884 Y39.7243
G01 X-28.7869 Y39.7078
G01 X-28.7858 Y39.7028
G01 X-28.7838 Y39.6968
G01 X-28.7822 Y39.6900
G01 X-28.7805 Y39.6855
G01 X-28.7762 Y39.6769
G01 X-28.7721 Y39.6667
G01 X-28.7619 Y39.6504
G01 X-28.7539 Y39.6413
G01 X-28.7489 Y39.6347
G01 X-28.7457 Y39.6310
G01 X-26.4090 Y37.2943
G01 X-26.4053 Y37.2910
G01 X-26.3978 Y37.2856
G01 X-26.3845 Y37.2746
G01 X-26.3704 Y37.2664
G01 X-26.3650 Y37.2639
G01 X-26.3557 Y37.2607
G01 X-26.3454 Y37.2565
G01 X-26.3298 Y37.2526
G01 X-26.3235 Y37.2517
G01 X-26.3147 Y37.2513
G01 X-26.3064 Y37.2502
G01 X-26.3018 Y37.2500
G01 X-25.4623 Y37.2500
G01 X-25.4575 Y37.2502
G01 X-25.4484 Y37.2516
G01 X-25.4307 Y37.2533
G01 X-25.4118 Y37.2586
G01 X-25.4011 Y37.2637
G01 X-25.3897 Y37.2685
G01 X-25.3743 Y37.2782
G01 X-25.3654 Y37.2861
G01 X-25.3569 Y37.2927
G01 X-24.9424 Y37.7072
G01 X-23.9526 Y37.7072
G01 X-23.2528 Y37.0074
G01 X-23.2528 Y36.0176
G01 X-23.9526 Y35.3178
G01 X-24.9424 Y35.3178
G01 X-25.3569 Y35.7324
G01 X-25.3663 Y35.7394
G01 X-25.3798 Y35.7506
G01 X-25.3956 Y35.7595
G01 X-25.4187 Y35.7685
G01 X-25.4357 Y35.7726
G01 X-25.4623 Y35.7750
G01 X-26.8167 Y35.7750
G01 X-27.0878 Y35.8873
G01 X-30.1527 Y38.9522
G01 X-30.2650 Y39.2233
G01 X-30.2650 Y40.9286
G01 X-30.2652 Y40.9334
G01 X-30.2666 Y40.9425
G01 X-30.2681 Y40.9590
G01 X-30.2692 Y40.9640
G01 X-30.2712 Y40.9700
G00 Z2.0000
G00 X-30.4669 Y43.4340
G01 F60.00
G01 Z-0.0700
G01 F120.00
G01 X-30.4669 Y41.6560
G01 X-30.4624 Y41.5639
G01 X-30.4489 Y41.4727
G01 X-30.4271 Y41.3857
G01 X-30.3950 Y41.2954
G01 X-30.3560 Y41.2131
G01 X-30.3093 Y41.1351
G01 X-30.2537 Y41.0600
G01 X-30.2128 Y41.0148
G01 X-30.2128 Y39.3700
G01 X-30.2096 Y39.3040
G01 X-30.1991 Y39.2339
G01 X-30.1833 Y39.1711
G01 X-30.1607 Y39.1077
G01 X-30.1307 Y39.0448
G01 X-30.0973 Y38.9893
G01 X-30.0573 Y38.9352
G01 X-30.0121 Y38.8854
G01 X-27.1546 Y36.0279
G01 X-27.1028 Y35.9812
G01 X-27.0507 Y35.9427
G01 X-26.9952 Y35.9093
G01 X-26.9323 Y35.8793
G01 X-26.8689 Y35.8567
G01 X-26.8037 Y35.8404
G01 X-26.7347 Y35.8303
G01 X-26.6700 Y35.8272
G01 X-25.3775 Y35.8272
G01 X-24.9353 Y35.3849
G01 X-24.9307 Y35.3809
G01 X-24.9256 Y35.3774
G01 X-24.9202 Y35.3746
G01 X-24.9144 Y35.3725
G01 X-24.9072 Y35.3708
G01 X-24.8999 Y35.3703
G01 X-23.9951 Y35.3703
G01 X-23.9865 Y35.3710
G01 X-23.9783 Y35.3732
G01 X-23.9705 Y35.3768
G01 X-23.9634 Y35.3817
G01 X-23.3191 Y36.0256
G01 X-23.3137 Y36.0323
G01 X-23.3091 Y36.0410
G01 X-23.3063 Y36.0503
G01 X-23.3053 Y36.0601
G01 X-23.3053 Y36.9649
G01 X-23.3063 Y36.9747
G01 X-23.3091 Y36.9840
G01 X-23.3137 Y36.9927
G01 X-23.3199 Y37.0003
G01 X-23.9624 Y37.6426
G01 X-23.9694 Y37.6476
G01 X-23.9771 Y37.6513
G01 X-23.9853 Y37.6537
G01 X-23.9951 Y37.6547
G01 X-24.8999 Y37.6547
G01 X-24.9072 Y37.6542
G01 X-24.9144 Y37.6525
G01 X-24.9202 Y37.6504
G01 X-24.9256 Y37.6476
G01 X-24.9307 Y37.6441
G01 X-24.9353 Y37.6401
G01 X-25.3775 Y37.1978
G01 X-26.3861 Y37.1978
G01 X-28.8422 Y39.6539
G01 X-28.8422 Y41.0148
G01 X-28.8013 Y41.0600
G01 X-28.7457 Y41.1351
G01 X-28.6990 Y41.2131
G01 X-28.6591 Y41.2976
G01 X-28.6285 Y41.3833
G01 X-28.6061 Y41.4727
G01 X-28.5926 Y41.5639
G01 X-28.5881 Y41.6560
G01 X-28.5881 Y43.4340
G01 X-28.5926 Y43.5261
G01 X-28.6061 Y43.6173
G01 X-28.6279 Y43.7043
G01 X-28.6596 Y43.7935
G01 X-28.7002 Y43.8790
G01 X-28.7464 Y43.9559
G01 X-28.8013 Y44.0300
G01 X-28.8650 Y44.1000
G01 X-28.9315 Y44.1602
G01 X-29.0056 Y44.2151
G01 X-29.0846 Y44.2625
G01 X-29.1657 Y44.3009
G01 X-29.2572 Y44.3336
G01 X-29.3442 Y44.3554
G01 X-29.4354 Y44.3689
G01 X-29.5275 Y44.3734
G01 X-29.6171 Y44.3691
G01 X-29.7132 Y44.3549
G01 X-29.8002 Y44.3330
G01 X-29.8847 Y44.3028
G01 X-29.9725 Y44.2613
G01 X-30.0494 Y44.2151
G01 X-30.1235 Y44.1602
G01 X-30.1918 Y44.0983
G01 X-30.2521 Y44.0318
G01 X-30.3086 Y43.9559
G01 X-30.3560 Y43.8769
G01 X-30.3944 Y43.7958
G01 X-30.4265 Y43.7067
G01 X-30.4489 Y43.6173
G01 X-30.4621 Y43.5285
G01 X-30.4669 Y43.4340
G00 Z2.0000
G00 X-37.6149 Y45.2622
G01 F60.00
G01 Z-0.0700
G01 F120.00
G01 X-37.6253 Y45.2401
G01 X-37.6348 Y45.2117
G01 X-37.6383 Y45.1978
G01 X-37.6420 Y45.1742
G01 X-37.6432 Y45.1440
G01 X-37.6426 Y45.1299
G01 X-37.6411 Y45.1158
G01 X-37.6396 Y45.1058
G01 X-37.6348 Y45.0867
G01 X-37.6748 Y45.0926
G01 X-37.6850 Y45.0938
G01 X-37.7825 Y45.0984
G01 X-37.8800 Y45.0938
G01 X-37.8902 Y45.0926
G01 X-37.9297 Y45.0868
G01 X-37.9241 Y45.1148
G01 X-37.9228 Y45.1253
G01 X-37.9219 Y45.1391
G01 X-37.9217 Y45.1535
G01 X-37.9241 Y45.1829
G01 X-37.9266 Y45.1970
G01 X-37.9296 Y45.2098
G01 X-37.9325 Y45.2199
G01 X-37.9429 Y45.2474
G01 X-37.9502 Y45.2622
G01 X-37.6149 Y45.2622
G00 Z2.0000
G00 X-43.9901 Y36.3422
G01 F60.00
G01 Z-0.0700
G01 F120.00
G01 X-43.3503 Y35.7024
G01 X-43.3437 Y35.6969
G01 X-43.3363 Y35.6926
G01 X-43.3282 Y35.6896
G01 X-43.3198 Y35.6880
G01 X-42.4101 Y35.6878
G01 X-42.4028 Y35.6883
G01 X-42.3956 Y35.6900
G01 X-42.3898 Y35.6921
G01 X-42.3844 Y35.6949
G01 X-42.3793 Y35.6984
G01 X-42.3747 Y35.7024
G01 X-41.9325 Y36.1447
G01 X-41.8764 Y36.1447
G01 X-40.3728 Y34.6411
G01 X-40.3728 Y32.3838
G01 X-40.3692 Y32.3154
G01 X-40.3596 Y32.2513
G01 X-40.3440 Y32.1884
G01 X-40.3207 Y32.1227
G01 X-40.2913 Y32.0609
G01 X-40.2573 Y32.0043
G01 X-40.2188 Y31.9522
G01 X-40.1721 Y31.9004
G01 X-36.8803 Y28.6086
G01 X-36.8803 Y21.3983
G01 X-36.9141 Y21.3675
G01 X-36.9809 Y21.2936
G01 X-37.0395 Y21.2145
G01 X-37.0913 Y21.1279
G01 X-37.1334 Y21.0389
G01 X-37.1669 Y20.9450
G01 X-37.1912 Y20.8483
G01 X-37.2057 Y20.7510
G01 X-37.2107 Y20.6502
G01 X-37.2107 Y18.7198
G01 X-37.2058 Y18.6202
G01 X-37.1906 Y18.5193
G01 X-37.1669 Y18.4250
G01 X-37.1343 Y18.3334
G01 X-37.0908 Y18.2410
G01 X-37.0395 Y18.1555
G01 X-36.9801 Y18.0755
G01 X-36.9114 Y17.9999
G01 X-36.8374 Y17.9332
G01 X-36.7593 Y17.8753
G01 X-36.6759 Y17.8253
G01 X-36.5837 Y17.7814
G01 X-36.4898 Y17.7479
G01 X-36.3931 Y17.7236
G01 X-36.2921 Y17.7088
G01 X-36.1950 Y17.7041
G01 X-36.0979 Y17.7088
G01 X-35.9993 Y17.7232
G01 X-35.9002 Y17.7479
G01 X-35.8052 Y17.7819
G01 X-35.7162 Y17.8240
G01 X-35.6328 Y17.8740
G01 X-35.5507 Y17.9347
G01 X-35.4751 Y18.0034
G01 X-35.4099 Y18.0755
G01 X-35.3505 Y18.1555
G01 X-35.2981 Y18.2432
G01 X-35.2566 Y18.3311
G01 X-35.2231 Y18.4250
G01 X-35.1984 Y18.5241
G01 X-35.1842 Y18.6202
G01 X-35.1793 Y18.7186
G01 X-35.1793 Y20.6502
G01 X-35.1843 Y20.7510
G01 X-35.1988 Y20.8483
G01 X-35.2231 Y20.9450
G01 X-35.2566 Y21.0389
G01 X-35.2987 Y21.1279
G01 X-35.3505 Y21.2145
G01 X-35.4091 Y21.2936
G01 X-35.4759 Y21.3675
G01 X-35.5097 Y21.3983
G01 X-35.5097 Y28.8925
G01 X-35.5130 Y28.9597
G01 X-35.5229 Y29.0262
G01 X-35.5392 Y29.0914
G01 X-35.5623 Y29.1559
G01 X-35.5906 Y29.2156
G01 X-35.6252 Y29.2732
G01 X-35.6652 Y29.3273
G01 X-35.7104 Y29.3771
G01 X-39.0022 Y32.6689
G01 X-39.0022 Y34.9262
G01 X-39.0055 Y34.9922
G01 X-39.0154 Y35.0587
G01 X-39.0317 Y35.1239
G01 X-39.0553 Y35.1895
G01 X-39.0831 Y35.2481
G01 X-39.1177 Y35.3057
G01 X-39.1577 Y35.3598
G01 X-39.2021 Y35.4087
G01 X-41.1079 Y37.3146
G01 X-41.1568 Y37.3590
G01 X-41.2118 Y37.3998
G01 X-41.2716 Y37.4355
G01 X-41.3302 Y37.4632
G01 X-41.3912 Y37.4850
G01 X-41.4588 Y37.5021
G01 X-41.5253 Y37.5120
G01 X-41.5913 Y37.5153
G01 X-41.9325 Y37.5153
G01 X-42.3747 Y37.9576
G01 X-42.3803 Y37.9624
G01 X-42.3855 Y37.9657
G01 X-42.3910 Y37.9684
G01 X-42.3968 Y37.9704
G01 X-42.4028 Y37.9717
G01 X-42.4101 Y37.9722
G01 X-43.3149 Y37.9722
G01 X-43.3235 Y37.9715
G01 X-43.3317 Y37.9693
G01 X-43.3374 Y37.9669
G01 X-43.3417 Y37.9644
G01 X-43.3466 Y37.9608
G01 X-43.3503 Y37.9576
G01 X-43.9901 Y37.3178
G01 X-43.9963 Y37.3102
G01 X-44.0009 Y37.3015
G01 X-44.0037 Y37.2922
G01 X-44.0047 Y37.2824
G01 X-44.0047 Y36.3776
G01 X-44.0037 Y36.3678
G01 X-44.0009 Y36.3585
G01 X-43.9963 Y36.3498
G01 X-43.9901 Y36.3422
G00 Z2.0000
G00 X-43.9901 Y33.1672
G01 F60.00
G01 Z-0.0700
G01 F120.00
G01 X-43.5478 Y32.7250
G01 X-43.5478 Y32.0675
G01 X-43.5442 Y31.9979
G01 X-43.5346 Y31.9338
G01 X-43.5190 Y31.8709
G01 X-43.4957 Y31.8052
G01 X-43.4657 Y31.7423
G01 X-43.4323 Y31.6868
G01 X-43.3923 Y31.6327
G01 X-43.3471 Y31.5829
G01 X-39.4203 Y27.6561
G01 X-39.4203 Y21.3983
G01 X-39.4541 Y21.3675
G01 X-39.5209 Y21.2936
G01 X-39.5795 Y21.2145
G01 X-39.6313 Y21.1279
G01 X-39.6734 Y21.0389
G01 X-39.7069 Y20.9450
G01 X-39.7312 Y20.8483
G01 X-39.7457 Y20.7510
G01 X-39.7507 Y20.6502
G01 X-39.7507 Y18.7198
G01 X-39.7458 Y18.6202
G01 X-39.7312 Y18.5217
G01 X-39.7062 Y18.4226
G01 X-39.6734 Y18.3311
G01 X-39.6319 Y18.2432
G01 X-39.5808 Y18.1576
G01 X-39.5201 Y18.0755
G01 X-39.4532 Y18.0016
G01 X-39.3793 Y17.9347
G01 X-39.2972 Y17.8740
G01 X-39.2116 Y17.8229
G01 X-39.1237 Y17.7814
G01 X-39.0322 Y17.7486
G01 X-38.9331 Y17.7236
G01 X-38.8346 Y17.7090
G01 X-38.7350 Y17.7041
G01 X-38.6330 Y17.7093
G01 X-38.5369 Y17.7236
G01 X-38.4425 Y17.7472
G01 X-38.3486 Y17.7805
G01 X-38.2541 Y17.8253
G01 X-38.1707 Y17.8753
G01 X-38.0907 Y17.9347
G01 X-38.0151 Y18.0034
G01 X-37.9499 Y18.0755
G01 X-37.8905 Y18.1555
G01 X-37.8381 Y18.2432
G01 X-37.7966 Y18.3311
G01 X-37.7631 Y18.4250
G01 X-37.7384 Y18.5241
G01 X-37.7242 Y18.6202
G01 X-37.7193 Y18.7186
G01 X-37.7193 Y20.6502
G01 X-37.7243 Y20.7510
G01 X-37.7388 Y20.8483
G01 X-37.7631 Y20.9450
G01 X-37.7966 Y21.0389
G01 X-37.8387 Y21.1279
G01 X-37.8905 Y21.2145
G01 X-37.9491 Y21.2936
G01 X-38.0159 Y21.3675
G01 X-38.0497 Y21.3983
G01 X-38.0497 Y27.9400
G01 X-38.0530 Y28.0072
G01 X-38.0629 Y28.0737
G01 X-38.0792 Y28.1389
G01 X-38.1010 Y28.2000
G01 X-38.1306 Y28.2631
G01 X-38.1652 Y28.3207
G01 X-38.2052 Y28.3748
G01 X-38.2504 Y28.4246
G01 X-42.1772 Y32.3514
G01 X-42.1772 Y32.7250
G01 X-41.7349 Y33.1672
G01 X-41.7301 Y33.1728
G01 X-41.7268 Y33.1780
G01 X-41.7241 Y33.1835
G01 X-41.7218 Y33.1904
G01 X-41.7207 Y33.1965
G01 X-41.7203 Y33.2026
G01 X-41.7204 Y34.1111
G01 X-41.7218 Y34.1196
G01 X-41.7246 Y34.1277
G01 X-41.7287 Y34.1352
G01 X-41.7341 Y34.1419
G01 X-42.3774 Y34.7851
G01 X-42.3844 Y34.7901
G01 X-42.3921 Y34.7938
G01 X-42.4003 Y34.7962
G01 X-42.4101 Y34.7972
G01 X-43.3149 Y34.7972
G01 X-43.3247 Y34.7962
G01 X-43.3329 Y34.7938
G01 X-43.3374 Y34.7919
G01 X-43.3427 Y34.7888
G01 X-43.3503 Y34.7826
G01 X-43.9901 Y34.1428
G01 X-43.9963 Y34.1352
G01 X-44.0009 Y34.1265
G01 X-44.0037 Y34.1172
G01 X-44.0047 Y34.1074
G01 X-44.0047 Y33.2014
G01 X-44.0035 Y33.1916
G01 X-44.0004 Y33.1823
G01 X-43.9956 Y33.1738
G01 X-43.9901 Y33.1672
G00 Z2.0000
G00 X-43.6062 Y32.6816
G01 F60.00
G01 Z-0.0700
G01 F120.00
G01 X-43.6075 Y32.6873
G01 X-43.6090 Y32.6918
G01 X-43.6137 Y32.7014
G01 X-43.6168 Y32.7094
G01 X-43.6191 Y32.7139
G01 X-43.6282 Y32.7282
G01 X-43.6361 Y32.7371
G01 X-43.6435 Y32.7465
G01 X-44.0572 Y33.1601
G01 X-44.0572 Y34.1499
G01 X-43.3574 Y34.8497
G01 X-42.3676 Y34.8497
G01 X-41.6678 Y34.1499
G01 X-41.6678 Y33.1601
G01 X-42.0815 Y32.7465
G01 X-42.0847 Y32.7427
G01 X-42.0894 Y32.7362
G01 X-42.0998 Y32.7237
G01 X-42.1026 Y32.7195
G01 X-42.1056 Y32.7135
G01 X-42.1090 Y32.7080
G01 X-42.1115 Y32.7024
G01 X-42.1143 Y32.6941
G01 X-42.1181 Y32.6850
G01 X-42.1195 Y32.6804
G01 X-42.1230 Y32.6643
G01 X-42.1237 Y32.6532
G01 X-42.1249 Y32.6436
G01 X-42.1250 Y32.4345
G01 X-42.1246 Y32.4297
G01 X-42.1234 Y32.4218
G01 X-42.1219 Y32.4053
G01 X-42.1208 Y32.4003
G01 X-42.1188 Y32.3943
G01 X-42.1172 Y32.3875
G01 X-42.1155 Y32.3830
G01 X-42.1112 Y32.3744
G01 X-42.1071 Y32.3642
G01 X-42.0983 Y32.3499
G01 X-42.0946 Y32.3450
G01 X-42.0889 Y32.3388
G01 X-42.0839 Y32.3322
G01 X-42.0807 Y32.3285
G01 X-38.1098 Y28.3578
G01 X-37.9975 Y28.0867
G01 X-37.9975 Y21.4842
G01 X-37.9971 Y21.4794
G01 X-37.9959 Y21.4715
G01 X-37.9944 Y21.4550
G01 X-37.9933 Y21.4500
G01 X-37.9913 Y21.4440
G01 X-37.9897 Y21.4372
G01 X-37.9875 Y21.4316
G01 X-37.9838 Y21.4242
G01 X-37.9796 Y21.4139
G01 X-37.9693 Y21.3974
G01 X-37.9614 Y21.3885
G01 X-37.9564 Y21.3819
G01 X-37.9532 Y21.3782
G01 X-37.8299 Y21.2550
G01 X-37.6673 Y20.8626
G01 X-37.6673 Y18.5074
G01 X-37.8299 Y18.1150
G01 X-38.1302 Y17.8147
G01 X-38.5226 Y17.6521
G01 X-38.9474 Y17.6521
G01 X-39.3398 Y17.8147
G01 X-39.6401 Y18.1150
G01 X-39.8027 Y18.5074
G01 X-39.8027 Y20.8626
G01 X-39.6401 Y21.2550
G01 X-39.5160 Y21.3791
G01 X-39.5128 Y21.3829
G01 X-39.5081 Y21.3894
G01 X-39.4977 Y21.4019
G01 X-39.4949 Y21.4061
G01 X-39.4874 Y21.4198
G01 X-39.4786 Y21.4429
G01 X-39.4746 Y21.4600
G01 X-39.4738 Y21.4724
G01 X-39.4726 Y21.4831
G01 X-39.4725 Y27.5718
G01 X-39.4727 Y27.5766
G01 X-39.4741 Y27.5857
G01 X-39.4756 Y27.6022
G01 X-39.4767 Y27.6072
G01 X-39.4787 Y27.6132
G01 X-39.4807 Y27.6212
G01 X-39.4825 Y27.6256
G01 X-39.4863 Y27.6331
G01 X-39.4899 Y27.6422
G01 X-39.4929 Y27.6477
G01 X-39.5013 Y27.6606
G01 X-39.5086 Y27.6687
G01 X-39.5136 Y27.6753
G01 X-39.5168 Y27.6790
G01 X-43.4877 Y31.6497
G01 X-43.6000 Y31.9208
G01 X-43.6000 Y32.6402
G01 X-43.6002 Y32.6450
G01 X-43.6016 Y32.6541
G01 X-43.6031 Y32.6706
G01 X-43.6042 Y32.6756
G01 X-43.6062 Y32.6816
G00 Z2.0000
G00 X-40.4312 Y34.5982
G01 F60.00
G01 Z-0.0700
G01 F120.00
G01 X-40.4325 Y34.6039
G01 X-40.4340 Y34.6084
G01 X-40.4388 Y34.6181
G01 X-40.4419 Y34.6260
G01 X-40.4441 Y34.6305
G01 X-40.4538 Y34.6456
G01 X-40.4611 Y34.6537
G01 X-40.4661 Y34.6603
G01 X-40.4693 Y34.6640
G01 X-41.7970 Y35.9917
G01 X-41.8015 Y35.9956
G01 X-41.8063 Y35.9991
G01 X-41.8140 Y36.0061
G01 X-41.8190 Y36.0096
G01 X-41.8278 Y36.0144
G01 X-41.8366 Y36.0201
G01 X-41.8536 Y36.0273
G01 X-41.8581 Y36.0287
G01 X-41.8660 Y36.0303
G01 X-41.8763 Y36.0334
G01 X-41.8926 Y36.0355
G01 X-41.8988 Y36.0358
G01 X-41.9080 Y36.0352
G01 X-41.9159 Y36.0354
G01 X-41.9234 Y36.0347
G01 X-41.9397 Y36.0318
G01 X-41.9497 Y36.0282
G01 X-41.9575 Y36.0262
G01 X-41.9621 Y36.0245
G01 X-41.9784 Y36.0167
G01 X-41.9879 Y36.0099
G01 X-41.9979 Y36.0035
G01 X-42.0114 Y35.9917
G01 X-42.3676 Y35.6353
G01 X-43.3574 Y35.6353
G01 X-44.0572 Y36.3351
G01 X-44.0572 Y37.3249
G01 X-43.3574 Y38.0247
G01 X-42.3676 Y38.0247
G01 X-41.9540 Y37.6110
G01 X-41.9502 Y37.6078
G01 X-41.9437 Y37.6031
G01 X-41.9302 Y37.5919
G01 X-41.9133 Y37.5824
G01 X-41.9016 Y37.5782
G01 X-41.8913 Y37.5740
G01 X-41.8767 Y37.5704
G01 X-41.8706 Y37.5693
G01 X-41.8607 Y37.5688
G01 X-41.8488 Y37.5675
G01 X-41.4458 Y37.5675
G01 X-41.1747 Y37.4552
G01 X-39.0623 Y35.3428
G01 X-38.9500 Y35.0717
G01 X-38.9500 Y32.7532
G01 X-38.9498 Y32.7484
G01 X-38.9484 Y32.7393
G01 X-38.9469 Y32.7228
G01 X-38.9458 Y32.7178
G01 X-38.9438 Y32.7118
G01 X-38.9422 Y32.7050
G01 X-38.9405 Y32.7005
G01 X-38.9362 Y32.6919
G01 X-38.9321 Y32.6817
G01 X-38.9227 Y32.6664
G01 X-38.9057 Y32.6460
G01 X-35.5698 Y29.3103
G01 X-35.4575 Y29.0392
G01 X-35.4575 Y21.4842
G01 X-35.4571 Y21.4794
G01 X-35.4559 Y21.4715
G01 X-35.4544 Y21.4550
G01 X-35.4533 Y21.4500
G01 X-35.4513 Y21.4440
G01 X-35.4497 Y21.4372
G01 X-35.4475 Y21.4316
G01 X-35.4438 Y21.4242
G01 X-35.4396 Y21.4139
G01 X-35.4293 Y21.3974
G01 X-35.4214 Y21.3885
G01 X-35.4164 Y21.3819
G01 X-35.4132 Y21.3782
G01 X-35.2899 Y21.2550
G01 X-35.1273 Y20.8626
G01 X-35.1273 Y18.5074
G01 X-35.2899 Y18.1150
G01 X-35.5902 Y17.8147
G01 X-35.9826 Y17.6521
G01 X-36.4074 Y17.6521
G01 X-36.7998 Y17.8147
G01 X-37.1001 Y18.1150
G01 X-37.2627 Y18.5074
G01 X-37.2627 Y20.8626
G01 X-37.1001 Y21.2550
G01 X-36.9760 Y21.3791
G01 X-36.9728 Y21.3829
G01 X-36.9681 Y21.3894
G01 X-36.9577 Y21.4019
G01 X-36.9549 Y21.4061
G01 X-36.9474 Y21.4198
G01 X-36.9386 Y21.4429
G01 X-36.9345 Y21.4613
G01 X-36.9338 Y21.4724
G01 X-36.9325 Y21.4843
G01 X-36.9325 Y28.5243
G01 X-36.9353 Y28.5521
G01 X-36.9367 Y28.5597
G01 X-36.9415 Y28.5759
G01 X-36.9463 Y28.5856
G01 X-36.9494 Y28.5935
G01 X-36.9516 Y28.5980
G01 X-36.9613 Y28.6131
G01 X-36.9686 Y28.6212
G01 X-36.9736 Y28.6278
G01 X-36.9768 Y28.6315
G01 X-40.3127 Y31.9672
G01 X-40.4250 Y32.2383
G01 X-40.4250 Y34.5568
G01 X-40.4252 Y34.5616
G01 X-40.4266 Y34.5707
G01 X-40.4281 Y34.5872
G01 X-40.4292 Y34.5922
G01 X-40.4312 Y34.5982
G00 Z2.0000
G00 X-37.9576 Y32.8497
G01 F60.00
G01 Z-0.0700
G01 F120.00
G01 X-37.3178 Y32.2099
G01 X-37.3122 Y32.2051
G01 X-37.3049 Y32.2006
G01 X-37.2992 Y32.1982
G01 X-37.2946 Y32.1968
G01 X-37.2885 Y32.1957
G01 X-37.2824 Y32.1953
G01 X-36.6570 Y32.1953
G01 X-34.3403 Y29.8786
G01 X-34.3403 Y21.3983
G01 X-34.3741 Y21.3675
G01 X-34.4409 Y21.2936
G01 X-34.4995 Y21.2145
G01 X-34.5513 Y21.1279
G01 X-34.5934 Y21.0389
G01 X-34.6269 Y20.9450
G01 X-34.6512 Y20.8483
G01 X-34.6657 Y20.7510
G01 X-34.6707 Y20.6502
G01 X-34.6707 Y18.7198
G01 X-34.6659 Y18.6215
G01 X-34.6512 Y18.5217
G01 X-34.6269 Y18.4250
G01 X-34.5934 Y18.3311
G01 X-34.5495 Y18.2389
G01 X-34.4995 Y18.1555
G01 X-34.4416 Y18.0774
G01 X-34.3749 Y18.0034
G01 X-34.2993 Y17.9347
G01 X-34.2193 Y17.8753
G01 X-34.1338 Y17.8240
G01 X-34.0414 Y17.7805
G01 X-33.9498 Y17.7479
G01 X-33.8555 Y17.7242
G01 X-33.7570 Y17.7093
G01 X-33.6550 Y17.7041
G01 X-33.5554 Y17.7090
G01 X-33.4569 Y17.7236
G01 X-33.3602 Y17.7479
G01 X-33.2641 Y17.7824
G01 X-33.1762 Y17.8240
G01 X-33.0907 Y17.8753
G01 X-33.0107 Y17.9347
G01 X-32.9386 Y17.9999
G01 X-32.8684 Y18.0774
G01 X-32.8105 Y18.1555
G01 X-32.7592 Y18.2410
G01 X-32.7166 Y18.3311
G01 X-32.6838 Y18.4226
G01 X-32.6584 Y18.5241
G01 X-32.6442 Y18.6202
G01 X-32.6393 Y18.7186
G01 X-32.6393 Y20.6502
G01 X-32.6443 Y20.7510
G01 X-32.6588 Y20.8483
G01 X-32.6831 Y20.9450
G01 X-32.7166 Y21.0389
G01 X-32.7587 Y21.1279
G01 X-32.8105 Y21.2145
G01 X-32.8691 Y21.2936
G01 X-32.9359 Y21.3675
G01 X-32.9697 Y21.3983
G01 X-32.9697 Y30.1625
G01 X-32.9730 Y30.2297
G01 X-32.9826 Y30.2950
G01 X-33.0000 Y30.3638
G01 X-33.0218 Y30.4248
G01 X-33.0506 Y30.4856
G01 X-33.0866 Y30.5452
G01 X-33.1252 Y30.5973
G01 X-33.1696 Y30.6462
G01 X-35.6878 Y33.1645
G01 X-35.6878 Y33.7899
G01 X-35.6883 Y33.7972
G01 X-35.6896 Y33.8032
G01 X-35.6921 Y33.8102
G01 X-35.6949 Y33.8156
G01 X-35.6984 Y33.8207
G01 X-35.7024 Y33.8253
G01 X-36.3449 Y34.4676
G01 X-36.3508 Y34.4719
G01 X-36.3573 Y34.4754
G01 X-36.3654 Y34.4782
G01 X-36.3727 Y34.4795
G01 X-36.4622 Y34.4797
G01 X-36.4622 Y42.5450
G01 X-36.4656 Y42.6134
G01 X-36.4759 Y42.6811
G01 X-36.4917 Y42.7439
G01 X-36.5135 Y42.8050
G01 X-36.5431 Y42.8681
G01 X-36.5770 Y42.9247
G01 X-36.6177 Y42.9798
G01 X-36.6621 Y43.0287
G01 X-36.8431 Y43.2097
G01 X-36.8431 Y44.0690
G01 X-36.8475 Y44.1599
G01 X-36.8611 Y44.2523
G01 X-36.8835 Y44.3417
G01 X-36.9146 Y44.4285
G01 X-36.9540 Y44.5119
G01 X-37.0028 Y44.5929
G01 X-37.0563 Y44.6650
G01 X-37.1165 Y44.7315
G01 X-37.1865 Y44.7952
G01 X-37.2626 Y44.8514
G01 X-37.3396 Y44.8975
G01 X-37.4207 Y44.9359
G01 X-37.5098 Y44.9680
G01 X-37.6016 Y44.9908
G01 X-37.6904 Y45.0039
G01 X-37.7813 Y45.0084
G01 X-37.8746 Y45.0039
G01 X-37.9658 Y44.9904
G01 X-38.0552 Y44.9680
G01 X-38.1420 Y44.9369
G01 X-38.2254 Y44.8975
G01 X-38.3044 Y44.8501
G01 X-38.3785 Y44.7952
G01 X-38.4468 Y44.7333
G01 X-38.5087 Y44.6650
G01 X-38.5636 Y44.5909
G01 X-38.6110 Y44.5119
G01 X-38.6504 Y44.4285
G01 X-38.6815 Y44.3417
G01 X-38.7039 Y44.2523
G01 X-38.7174 Y44.1611
G01 X-38.7219 Y44.0702
G01 X-38.7219 Y42.2898
G01 X-38.7174 Y42.1989
G01 X-38.7043 Y42.1101
G01 X-38.6811 Y42.0171
G01 X-38.6504 Y41.9315
G01 X-38.6121 Y41.8503
G01 X-38.5636 Y41.7691
G01 X-38.5087 Y41.6950
G01 X-38.4485 Y41.6285
G01 X-38.3775 Y41.5640
G01 X-38.3044 Y41.5099
G01 X-38.2275 Y41.4637
G01 X-38.1409 Y41.4226
G01 X-38.0552 Y41.3920
G01 X-37.9670 Y41.3699
G01 X-37.8758 Y41.3562
G01 X-37.8328 Y41.3540
G01 X-37.8328 Y33.9500
G01 X-37.9592 Y33.8235
G01 X-37.9638 Y33.8177
G01 X-37.9674 Y33.8113
G01 X-37.9700 Y33.8044
G01 X-37.9718 Y33.7960
G01 X-37.9722 Y33.7899
G01 X-37.9722 Y32.8839
G01 X-37.9710 Y32.8741
G01 X-37.9679 Y32.8648
G01 X-37.9631 Y32.8563
G01 X-37.9576 Y32.8497
G00 Z2.0000
G00 X-51.6221 Y38.0309
G01 F60.00
G01 Z-0.0700
G01 F120.00
G01 X-51.6164 Y38.0322
G01 X-51.6119 Y38.0337
G01 X-51.6022 Y38.0385
G01 X-51.5943 Y38.0416
G01 X-51.5898 Y38.0438
G01 X-51.5747 Y38.0535
G01 X-51.5666 Y38.0608
G01 X-51.5600 Y38.0658
G01 X-51.5563 Y38.0690
G01 X-48.7642 Y40.8612
G01 X-48.7482 Y40.8801
G01 X-48.7456 Y40.8842
G01 X-48.7414 Y40.8921
G01 X-48.7381 Y40.8968
G01 X-48.7352 Y40.9020
G01 X-48.7283 Y40.9186
G01 X-48.7255 Y40.9302
G01 X-48.7230 Y40.9380
G01 X-48.7218 Y40.9442
G01 X-48.7200 Y40.9606
G01 X-48.7206 Y40.9722
G01 X-48.7204 Y40.9813
G01 X-48.7210 Y40.9873
G01 X-48.7223 Y40.9933
G01 X-48.7237 Y41.0028
G01 X-48.7276 Y41.0139
G01 X-48.7304 Y41.0240
G01 X-48.7390 Y41.0421
G01 X-48.7458 Y41.0519
G01 X-48.7515 Y41.0611
G01 X-48.7633 Y41.0746
G01 X-48.7830 Y41.0944
G01 X-48.9340 Y41.4588
G01 X-48.9340 Y43.6313
G01 X-48.7830 Y43.9957
G01 X-48.5042 Y44.2745
G01 X-48.1398 Y44.4255
G01 X-47.7452 Y44.4255
G01 X-47.3808 Y44.2745
G01 X-47.1020 Y43.9957
G01 X-46.9510 Y43.6313
G01 X-46.9510 Y41.4587
G01 X-47.1020 Y41.0943
G01 X-47.1615 Y41.0348
G01 X-47.1646 Y41.0312
G01 X-47.1693 Y41.0247
G01 X-47.1784 Y41.0139
G01 X-47.1826 Y41.0077
G01 X-47.1855 Y41.0021
G01 X-47.1897 Y40.9951
G01 X-47.1989 Y40.9710
G01 X-47.2030 Y40.9528
G01 X-47.2037 Y40.9415
G01 X-47.2050 Y40.9298
G01 X-47.2050 Y40.4933
G01 X-47.3173 Y40.2222
G01 X-50.5160 Y37.0234
G01 X-50.5222 Y37.0150
G01 X-50.5338 Y37.0008
G01 X-50.5414 Y36.9876
G01 X-50.5439 Y36.9822
G01 X-50.5471 Y36.9729
G01 X-50.5513 Y36.9626
G01 X-50.5552 Y36.9470
G01 X-50.5560 Y36.9419
G01 X-50.5565 Y36.9319
G01 X-50.5577 Y36.9225
G01 X-50.5578 Y36.3351
G01 X-51.2576 Y35.6353
G01 X-52.2474 Y35.6353
G01 X-52.9472 Y36.3351
G01 X-52.9472 Y37.3249
G01 X-52.2474 Y38.0247
G01 X-51.6635 Y38.0247
G01 X-51.6587 Y38.0249
G01 X-51.6496 Y38.0263
G01 X-51.6331 Y38.0278
G01 X-51.6281 Y38.0289
G01 X-51.6221 Y38.0309
G00 Z2.0000
G00 X-52.8801 Y36.3422
G01 F60.00
G01 Z-0.0700
G01 F120.00
G01 X-52.2403 Y35.7024
G01 X-52.2327 Y35.6962
G01 X-52.2240 Y35.6916
G01 X-52.2147 Y35.6888
G01 X-52.2049 Y35.6878
G01 X-51.3001 Y35.6878
G01 X-51.2928 Y35.6883
G01 X-51.2844 Y35.6903
G01 X-51.2776 Y35.6931
G01 X-51.2713 Y35.6969
G01 X-51.2647 Y35.7024
G01 X-50.6249 Y36.3422
G01 X-50.6201 Y36.3478
G01 X-50.6156 Y36.3551
G01 X-50.6132 Y36.3608
G01 X-50.6115 Y36.3666
G01 X-50.6107 Y36.3715
G01 X-50.6103 Y36.3776
G01 X-50.6103 Y37.0030
G01 X-47.4579 Y40.1554
G01 X-47.4127 Y40.2052
G01 X-47.3734 Y40.2582
G01 X-47.3381 Y40.3169
G01 X-47.3093 Y40.3777
G01 X-47.2867 Y40.4411
G01 X-47.2699 Y40.5087
G01 X-47.2605 Y40.5728
G01 X-47.2572 Y40.6388
G01 X-47.2572 Y41.0148
G01 X-47.2163 Y41.0600
G01 X-47.1607 Y41.1351
G01 X-47.1140 Y41.2131
G01 X-47.0750 Y41.2954
G01 X-47.0429 Y41.3857
G01 X-47.0211 Y41.4727
G01 X-47.0077 Y41.5627
G01 X-47.0031 Y41.6560
G01 X-47.0031 Y43.4340
G01 X-47.0076 Y43.5261
G01 X-47.0216 Y43.6197
G01 X-47.0435 Y43.7067
G01 X-47.0737 Y43.7912
G01 X-47.1140 Y43.8769
G01 X-47.1614 Y43.9559
G01 X-47.2179 Y44.0318
G01 X-47.2782 Y44.0983
G01 X-47.3447 Y44.1586
G01 X-47.4196 Y44.2144
G01 X-47.4996 Y44.2625
G01 X-47.5830 Y44.3019
G01 X-47.6698 Y44.3330
G01 X-47.7592 Y44.3554
G01 X-47.8504 Y44.3689
G01 X-47.9425 Y44.3734
G01 X-48.0346 Y44.3689
G01 X-48.1258 Y44.3554
G01 X-48.2152 Y44.3330
G01 X-48.3020 Y44.3019
G01 X-48.3854 Y44.2625
G01 X-48.4644 Y44.2151
G01 X-48.5385 Y44.1602
G01 X-48.6068 Y44.0983
G01 X-48.6687 Y44.0300
G01 X-48.7229 Y43.9569
G01 X-48.7710 Y43.8769
G01 X-48.8113 Y43.7912
G01 X-48.8415 Y43.7067
G01 X-48.8634 Y43.6197
G01 X-48.8775 Y43.5249
G01 X-48.8819 Y43.4340
G01 X-48.8819 Y41.6548
G01 X-48.8774 Y41.5639
G01 X-48.8643 Y41.4751
G01 X-48.8407 Y41.3810
G01 X-48.8104 Y41.2965
G01 X-48.7704 Y41.2121
G01 X-48.7222 Y41.1321
G01 X-48.6687 Y41.0600
G01 X-48.6278 Y41.0148
G01 X-48.6278 Y40.9239
G01 X-51.5795 Y37.9722
G01 X-52.2049 Y37.9722
G01 X-52.2110 Y37.9718
G01 X-52.2159 Y37.9710
G01 X-52.2217 Y37.9693
G01 X-52.2274 Y37.9669
G01 X-52.2347 Y37.9624
G01 X-52.2403 Y37.9576
G01 X-52.8817 Y37.3160
G01 X-52.8876 Y37.3081
G01 X-52.8913 Y37.3004
G01 X-52.8937 Y37.2922
G01 X-52.8947 Y37.2836
G01 X-52.8947 Y36.3776
G01 X-52.8937 Y36.3678
G01 X-52.8909 Y36.3585
G01 X-52.8863 Y36.3498
G01 X-52.8801 Y36.3422
G00 Z2.0000
G00 X-53.8724 Y40.7419
G01 F60.00
G01 Z-0.0700
G01 F120.00
G01 X-53.8725 Y35.6107
G01 X-53.8722 Y35.6050
G01 X-53.8713 Y35.5991
G01 X-53.8705 Y35.5861
G01 X-53.8686 Y35.5764
G01 X-53.8663 Y35.5693
G01 X-53.8646 Y35.5623
G01 X-53.8583 Y35.5465
G01 X-53.8526 Y35.5358
G01 X-53.8435 Y35.5217
G01 X-53.8393 Y35.5169
G01 X-53.8353 Y35.5112
G01 X-53.8282 Y35.5035
G01 X-52.8180 Y34.4933
G01 X-52.7981 Y34.4767
G01 X-52.7872 Y34.4706
G01 X-52.7804 Y34.4660
G01 X-52.7752 Y34.4634
G01 X-52.7591 Y34.4570
G01 X-52.7490 Y34.4547
G01 X-52.7412 Y34.4522
G01 X-52.7362 Y34.4511
G01 X-52.7187 Y34.4492
G01 X-52.7070 Y34.4498
G01 X-52.6991 Y34.4496
G01 X-52.6941 Y34.4499
G01 X-52.6753 Y34.4532
G01 X-52.6653 Y34.4568
G01 X-52.6575 Y34.4588
G01 X-52.6529 Y34.4605
G01 X-52.6366 Y34.4683
G01 X-52.6271 Y34.4751
G01 X-52.6181 Y34.4807
G01 X-52.6036 Y34.4933
G01 X-52.2474 Y34.8497
G01 X-51.2576 Y34.8497
G01 X-50.5578 Y34.1499
G01 X-50.5578 Y33.1601
G01 X-51.2576 Y32.4603
G01 X-52.2474 Y32.4603
G01 X-52.6610 Y32.8740
G01 X-52.6648 Y32.8772
G01 X-52.6713 Y32.8819
G01 X-52.6848 Y32.8931
G01 X-52.7017 Y32.9026
G01 X-52.7134 Y32.9068
G01 X-52.7237 Y32.9110
G01 X-52.7383 Y32.9146
G01 X-52.7444 Y32.9157
G01 X-52.7543 Y32.9162
G01 X-52.7662 Y32.9175
G01 X-53.1692 Y32.9175
G01 X-53.4403 Y33.0298
G01 X-55.2352 Y34.8247
G01 X-55.3475 Y35.0958
G01 X-55.3475 Y42.6917
G01 X-55.2352 Y42.9628
G01 X-55.0278 Y43.1702
G01 X-54.7567 Y43.2825
G01 X-54.1632 Y43.2826
G01 X-54.1539 Y43.2837
G01 X-54.1447 Y43.2841
G01 X-54.1397 Y43.2847
G01 X-54.1276 Y43.2881
G01 X-54.1196 Y43.2897
G01 X-54.1138 Y43.2916
G01 X-54.1083 Y43.2942
G01 X-54.0991 Y43.2978
G01 X-54.0891 Y43.3040
G01 X-54.0819 Y43.3078
G01 X-54.0768 Y43.3112
G01 X-54.0719 Y43.3155
G01 X-54.0648 Y43.3207
G01 X-54.0613 Y43.3241
G01 X-54.0562 Y43.3301
G01 X-54.0479 Y43.3383
G01 X-54.0384 Y43.3516
G01 X-54.0352 Y43.3570
G01 X-54.0317 Y43.3645
G01 X-54.0259 Y43.3750
G01 X-54.0208 Y43.3893
G01 X-54.0191 Y43.3951
G01 X-54.0177 Y43.4042
G01 X-54.0153 Y43.4143
G01 X-54.0140 Y43.4340
G01 X-54.0140 Y43.6313
G01 X-53.8630 Y43.9957
G01 X-53.5842 Y44.2745
G01 X-53.2198 Y44.4255
G01 X-52.8252 Y44.4255
G01 X-52.4608 Y44.2745
G01 X-52.1820 Y43.9957
G01 X-52.0310 Y43.6313
G01 X-52.0310 Y41.4587
G01 X-52.1820 Y41.0943
G01 X-52.4608 Y40.8155
G01 X-52.8252 Y40.6645
G01 X-53.2197 Y40.6645
G01 X-53.5841 Y40.8155
G01 X-53.6147 Y40.8460
G01 X-53.6199 Y40.8503
G01 X-53.6255 Y40.8557
G01 X-53.6306 Y40.8594
G01 X-53.6428 Y40.8668
G01 X-53.6509 Y40.8723
G01 X-53.6623 Y40.8777
G01 X-53.6679 Y40.8797
G01 X-53.6787 Y40.8826
G01 X-53.6918 Y40.8867
G01 X-53.7059 Y40.8888
G01 X-53.7205 Y40.8886
G01 X-53.7328 Y40.8890
G01 X-53.7391 Y40.8885
G01 X-53.7504 Y40.8866
G01 X-53.7623 Y40.8829
G01 X-53.7754 Y40.8794
G01 X-53.7861 Y40.8749
G01 X-53.7906 Y40.8725
G01 X-53.8008 Y40.8657
G01 X-53.8122 Y40.8589
G01 X-53.8216 Y40.8514
G01 X-53.8251 Y40.8480
G01 X-53.8331 Y40.8386
G01 X-53.8408 Y40.8306
G01 X-53.8446 Y40.8257
G01 X-53.8509 Y40.8158
G01 X-53.8565 Y40.8037
G01 X-53.8621 Y40.7930
G01 X-53.8643 Y40.7874
G01 X-53.8676 Y40.7757
G01 X-53.8694 Y40.7636
G01 X-53.8720 Y40.7505
G01 X-53.8724 Y40.7419
G00 Z2.0000
G00 X-53.8347 Y40.9510
G01 F60.00
G01 Z-0.0700
G01 F120.00
G01 X-53.8347 Y41.0248
G01 X-53.8183 Y41.0029
G01 X-53.7880 Y40.9692
G01 X-53.8007 Y40.9658
G01 X-53.8103 Y40.9625
G01 X-53.8243 Y40.9564
G01 X-53.8347 Y40.9510
G00 Z2.0000
G00 X-55.2953 Y42.5450
G01 F60.00
G01 Z-0.0700
G01 F120.00
G01 X-55.2953 Y35.2425
G01 X-55.2920 Y35.1753
G01 X-55.2821 Y35.1088
G01 X-55.2658 Y35.0436
G01 X-55.2432 Y34.9802
G01 X-55.2144 Y34.9194
G01 X-55.1798 Y34.8618
G01 X-55.1398 Y34.8077
G01 X-55.0954 Y34.7588
G01 X-53.5071 Y33.1704
G01 X-53.4573 Y33.1252
G01 X-53.4022 Y33.0845
G01 X-53.3456 Y33.0506
G01 X-53.2848 Y33.0218
G01 X-53.2214 Y32.9992
G01 X-53.1538 Y32.9824
G01 X-53.0897 Y32.9730
G01 X-53.0237 Y32.9697
G01 X-52.6825 Y32.9697
G01 X-52.2403 Y32.5274
G01 X-52.2347 Y32.5226
G01 X-52.2295 Y32.5193
G01 X-52.2240 Y32.5166
G01 X-52.2182 Y32.5146
G01 X-52.2122 Y32.5133
G01 X-52.2049 Y32.5128
G01 X-51.3001 Y32.5128
G01 X-51.2903 Y32.5138
G01 X-51.2810 Y32.5166
G01 X-51.2723 Y32.5212
G01 X-51.2647 Y32.5274
G01 X-50.6249 Y33.1672
G01 X-50.6187 Y33.1748
G01 X-50.6141 Y33.1835
G01 X-50.6113 Y33.1928
G01 X-50.6103 Y33.2026
G01 X-50.6103 Y34.1074
G01 X-50.6113 Y34.1172
G01 X-50.6137 Y34.1254
G01 X-50.6174 Y34.1331
G01 X-50.6224 Y34.1401
G01 X-51.2647 Y34.7826
G01 X-51.2713 Y34.7881
G01 X-51.2787 Y34.7924
G01 X-51.2868 Y34.7954
G01 X-51.2952 Y34.7970
G01 X-52.2049 Y34.7972
G01 X-52.2122 Y34.7967
G01 X-52.2194 Y34.7950
G01 X-52.2252 Y34.7929
G01 X-52.2306 Y34.7901
G01 X-52.2357 Y34.7866
G01 X-52.2403 Y34.7826
G01 X-52.6825 Y34.3403
G01 X-52.7386 Y34.3403
G01 X-53.9247 Y35.5264
G01 X-53.9247 Y41.3958
G01 X-53.9207 Y41.3810
G01 X-53.8904 Y41.2965
G01 X-53.8498 Y41.2110
G01 X-53.8036 Y41.1341
G01 X-53.7502 Y41.0620
G01 X-53.6850 Y40.9900
G01 X-53.6185 Y40.9298
G01 X-53.5464 Y40.8763
G01 X-53.4654 Y40.8275
G01 X-53.3820 Y40.7881
G01 X-53.2975 Y40.7578
G01 X-53.2034 Y40.7342
G01 X-53.1146 Y40.7211
G01 X-53.0250 Y40.7166
G01 X-52.9304 Y40.7211
G01 X-52.8368 Y40.7351
G01 X-52.7498 Y40.7570
G01 X-52.6630 Y40.7881
G01 X-52.5796 Y40.8275
G01 X-52.5026 Y40.8736
G01 X-52.4265 Y40.9298
G01 X-52.3565 Y40.9935
G01 X-52.2963 Y41.0600
G01 X-52.2428 Y41.1321
G01 X-52.1929 Y41.2153
G01 X-52.1546 Y41.2965
G01 X-52.1235 Y41.3833
G01 X-52.1007 Y41.4751
G01 X-52.0876 Y41.5639
G01 X-52.0831 Y41.6548
G01 X-52.0831 Y43.4352
G01 X-52.0876 Y43.5261
G01 X-52.1011 Y43.6173
G01 X-52.1235 Y43.7067
G01 X-52.1546 Y43.7935
G01 X-52.1940 Y43.8769
G01 X-52.2414 Y43.9559
G01 X-52.2963 Y44.0300
G01 X-52.3582 Y44.0983
G01 X-52.4265 Y44.1602
G01 X-52.5006 Y44.2151
G01 X-52.5796 Y44.2625
G01 X-52.6630 Y44.3019
G01 X-52.7498 Y44.3330
G01 X-52.8392 Y44.3554
G01 X-52.9304 Y44.3689
G01 X-53.0225 Y44.3734
G01 X-53.1146 Y44.3689
G01 X-53.2058 Y44.3554
G01 X-53.2952 Y44.3330
G01 X-53.3809 Y44.3024
G01 X-53.4654 Y44.2625
G01 X-53.5424 Y44.2164
G01 X-53.6203 Y44.1586
G01 X-53.6868 Y44.0983
G01 X-53.7487 Y44.0300
G01 X-53.8036 Y43.9559
G01 X-53.8510 Y43.8769
G01 X-53.8904 Y43.7935
G01 X-53.9207 Y43.7090
G01 X-53.9441 Y43.6161
G01 X-53.9574 Y43.5261
G01 X-53.9619 Y43.4365
G01 X-53.9619 Y43.2303
G01 X-54.6100 Y43.2303
G01 X-54.6760 Y43.2271
G01 X-54.7437 Y43.2171
G01 X-54.8089 Y43.2008
G01 X-54.8723 Y43.1782
G01 X-54.9320 Y43.1500
G01 X-54.9927 Y43.1134
G01 X-55.0448 Y43.0748
G01 X-55.0928 Y43.0313
G01 X-55.1398 Y42.9798
G01 X-55.1811 Y42.9237
G01 X-55.2144 Y42.8681
G01 X-55.2422 Y42.8095
G01 X-55.2658 Y42.7439
G01 X-55.2821 Y42.6787
G01 X-55.2917 Y42.6146
G01 X-55.2953 Y42.5450
G00 Z2.0000
G00 X-51.4219 Y42.3451
G01 F60.00
G01 Z-0.0700
G01 F120.00
G01 X-51.4219 Y41.6560
G01 X-51.4175 Y41.5651
G01 X-51.4034 Y41.4703
G01 X-51.3815 Y41.3833
G01 X-51.3504 Y41.2965
G01 X-51.3098 Y41.2110
G01 X-51.2636 Y41.1341
G01 X-51.2102 Y41.0620
G01 X-51.1468 Y40.9917
G01 X-51.0785 Y40.9298
G01 X-51.0044 Y40.8749
G01 X-50.9232 Y40.8264
G01 X-50.8397 Y40.7872
G01 X-50.7552 Y40.7570
G01 X-50.6824 Y40.7387
G01 X-50.6824 Y40.5810
G01 X-50.7385 Y40.5899
G01 X-50.9021 Y40.6430
G01 X-51.0554 Y40.7212
G01 X-51.1946 Y40.8222
G01 X-51.3163 Y40.9439
G01 X-51.4173 Y41.0831
G01 X-51.4955 Y41.2364
G01 X-51.5486 Y41.4000
G01 X-51.5756 Y41.5699
G01 X-51.5756 Y42.3451
G01 X-51.4219 Y42.3451
G00 Z2.0000
G00 X-51.1678 Y44.2872
G01 F60.00
G01 Z-0.0700
G01 F120.00
G01 X-51.1678 Y44.0752
G01 X-51.2087 Y44.0300
G01 X-51.2629 Y43.9569
G01 X-51.3116 Y43.8758
G01 X-51.3504 Y43.7935
G01 X-51.3807 Y43.7090
G01 X-51.4041 Y43.6161
G01 X-51.4174 Y43.5261
G01 X-51.4219 Y43.4352
G01 X-51.4219 Y42.7449
G01 X-51.5756 Y42.7449
G01 X-51.5756 Y43.5201
G01 X-51.5486 Y43.6900
G01 X-51.4955 Y43.8536
G01 X-51.4173 Y44.0069
G01 X-51.3163 Y44.1461
G01 X-51.1946 Y44.2678
G01 X-51.1678 Y44.2872
G00 Z2.0000
G00 X-49.3894 Y42.7449
G01 F60.00
G01 Z-0.0700
G01 F120.00
G01 X-49.5431 Y42.7449
G01 X-49.5431 Y43.4352
G01 X-49.5476 Y43.5261
G01 X-49.5609 Y43.6161
G01 X-49.5843 Y43.7090
G01 X-49.6146 Y43.7935
G01 X-49.6534 Y43.8758
G01 X-49.7021 Y43.9569
G01 X-49.7563 Y44.0300
G01 X-49.7972 Y44.0752
G01 X-49.7972 Y44.2872
G01 X-49.7704 Y44.2678
G01 X-49.6487 Y44.1461
G01 X-49.5477 Y44.0069
G01 X-49.4695 Y43.8536
G01 X-49.4164 Y43.6900
G01 X-49.3894 Y43.5201
G01 X-49.3894 Y42.7449
G00 Z2.0000
G00 X-50.2826 Y40.7387
G01 F60.00
G01 Z-0.0700
G01 F120.00
G01 X-50.2098 Y40.7570
G01 X-50.1253 Y40.7872
G01 X-50.0418 Y40.8264
G01 X-49.9606 Y40.8749
G01 X-49.8885 Y40.9283
G01 X-49.8182 Y40.9917
G01 X-49.7563 Y41.0600
G01 X-49.7014 Y41.1341
G01 X-49.6546 Y41.2121
G01 X-49.6146 Y41.2965
G01 X-49.5835 Y41.3833
G01 X-49.5611 Y41.4727
G01 X-49.5476 Y41.5639
G01 X-49.5431 Y41.6560
G01 X-49.5431 Y42.3451
G01 X-49.3894 Y42.3451
G01 X-49.3894 Y41.5699
G01 X-49.4164 Y41.4000
G01 X-49.4695 Y41.2364
G01 X-49.5477 Y41.0831
G01 X-49.6487 Y40.9439
G01 X-49.7704 Y40.8222
G01 X-49.9096 Y40.7212
G01 X-50.0629 Y40.6430
G01 X-50.2265 Y40.5899
G01 X-50.2826 Y40.5810
G01 X-50.2826 Y40.7387
G00 Z2.0000
G00 X-62.3387 Y41.2875
G01 F60.00
G01 Z-0.0700
G01 F120.00
G01 X-62.3400 Y41.2932
G01 X-62.3415 Y41.2977
G01 X-62.3463 Y41.3074
G01 X-62.3499 Y41.3165
G01 X-62.3523 Y41.3209
G01 X-62.3613 Y41.3349
G01 X-62.3687 Y41.3431
G01 X-62.3760 Y41.3523
G01 X-62.4355 Y41.4118
G01 X-62.5865 Y41.7762
G01 X-62.5865 Y43.9488
G01 X-62.4355 Y44.3132
G01 X-62.1567 Y44.5920
G01 X-61.7923 Y44.7430
G01 X-61.3977 Y44.7430
G01 X-61.0333 Y44.5920
G01 X-60.7545 Y44.3132
G01 X-60.6035 Y43.9488
G01 X-60.6035 Y41.7762
G01 X-60.7545 Y41.4118
G01 X-60.8140 Y41.3523
G01 X-60.8171 Y41.3487
G01 X-60.8218 Y41.3422
G01 X-60.8309 Y41.3314
G01 X-60.8345 Y41.3263
G01 X-60.8432 Y41.3104
G01 X-60.8468 Y41.3000
G01 X-60.8514 Y41.2885
G01 X-60.8553 Y41.2716
G01 X-60.8562 Y41.2590
G01 X-60.8574 Y41.2484
G01 X-60.8575 Y38.1507
G01 X-60.8573 Y38.1459
G01 X-60.8559 Y38.1368
G01 X-60.8544 Y38.1203
G01 X-60.8533 Y38.1153
G01 X-60.8513 Y38.1093
G01 X-60.8497 Y38.1025
G01 X-60.8475 Y38.0969
G01 X-60.8437 Y38.0894
G01 X-60.8406 Y38.0815
G01 X-60.8377 Y38.0759
G01 X-60.8287 Y38.0619
G01 X-60.8225 Y38.0549
G01 X-60.8184 Y38.0492
G01 X-60.8132 Y38.0435
G01 X-58.7473 Y35.9778
G01 X-58.6350 Y35.7067
G01 X-58.6350 Y29.4640
G01 X-58.6347 Y29.4583
G01 X-58.6338 Y29.4524
G01 X-58.6333 Y29.4419
G01 X-58.6323 Y29.4358
G01 X-58.6294 Y29.4261
G01 X-58.6272 Y29.4158
G01 X-58.6203 Y29.3987
G01 X-58.6179 Y29.3943
G01 X-58.6135 Y29.3876
G01 X-58.6084 Y29.3783
G01 X-58.5983 Y29.3651
G01 X-58.5942 Y29.3606
G01 X-58.5874 Y29.3547
G01 X-58.5819 Y29.3489
G01 X-58.5773 Y29.3449
G01 X-58.5710 Y29.3409
G01 X-58.5659 Y29.3369
G01 X-58.5605 Y29.3337
G01 X-58.5530 Y29.3302
G01 X-58.5425 Y29.3244
G01 X-58.5282 Y29.3193
G01 X-58.5224 Y29.3176
G01 X-58.5133 Y29.3162
G01 X-58.5032 Y29.3138
G01 X-58.4835 Y29.3125
G01 X-45.2558 Y29.3125
G01 X-44.9847 Y29.2002
G01 X-40.6498 Y24.8653
G01 X-40.5375 Y24.5942
G01 X-40.5375 Y21.4854
G01 X-40.5371 Y21.4794
G01 X-40.5359 Y21.4715
G01 X-40.5342 Y21.4538
G01 X-40.5293 Y21.4360
G01 X-40.5275 Y21.4316
G01 X-40.5238 Y21.4242
G01 X-40.5190 Y21.4128
G01 X-40.5093 Y21.3974
G01 X-40.5014 Y21.3885
G01 X-40.4964 Y21.3819
G01 X-40.4932 Y21.3782
G01 X-40.3699 Y21.2550
G01 X-40.2073 Y20.8626
G01 X-40.2073 Y18.5074
G01 X-40.3699 Y18.1150
G01 X-40.4940 Y17.9909
G01 X-40.4972 Y17.9871
G01 X-40.5019 Y17.9806
G01 X-40.5123 Y17.9681
G01 X-40.5151 Y17.9639
G01 X-40.5226 Y17.9502
G01 X-40.5314 Y17.9271
G01 X-40.5354 Y17.9100
G01 X-40.5362 Y17.8976
G01 X-40.5374 Y17.8869
G01 X-40.5374 Y16.1267
G01 X-40.5363 Y16.1174
G01 X-40.5358 Y16.1069
G01 X-40.5348 Y16.1008
G01 X-40.5319 Y16.0911
G01 X-40.5306 Y16.0843
G01 X-40.5293 Y16.0796
G01 X-40.5258 Y16.0718
G01 X-40.5238 Y16.0659
G01 X-40.5211 Y16.0604
G01 X-40.5160 Y16.0526
G01 X-40.5102 Y16.0423
G01 X-40.4984 Y16.0274
G01 X-40.4899 Y16.0197
G01 X-40.4817 Y16.0114
G01 X-40.4684 Y16.0019
G01 X-40.4641 Y15.9993
G01 X-40.4555 Y15.9952
G01 X-40.4450 Y15.9894
G01 X-40.4272 Y15.9832
G01 X-40.4158 Y15.9812
G01 X-40.4045 Y15.9786
G01 X-40.3860 Y15.9775
G01 X-17.0803 Y15.9775
G01 X-17.0722 Y15.9782
G01 X-17.0659 Y15.9782
G01 X-17.0596 Y15.9790
G01 X-17.0447 Y15.9827
G01 X-17.0340 Y15.9848
G01 X-17.0241 Y15.9883
G01 X-17.0185 Y15.9908
G01 X-17.0079 Y15.9970
G01 X-16.9959 Y16.0033
G01 X-16.9872 Y16.0095
G01 X-16.9827 Y16.0133
G01 X-16.9741 Y16.0222
G01 X-16.9652 Y16.0307
G01 X-16.9619 Y16.0345
G01 X-16.9550 Y16.0440
G01 X-16.9487 Y16.0558
G01 X-16.9424 Y16.0665
G01 X-16.9399 Y16.0720
G01 X-16.9363 Y16.0820
G01 X-16.9335 Y16.0954
G01 X-16.9305 Y16.1075
G01 X-16.9297 Y16.1124
G01 X-16.9290 Y16.1234
G01 X-16.9304 Y16.1507
G01 X-16.9327 Y16.1633
G01 X-16.9425 Y16.1918
G01 X-16.9468 Y16.2007
G01 X-16.9500 Y16.2062
G01 X-16.9575 Y16.2161
G01 X-16.9651 Y16.2273
G01 X-16.9723 Y16.2353
G01 X-17.0697 Y16.3326
G01 X-17.0697 Y17.3224
G01 X-16.3699 Y18.0222
G01 X-15.3801 Y18.0222
G01 X-14.6803 Y17.3224
G01 X-14.6803 Y16.3326
G01 X-15.0940 Y15.9190
G01 X-15.1037 Y15.9079
G01 X-15.1079 Y15.9016
G01 X-15.1132 Y15.8950
G01 X-15.1227 Y15.8781
G01 X-15.1310 Y15.8563
G01 X-15.1346 Y15.8417
G01 X-15.1357 Y15.8356
G01 X-15.1362 Y15.8257
G01 X-15.1375 Y15.8138
G01 X-15.1375 Y15.4108
G01 X-15.2498 Y15.1397
G01 X-15.7747 Y14.6148
G01 X-16.0458 Y14.5025
G01 X-41.4217 Y14.5025
G01 X-41.6928 Y14.6148
G01 X-41.9002 Y14.8222
G01 X-42.0125 Y15.0933
G01 X-42.0127 Y17.8894
G01 X-42.0141 Y17.8985
G01 X-42.0158 Y17.9162
G01 X-42.0207 Y17.9340
G01 X-42.0225 Y17.9384
G01 X-42.0262 Y17.9458
G01 X-42.0310 Y17.9572
G01 X-42.0407 Y17.9726
G01 X-42.0486 Y17.9815
G01 X-42.0536 Y17.9881
G01 X-42.0568 Y17.9918
G01 X-42.1801 Y18.1150
G01 X-42.3427 Y18.5074
G01 X-42.3427 Y20.8626
G01 X-42.1801 Y21.2550
G01 X-42.0560 Y21.3791
G01 X-42.0528 Y21.3829
G01 X-42.0481 Y21.3894
G01 X-42.0377 Y21.4019
G01 X-42.0349 Y21.4061
G01 X-42.0274 Y21.4198
G01 X-42.0186 Y21.4429
G01 X-42.0146 Y21.4600
G01 X-42.0138 Y21.4724
G01 X-42.0126 Y21.4820
G01 X-42.0125 Y24.0793
G01 X-42.0127 Y24.0841
G01 X-42.0141 Y24.0932
G01 X-42.0156 Y24.1097
G01 X-42.0200 Y24.1264
G01 X-42.0225 Y24.1331
G01 X-42.0263 Y24.1406
G01 X-42.0299 Y24.1497
G01 X-42.0323 Y24.1541
G01 X-42.0413 Y24.1681
G01 X-42.0486 Y24.1762
G01 X-42.0536 Y24.1828
G01 X-42.0568 Y24.1865
G01 X-45.6635 Y27.7932
G01 X-45.6672 Y27.7965
G01 X-45.6747 Y27.8019
G01 X-45.6870 Y27.8122
G01 X-45.6919 Y27.8154
G01 X-45.7053 Y27.8227
G01 X-45.7283 Y27.8314
G01 X-45.7465 Y27.8355
G01 X-45.7578 Y27.8362
G01 X-45.7661 Y27.8373
G01 X-45.7707 Y27.8375
G01 X-59.5192 Y27.8375
G01 X-59.7903 Y27.9498
G01 X-59.9977 Y28.1572
G01 X-60.1100 Y28.4283
G01 X-60.1100 Y35.1918
G01 X-60.1102 Y35.1966
G01 X-60.1116 Y35.2057
G01 X-60.1133 Y35.2234
G01 X-60.1186 Y35.2423
G01 X-60.1238 Y35.2531
G01 X-60.1285 Y35.2644
G01 X-60.1388 Y35.2806
G01 X-60.1461 Y35.2887
G01 X-60.1511 Y35.2953
G01 X-60.1543 Y35.2990
G01 X-62.2202 Y37.3647
G01 X-62.3325 Y37.6358
G01 X-62.3325 Y41.2461
G01 X-62.3327 Y41.2509
G01 X-62.3341 Y41.2600
G01 X-62.3356 Y41.2765
G01 X-62.3367 Y41.2815
G01 X-62.3387 Y41.2875
G00 Z2.0000
G00 X-62.5344 Y43.7515
G01 F60.00
G01 Z-0.0700
G01 F120.00
G01 X-62.5344 Y41.9735
G01 X-62.5299 Y41.8814
G01 X-62.5164 Y41.7902
G01 X-62.4946 Y41.7032
G01 X-62.4625 Y41.6129
G01 X-62.4235 Y41.5306
G01 X-62.3768 Y41.4526
G01 X-62.3212 Y41.3775
G01 X-62.2803 Y41.3323
G01 X-62.2803 Y37.7825
G01 X-62.2767 Y37.7129
G01 X-62.2671 Y37.6488
G01 X-62.2508 Y37.5836
G01 X-62.2282 Y37.5202
G01 X-62.1982 Y37.4573
G01 X-62.1648 Y37.4018
G01 X-62.1263 Y37.3497
G01 X-62.0804 Y37.2988
G01 X-60.0578 Y35.2761
G01 X-60.0578 Y28.5738
G01 X-60.0545 Y28.5078
G01 X-60.0451 Y28.4437
G01 X-60.0283 Y28.3761
G01 X-60.0057 Y28.3127
G01 X-59.9780 Y28.2541
G01 X-59.9416 Y28.1932
G01 X-59.9007 Y28.1384
G01 X-59.8571 Y28.0904
G01 X-59.8091 Y28.0468
G01 X-59.7532 Y28.0052
G01 X-59.6956 Y27.9706
G01 X-59.6348 Y27.9418
G01 X-59.5691 Y27.9185
G01 X-59.5062 Y27.9029
G01 X-59.4421 Y27.8933
G01 X-59.3737 Y27.8897
G01 X-45.6864 Y27.8897
G01 X-41.9603 Y24.1636
G01 X-41.9603 Y21.3983
G01 X-41.9941 Y21.3675
G01 X-42.0609 Y21.2936
G01 X-42.1195 Y21.2145
G01 X-42.1713 Y21.1279
G01 X-42.2134 Y21.0389
G01 X-42.2469 Y20.9450
G01 X-42.2712 Y20.8483
G01 X-42.2857 Y20.7510
G01 X-42.2907 Y20.6502
G01 X-42.2907 Y18.7186
G01 X-42.2858 Y18.6202
G01 X-42.2712 Y18.5217
G01 X-42.2469 Y18.4250
G01 X-42.2129 Y18.3300
G01 X-42.1708 Y18.2410
G01 X-42.1188 Y18.1545
G01 X-42.0593 Y18.0745
G01 X-41.9941 Y18.0025
G01 X-41.9603 Y17.9717
G01 X-41.9603 Y15.2400
G01 X-41.9570 Y15.1728
G01 X-41.9476 Y15.1087
G01 X-41.9308 Y15.0411
G01 X-41.9082 Y14.9777
G01 X-41.8794 Y14.9169
G01 X-41.8448 Y14.8593
G01 X-41.8048 Y14.8052
G01 X-41.7596 Y14.7554
G01 X-41.7098 Y14.7102
G01 X-41.6537 Y14.6689
G01 X-41.5981 Y14.6356
G01 X-41.5395 Y14.6078
G01 X-41.4739 Y14.5842
G01 X-41.4087 Y14.5679
G01 X-41.3446 Y14.5583
G01 X-41.2750 Y14.5547
G01 X-16.1913 Y14.5547
G01 X-16.1253 Y14.5580
G01 X-16.0612 Y14.5674
G01 X-15.9936 Y14.5842
G01 X-15.9302 Y14.6068
G01 X-15.8716 Y14.6345
G01 X-15.8107 Y14.6709
G01 X-15.7577 Y14.7102
G01 X-15.7088 Y14.7546
G01 X-15.3904 Y15.0729
G01 X-15.3452 Y15.1227
G01 X-15.3039 Y15.1788
G01 X-15.2706 Y15.2344
G01 X-15.2418 Y15.2952
G01 X-15.2192 Y15.3586
G01 X-15.2024 Y15.4262
G01 X-15.1930 Y15.4903
G01 X-15.1897 Y15.5563
G01 X-15.1897 Y15.8975
G01 X-14.7474 Y16.3397
G01 X-14.7426 Y16.3453
G01 X-14.7393 Y16.3505
G01 X-14.7366 Y16.3560
G01 X-14.7346 Y16.3618
G01 X-14.7332 Y16.3690
G01 X-14.7328 Y16.3751
G01 X-14.7329 Y17.2824
G01 X-14.7340 Y17.2909
G01 X-14.7366 Y17.2990
G01 X-14.7412 Y17.3077
G01 X-14.7466 Y17.3144
G01 X-15.3872 Y17.9551
G01 X-15.3948 Y17.9613
G01 X-15.4035 Y17.9659
G01 X-15.4116 Y17.9685
G01 X-15.4214 Y17.9697
G01 X-16.3274 Y17.9697
G01 X-16.3372 Y17.9687
G01 X-16.3465 Y17.9659
G01 X-16.3552 Y17.9613
G01 X-16.3628 Y17.9551
G01 X-17.0026 Y17.3153
G01 X-17.0074 Y17.3097
G01 X-17.0107 Y17.3045
G01 X-17.0134 Y17.2990
G01 X-17.0154 Y17.2932
G01 X-17.0168 Y17.2860
G01 X-17.0172 Y17.2799
G01 X-17.0172 Y16.3751
G01 X-17.0167 Y16.3678
G01 X-17.0150 Y16.3606
G01 X-17.0129 Y16.3548
G01 X-17.0101 Y16.3494
G01 X-17.0066 Y16.3443
G01 X-17.0026 Y16.3397
G01 X-16.5881 Y15.9253
G01 X-40.5897 Y15.9253
G01 X-40.5897 Y17.9717
G01 X-40.5559 Y18.0025
G01 X-40.4891 Y18.0764
G01 X-40.4305 Y18.1555
G01 X-40.3787 Y18.2421
G01 X-40.3366 Y18.3311
G01 X-40.3031 Y18.4250
G01 X-40.2788 Y18.5217
G01 X-40.2643 Y18.6190
G01 X-40.2593 Y18.7198
G01 X-40.2593 Y20.6502
G01 X-40.2642 Y20.7498
G01 X-40.2788 Y20.8483
G01 X-40.3031 Y20.9450
G01 X-40.3371 Y21.0400
G01 X-40.3792 Y21.1290
G01 X-40.4312 Y21.2155
G01 X-40.4907 Y21.2955
G01 X-40.5559 Y21.3675
G01 X-40.5897 Y21.3983
G01 X-40.5897 Y24.4475
G01 X-40.5930 Y24.5147
G01 X-40.6024 Y24.5788
G01 X-40.6196 Y24.6476
G01 X-40.6428 Y24.7120
G01 X-40.6706 Y24.7706
G01 X-40.7039 Y24.8262
G01 X-40.7452 Y24.8823
G01 X-40.7904 Y24.9321
G01 X-44.9179 Y29.0596
G01 X-44.9677 Y29.1048
G01 X-45.0198 Y29.1434
G01 X-45.0816 Y29.1805
G01 X-45.1402 Y29.2082
G01 X-45.2036 Y29.2308
G01 X-45.2688 Y29.2471
G01 X-45.3329 Y29.2567
G01 X-45.4025 Y29.2603
G01 X-58.6872 Y29.2603
G01 X-58.6872 Y35.5600
G01 X-58.6908 Y35.6296
G01 X-58.7004 Y35.6937
G01 X-58.7160 Y35.7566
G01 X-58.7393 Y35.8223
G01 X-58.7693 Y35.8852
G01 X-58.8027 Y35.9407
G01 X-58.8412 Y35.9928
G01 X-58.8871 Y36.0437
G01 X-60.9097 Y38.0664
G01 X-60.9097 Y41.3323
G01 X-60.8688 Y41.3775
G01 X-60.8132 Y41.4526
G01 X-60.7665 Y41.5306
G01 X-60.7275 Y41.6129
G01 X-60.6954 Y41.7032
G01 X-60.6736 Y41.7902
G01 X-60.6600 Y41.8826
G01 X-60.6556 Y41.9735
G01 X-60.6556 Y43.7527
G01 X-60.6604 Y43.8460
G01 X-60.6736 Y43.9348
G01 X-60.6957 Y44.0230
G01 X-60.7271 Y44.1110
G01 X-60.7654 Y44.1922
G01 X-60.8153 Y44.2754
G01 X-60.8688 Y44.3475
G01 X-60.9307 Y44.4158
G01 X-60.9990 Y44.4777
G01 X-61.0731 Y44.5326
G01 X-61.1521 Y44.5800
G01 X-61.2355 Y44.6194
G01 X-61.3223 Y44.6505
G01 X-61.4093 Y44.6724
G01 X-61.5054 Y44.6866
G01 X-61.5950 Y44.6909
G01 X-61.6895 Y44.6861
G01 X-61.7783 Y44.6729
G01 X-61.8677 Y44.6505
G01 X-61.9545 Y44.6194
G01 X-62.0379 Y44.5800
G01 X-62.1169 Y44.5326
G01 X-62.1910 Y44.4777
G01 X-62.2593 Y44.4158
G01 X-62.3196 Y44.3493
G01 X-62.3774 Y44.2714
G01 X-62.4235 Y44.1944
G01 X-62.4638 Y44.1087
G01 X-62.4940 Y44.0242
G01 X-62.5164 Y43.9348
G01 X-62.5299 Y43.8436
G01 X-62.5344 Y43.7515
G00 Z2.0000
G00 X-65.5801 Y36.3422
G01 F60.00
G01 Z-0.0700
G01 F120.00
G01 X-64.9403 Y35.7024
G01 X-64.9327 Y35.6962
G01 X-64.9240 Y35.6916
G01 X-64.9147 Y35.6888
G01 X-64.9049 Y35.6878
G01 X-64.0001 Y35.6878
G01 X-63.9915 Y35.6885
G01 X-63.9844 Y35.6903
G01 X-63.9776 Y35.6931
G01 X-63.9712 Y35.6970
G01 X-62.5978 Y34.3236
G01 X-62.5978 Y26.6688
G01 X-62.5945 Y26.6028
G01 X-62.5841 Y26.5339
G01 X-62.5683 Y26.4711
G01 X-62.5465 Y26.4100
G01 X-62.5180 Y26.3491
G01 X-62.4823 Y26.2893
G01 X-62.4423 Y26.2352
G01 X-62.3971 Y26.1854
G01 X-62.3473 Y26.1402
G01 X-62.2932 Y26.1002
G01 X-62.2356 Y26.0656
G01 X-62.1748 Y26.0368
G01 X-62.1138 Y26.0150
G01 X-62.0438 Y25.9974
G01 X-61.9797 Y25.9880
G01 X-61.9125 Y25.9847
G01 X-48.2264 Y25.9847
G01 X-44.5003 Y22.2586
G01 X-44.5003 Y21.3983
G01 X-44.5341 Y21.3675
G01 X-44.5993 Y21.2955
G01 X-44.6588 Y21.2155
G01 X-44.7108 Y21.1290
G01 X-44.7529 Y21.0400
G01 X-44.7869 Y20.9450
G01 X-44.8112 Y20.8483
G01 X-44.8258 Y20.7498
G01 X-44.8306 Y20.6527
G01 X-44.8307 Y18.7198
G01 X-44.8259 Y18.6215
G01 X-44.8112 Y18.5217
G01 X-44.7862 Y18.4226
G01 X-44.7534 Y18.3311
G01 X-44.7119 Y18.2432
G01 X-44.6595 Y18.1555
G01 X-44.6001 Y18.0755
G01 X-44.5314 Y17.9999
G01 X-44.4574 Y17.9332
G01 X-44.3793 Y17.8753
G01 X-44.2959 Y17.8253
G01 X-44.2037 Y17.7814
G01 X-44.1098 Y17.7479
G01 X-44.0131 Y17.7236
G01 X-43.9121 Y17.7088
G01 X-43.8150 Y17.7041
G01 X-43.7179 Y17.7088
G01 X-43.6193 Y17.7232
G01 X-43.5202 Y17.7479
G01 X-43.4263 Y17.7814
G01 X-43.3341 Y17.8253
G01 X-43.2507 Y17.8753
G01 X-43.1726 Y17.9332
G01 X-43.0968 Y18.0016
G01 X-43.0299 Y18.0755
G01 X-42.9705 Y18.1555
G01 X-42.9205 Y18.2389
G01 X-42.8766 Y18.3311
G01 X-42.8424 Y18.4273
G01 X-42.8188 Y18.5217
G01 X-42.8042 Y18.6202
G01 X-42.7993 Y18.7198
G01 X-42.7994 Y20.6527
G01 X-42.8042 Y20.7498
G01 X-42.8188 Y20.8483
G01 X-42.8431 Y20.9450
G01 X-42.8771 Y21.0400
G01 X-42.9192 Y21.1290
G01 X-42.9712 Y21.2155
G01 X-43.0307 Y21.2955
G01 X-43.0959 Y21.3675
G01 X-43.1297 Y21.3983
G01 X-43.1297 Y22.5425
G01 X-43.1328 Y22.6072
G01 X-43.1429 Y22.6762
G01 X-43.1592 Y22.7414
G01 X-43.1818 Y22.8048
G01 X-43.2100 Y22.8645
G01 X-43.2466 Y22.9252
G01 X-43.2852 Y22.9773
G01 X-43.3304 Y23.0271
G01 X-47.4579 Y27.1546
G01 X-47.5077 Y27.1998
G01 X-47.5618 Y27.2398
G01 X-47.6194 Y27.2744
G01 X-47.6802 Y27.3032
G01 X-47.7412 Y27.3250
G01 X-47.8112 Y27.3426
G01 X-47.8753 Y27.3520
G01 X-47.9425 Y27.3553
G01 X-61.2272 Y27.3553
G01 X-61.2272 Y34.6075
G01 X-61.2305 Y34.6747
G01 X-61.2409 Y34.7436
G01 X-61.2567 Y34.8064
G01 X-61.2785 Y34.8675
G01 X-61.3070 Y34.9284
G01 X-61.3441 Y34.9902
G01 X-61.3827 Y35.0423
G01 X-61.4279 Y35.0921
G01 X-63.3103 Y36.9745
G01 X-63.3103 Y37.2836
G01 X-63.3108 Y37.2897
G01 X-63.3125 Y37.2969
G01 X-63.3151 Y37.3038
G01 X-63.3187 Y37.3102
G01 X-63.3249 Y37.3178
G01 X-63.9647 Y37.9576
G01 X-63.9693 Y37.9616
G01 X-63.9744 Y37.9651
G01 X-63.9798 Y37.9679
G01 X-63.9844 Y37.9697
G01 X-63.9915 Y37.9715
G01 X-64.0001 Y37.9722
G01 X-64.9049 Y37.9722
G01 X-64.9147 Y37.9712
G01 X-64.9240 Y37.9684
G01 X-64.9327 Y37.9638
G01 X-64.9403 Y37.9576
G01 X-65.5801 Y37.3178
G01 X-65.5863 Y37.3102
G01 X-65.5909 Y37.3015
G01 X-65.5937 Y37.2922
G01 X-65.5947 Y37.2836
G01 X-65.5947 Y36.3776
G01 X-65.5937 Y36.3678
G01 X-65.5909 Y36.3585
G01 X-65.5863 Y36.3498
G01 X-65.5801 Y36.3422
G00 Z2.0000
G00 X-63.9727 Y35.6159
G01 F60.00
G01 Z-0.0700
G01 F120.00
G01 X-63.9774 Y35.6189
G01 X-63.9817 Y35.6210
G01 X-64.0047 Y35.6295
G01 X-64.0218 Y35.6333
G01 X-64.0331 Y35.6340
G01 X-64.0448 Y35.6353
G01 X-64.9474 Y35.6353
G01 X-65.6472 Y36.3351
G01 X-65.6472 Y37.3249
G01 X-64.9474 Y38.0247
G01 X-63.9576 Y38.0247
G01 X-63.2578 Y37.3249
G01 X-63.2578 Y37.0585
G01 X-63.2550 Y37.0307
G01 X-63.2539 Y37.0244
G01 X-63.2496 Y37.0091
G01 X-63.2478 Y37.0047
G01 X-63.2440 Y36.9972
G01 X-63.2399 Y36.9872
G01 X-63.2296 Y36.9705
G01 X-63.2217 Y36.9616
G01 X-63.2159 Y36.9540
G01 X-61.2873 Y35.0253
G01 X-61.1750 Y34.7542
G01 X-61.1750 Y27.5590
G01 X-61.1747 Y27.5533
G01 X-61.1738 Y27.5474
G01 X-61.1733 Y27.5369
G01 X-61.1723 Y27.5308
G01 X-61.1694 Y27.5211
G01 X-61.1672 Y27.5108
G01 X-61.1603 Y27.4937
G01 X-61.1579 Y27.4893
G01 X-61.1535 Y27.4826
G01 X-61.1484 Y27.4733
G01 X-61.1383 Y27.4601
G01 X-61.1342 Y27.4556
G01 X-61.1274 Y27.4497
G01 X-61.1192 Y27.4414
G01 X-61.1027 Y27.4299
G01 X-61.0930 Y27.4252
G01 X-61.0847 Y27.4205
G01 X-61.0791 Y27.4181
G01 X-61.0647 Y27.4132
G01 X-61.0533 Y27.4112
G01 X-61.0444 Y27.4090
G01 X-61.0383 Y27.4082
G01 X-61.0319 Y27.4082
G01 X-61.0235 Y27.4075
G01 X-47.7958 Y27.4075
G01 X-47.5247 Y27.2952
G01 X-43.1898 Y22.9603
G01 X-43.0775 Y22.6892
G01 X-43.0775 Y21.4854
G01 X-43.0771 Y21.4794
G01 X-43.0759 Y21.4715
G01 X-43.0747 Y21.4576
G01 X-43.0739 Y21.4525
G01 X-43.0689 Y21.4349
G01 X-43.0638 Y21.4242
G01 X-43.0602 Y21.4151
G01 X-43.0578 Y21.4106
G01 X-43.0539 Y21.4050
G01 X-43.0514 Y21.4004
G01 X-43.0471 Y21.3946
G01 X-43.0414 Y21.3885
G01 X-43.0364 Y21.3819
G01 X-43.0332 Y21.3782
G01 X-42.9099 Y21.2550
G01 X-42.7473 Y20.8626
G01 X-42.7473 Y18.5074
G01 X-42.9099 Y18.1150
G01 X-43.2102 Y17.8147
G01 X-43.6026 Y17.6521
G01 X-44.0274 Y17.6521
G01 X-44.4198 Y17.8147
G01 X-44.7201 Y18.1150
G01 X-44.8827 Y18.5074
G01 X-44.8827 Y20.8626
G01 X-44.7201 Y21.2550
G01 X-44.5935 Y21.3819
G01 X-44.5881 Y21.3894
G01 X-44.5769 Y21.4029
G01 X-44.5680 Y21.4187
G01 X-44.5590 Y21.4418
G01 X-44.5554 Y21.4564
G01 X-44.5543 Y21.4625
G01 X-44.5538 Y21.4724
G01 X-44.5527 Y21.4808
G01 X-44.5525 Y21.4854
G01 X-44.5525 Y22.1755
G01 X-44.5529 Y22.1803
G01 X-44.5541 Y22.1882
G01 X-44.5553 Y22.2021
G01 X-44.5564 Y22.2084
G01 X-44.5611 Y22.2248
G01 X-44.5663 Y22.2356
G01 X-44.5694 Y22.2435
G01 X-44.5723 Y22.2491
G01 X-44.5806 Y22.2621
G01 X-44.5886 Y22.2712
G01 X-44.5936 Y22.2778
G01 X-44.5968 Y22.2815
G01 X-48.2035 Y25.8882
G01 X-48.2072 Y25.8915
G01 X-48.2147 Y25.8969
G01 X-48.2280 Y25.9079
G01 X-48.2421 Y25.9161
G01 X-48.2475 Y25.9186
G01 X-48.2568 Y25.9218
G01 X-48.2671 Y25.9260
G01 X-48.2827 Y25.9299
G01 X-48.2890 Y25.9308
G01 X-48.2978 Y25.9312
G01 X-48.3061 Y25.9323
G01 X-48.3107 Y25.9325
G01 X-62.0592 Y25.9325
G01 X-62.3303 Y26.0448
G01 X-62.5377 Y26.2522
G01 X-62.6500 Y26.5233
G01 X-62.6500 Y34.2393
G01 X-62.6502 Y34.2441
G01 X-62.6516 Y34.2532
G01 X-62.6531 Y34.2697
G01 X-62.6542 Y34.2747
G01 X-62.6586 Y34.2898
G01 X-62.6638 Y34.3006
G01 X-62.6685 Y34.3119
G01 X-62.6788 Y34.3281
G01 X-62.6861 Y34.3362
G01 X-62.6911 Y34.3428
G01 X-62.6943 Y34.3465
G01 X-63.9388 Y35.5910
G01 X-63.9425 Y35.5943
G01 X-63.9500 Y35.5997
G01 X-63.9623 Y35.6100
G01 X-63.9672 Y35.6132
G01 X-63.9727 Y35.6159
G00 Z2.0000
G00 X-65.8976 Y33.1672
G01 F60.00
G01 Z-0.0700
G01 F120.00
G01 X-65.4553 Y32.7250
G01 X-65.4553 Y25.7175
G01 X-65.4520 Y25.6503
G01 X-65.4421 Y25.5838
G01 X-65.4250 Y25.5162
G01 X-65.4032 Y25.4552
G01 X-65.3755 Y25.3966
G01 X-65.3398 Y25.3368
G01 X-65.2982 Y25.2809
G01 X-65.2546 Y25.2329
G01 X-64.3021 Y24.2804
G01 X-64.2523 Y24.2352
G01 X-64.2002 Y24.1966
G01 X-64.1384 Y24.1595
G01 X-64.0798 Y24.1318
G01 X-64.0164 Y24.1092
G01 X-63.9512 Y24.0929
G01 X-63.8871 Y24.0833
G01 X-63.8175 Y24.0797
G01 X-49.4964 Y24.0797
G01 X-47.0403 Y21.6236
G01 X-47.0403 Y21.3983
G01 X-47.0741 Y21.3675
G01 X-47.1393 Y21.2955
G01 X-47.1988 Y21.2155
G01 X-47.2508 Y21.1290
G01 X-47.2929 Y21.0400
G01 X-47.3269 Y20.9450
G01 X-47.3512 Y20.8483
G01 X-47.3658 Y20.7498
G01 X-47.3706 Y20.6527
G01 X-47.3707 Y18.7198
G01 X-47.3659 Y18.6215
G01 X-47.3512 Y18.5217
G01 X-47.3262 Y18.4226
G01 X-47.2934 Y18.3311
G01 X-47.2519 Y18.2432
G01 X-47.1995 Y18.1555
G01 X-47.1385 Y18.0736
G01 X-47.0732 Y18.0016
G01 X-47.0012 Y17.9363
G01 X-46.9193 Y17.8753
G01 X-46.8338 Y17.8240
G01 X-46.7437 Y17.7814
G01 X-46.6475 Y17.7472
G01 X-46.5531 Y17.7236
G01 X-46.4570 Y17.7093
G01 X-46.3550 Y17.7041
G01 X-46.2530 Y17.7093
G01 X-46.1569 Y17.7236
G01 X-46.0625 Y17.7472
G01 X-45.9663 Y17.7814
G01 X-45.8762 Y17.8240
G01 X-45.7907 Y17.8753
G01 X-45.7088 Y17.9363
G01 X-45.6351 Y18.0034
G01 X-45.5699 Y18.0755
G01 X-45.5119 Y18.1535
G01 X-45.4592 Y18.2410
G01 X-45.4157 Y18.3334
G01 X-45.3831 Y18.4250
G01 X-45.3594 Y18.5193
G01 X-45.3441 Y18.6215
G01 X-45.3393 Y18.7198
G01 X-45.3393 Y20.6502
G01 X-45.3440 Y20.7473
G01 X-45.3588 Y20.8483
G01 X-45.3831 Y20.9450
G01 X-45.4166 Y21.0389
G01 X-45.4587 Y21.1279
G01 X-45.5105 Y21.2145
G01 X-45.5691 Y21.2936
G01 X-45.6359 Y21.3675
G01 X-45.6697 Y21.3983
G01 X-45.6697 Y21.9075
G01 X-45.6730 Y21.9747
G01 X-45.6829 Y22.0412
G01 X-45.6992 Y22.1064
G01 X-45.7218 Y22.1698
G01 X-45.7495 Y22.2284
G01 X-45.7866 Y22.2902
G01 X-45.8252 Y22.3423
G01 X-45.8704 Y22.3921
G01 X-48.7279 Y25.2496
G01 X-48.7777 Y25.2948
G01 X-48.8318 Y25.3348
G01 X-48.8894 Y25.3694
G01 X-48.9502 Y25.3982
G01 X-49.0136 Y25.4208
G01 X-49.0788 Y25.4371
G01 X-49.1453 Y25.4470
G01 X-49.2125 Y25.4503
G01 X-63.5336 Y25.4503
G01 X-64.0847 Y26.0014
G01 X-64.0847 Y32.7250
G01 X-63.6424 Y33.1672
G01 X-63.6384 Y33.1718
G01 X-63.6349 Y33.1769
G01 X-63.6321 Y33.1823
G01 X-63.6303 Y33.1869
G01 X-63.6283 Y33.1953
G01 X-63.6278 Y33.2026
G01 X-63.6278 Y34.1074
G01 X-63.6288 Y34.1172
G01 X-63.6316 Y34.1265
G01 X-63.6362 Y34.1352
G01 X-63.6424 Y34.1428
G01 X-64.2822 Y34.7826
G01 X-64.2898 Y34.7888
G01 X-64.2985 Y34.7934
G01 X-64.3078 Y34.7962
G01 X-64.3176 Y34.7972
G01 X-65.2224 Y34.7972
G01 X-65.2322 Y34.7962
G01 X-65.2415 Y34.7934
G01 X-65.2502 Y34.7888
G01 X-65.2578 Y34.7826
G01 X-65.8976 Y34.1428
G01 X-65.9038 Y34.1352
G01 X-65.9084 Y34.1265
G01 X-65.9112 Y34.1172
G01 X-65.9122 Y34.1074
G01 X-65.9122 Y33.2026
G01 X-65.9112 Y33.1928
G01 X-65.9084 Y33.1835
G01 X-65.9038 Y33.1748
G01 X-65.8976 Y33.1672
G00 Z2.0000
G00 X-65.5137 Y32.6816
G01 F60.00
G01 Z-0.0700
G01 F120.00
G01 X-65.5150 Y32.6873
G01 X-65.5165 Y32.6918
G01 X-65.5212 Y32.7014
G01 X-65.5243 Y32.7094
G01 X-65.5266 Y32.7139
G01 X-65.5357 Y32.7282
G01 X-65.5436 Y32.7371
G01 X-65.5510 Y32.7465
G01 X-65.9647 Y33.1601
G01 X-65.9647 Y34.1499
G01 X-65.2649 Y34.8497
G01 X-64.2751 Y34.8497
G01 X-63.5753 Y34.1499
G01 X-63.5753 Y33.1601
G01 X-63.9907 Y32.7446
G01 X-63.9969 Y32.7362
G01 X-64.0081 Y32.7227
G01 X-64.0159 Y32.7091
G01 X-64.0186 Y32.7035
G01 X-64.0218 Y32.6941
G01 X-64.0260 Y32.6838
G01 X-64.0296 Y32.6692
G01 X-64.0307 Y32.6631
G01 X-64.0312 Y32.6531
G01 X-64.0324 Y32.6425
G01 X-64.0325 Y26.0857
G01 X-64.0323 Y26.0809
G01 X-64.0309 Y26.0718
G01 X-64.0292 Y26.0541
G01 X-64.0250 Y26.0386
G01 X-64.0235 Y26.0341
G01 X-64.0187 Y26.0244
G01 X-64.0151 Y26.0153
G01 X-64.0121 Y26.0098
G01 X-64.0037 Y25.9969
G01 X-63.9964 Y25.9888
G01 X-63.9898 Y25.9803
G01 X-63.5565 Y25.5468
G01 X-63.5528 Y25.5435
G01 X-63.5453 Y25.5381
G01 X-63.5330 Y25.5278
G01 X-63.5281 Y25.5246
G01 X-63.5147 Y25.5173
G01 X-63.4917 Y25.5086
G01 X-63.4735 Y25.5045
G01 X-63.4622 Y25.5038
G01 X-63.4539 Y25.5027
G01 X-63.4493 Y25.5025
G01 X-49.0658 Y25.5025
G01 X-48.7947 Y25.3902
G01 X-45.7298 Y22.3253
G01 X-45.6175 Y22.0542
G01 X-45.6175 Y21.4842
G01 X-45.6171 Y21.4794
G01 X-45.6159 Y21.4715
G01 X-45.6144 Y21.4550
G01 X-45.6100 Y21.4383
G01 X-45.6075 Y21.4316
G01 X-45.6038 Y21.4242
G01 X-45.6002 Y21.4151
G01 X-45.5978 Y21.4106
G01 X-45.5893 Y21.3974
G01 X-45.5814 Y21.3885
G01 X-45.5756 Y21.3809
G01 X-45.4499 Y21.2550
G01 X-45.2873 Y20.8626
G01 X-45.2873 Y18.5074
G01 X-45.4499 Y18.1150
G01 X-45.7502 Y17.8147
G01 X-46.1426 Y17.6521
G01 X-46.5674 Y17.6521
G01 X-46.9598 Y17.8147
G01 X-47.2601 Y18.1150
G01 X-47.4227 Y18.5074
G01 X-47.4227 Y20.8626
G01 X-47.2601 Y21.2550
G01 X-47.1351 Y21.3800
G01 X-47.1281 Y21.3894
G01 X-47.1169 Y21.4029
G01 X-47.1069 Y21.4209
G01 X-47.1032 Y21.4315
G01 X-47.0990 Y21.4418
G01 X-47.0954 Y21.4564
G01 X-47.0943 Y21.4625
G01 X-47.0938 Y21.4724
G01 X-47.0925 Y21.4843
G01 X-47.0927 Y21.5441
G01 X-47.0941 Y21.5532
G01 X-47.0958 Y21.5709
G01 X-47.1000 Y21.5864
G01 X-47.1015 Y21.5909
G01 X-47.1063 Y21.6006
G01 X-47.1104 Y21.6108
G01 X-47.1185 Y21.6240
G01 X-47.1221 Y21.6291
G01 X-47.1286 Y21.6362
G01 X-47.1336 Y21.6428
G01 X-47.1368 Y21.6465
G01 X-49.4735 Y23.9832
G01 X-49.4782 Y23.9872
G01 X-49.4847 Y23.9919
G01 X-49.4951 Y24.0008
G01 X-49.5009 Y24.0048
G01 X-49.5153 Y24.0127
