(G-CODE GENERATED BY FLATCAM v8.994 - www.flatcam.org - Version Date: 2020/11/7)

(Name: copper_bottom.gbr_cutout_cnc)
(Type: G-code from Geometry)
(Units: MM)

(Created on Wednesday, 10 December 2025 at 07:45)

(This preprocessor is the default preprocessor used by FlatCAM.)
(It is made to work with MACH3 compatible motion controllers.)

(TOOL DIAMETER: 1.8 mm)
(Feedrate_XY: 120.0 mm/min)
(Feedrate_Z: 60.0 mm/min)
(Feedrate rapids 1500.0 mm/min)

(Z_Cut: -1.8 mm)
(Z_Move: 2.0 mm)
(Z Start: None mm)
(Z End: 1.0 mm)
(X,Y End: 0.0000, 0.0000 mm)
(Steps per circle: 64)
(Preprocessor Geometry: Default_no_M6)

(X range:  -99.7881 ...   -0.0923  mm)
(Y range:    0.0923 ...   50.2481  mm)

(Spindle Speed: 10000.0 RPM)
G21
G90
G94

G01 F120.00

M5
G00 Z15.0000
G00 X0.0000 Y0.0000
T1
(MSG, Change to Tool Dia = 1.8000)
M0
G00 Z15.0000
        
M03 S10000.0
G01 F120.00
G00 X-1.0923 Y0.0923
G01 F60.00
G01 Z-1.8000
G01 F120.00
G01 X-98.7881 Y0.0923
G01 X-98.8861 Y0.0971
G01 X-98.9832 Y0.1115
G01 X-99.0784 Y0.1354
G01 X-99.1708 Y0.1684
G01 X-99.2595 Y0.2104
G01 X-99.3437 Y0.2608
G01 X-99.4225 Y0.3193
G01 X-99.4952 Y0.3852
G01 X-99.5611 Y0.4579
G01 X-99.6196 Y0.5367
G01 X-99.6700 Y0.6209
G01 X-99.7120 Y0.7096
G01 X-99.7451 Y0.8020
G01 X-99.7689 Y0.8972
G01 X-99.7833 Y0.9943
G01 X-99.7881 Y1.0923
G01 X-99.7881 Y49.2481
G01 X-99.7833 Y49.3461
G01 X-99.7689 Y49.4432
G01 X-99.7451 Y49.5384
G01 X-99.7120 Y49.6308
G01 X-99.6700 Y49.7195
G01 X-99.6196 Y49.8037
G01 X-99.5611 Y49.8825
G01 X-99.4952 Y49.9552
G01 X-99.4225 Y50.0211
G01 X-99.3437 Y50.0796
G01 X-99.2595 Y50.1300
G01 X-99.1708 Y50.1720
G01 X-99.0784 Y50.2051
G01 X-98.9832 Y50.2289
G01 X-98.8861 Y50.2433
G01 X-98.7881 Y50.2481
G01 X-1.0923 Y50.2481
G01 X-0.9943 Y50.2433
G01 X-0.8972 Y50.2289
G01 X-0.8020 Y50.2051
G01 X-0.7096 Y50.1720
G01 X-0.6209 Y50.1300
G01 X-0.5367 Y50.0796
G01 X-0.4579 Y50.0211
G01 X-0.3852 Y49.9552
G01 X-0.3193 Y49.8825
G01 X-0.2608 Y49.8037
G01 X-0.2104 Y49.7195
G01 X-0.1684 Y49.6308
G01 X-0.1354 Y49.5384
G01 X-0.1115 Y49.4432
G01 X-0.0971 Y49.3461
G01 X-0.0923 Y49.2481
G01 X-0.0923 Y1.0923
G01 X-0.0971 Y0.9943
G01 X-0.1115 Y0.8972
G01 X-0.1354 Y0.8020
G01 X-0.1684 Y0.7096
G01 X-0.2104 Y0.6209
G01 X-0.2608 Y0.5367
G01 X-0.3193 Y0.4579
G01 X-0.3852 Y0.3852
G01 X-0.4579 Y0.3193
G01 X-0.5367 Y0.2608
G01 X-0.6209 Y0.2104
G01 X-0.7096 Y0.1684
G01 X-0.8020 Y0.1354
G01 X-0.8972 Y0.1115
G01 X-0.9943 Y0.0971
G01 X-1.0923 Y0.0923
G00 Z2.0000
M05
G00 Z2.0000
G00 Z1.00
G00 X0.0 Y0.0


