(G-CODE GENERATED BY FLATCAM v8.994 - www.flatcam.org - Version Date: 2020/11/7)

(Name: drills_1_16.xln_cnc)
(Type: G-code from Geometry)
(Units: MM)

(Created on Tuesday, 09 December 2025 at 13:26)

(This preprocessor is the default preprocessor used by FlatCAM.)
(It is made to work with MACH3 compatible motion controllers.)


(TOOLS DIAMETER: )
(Tool: 1 -> Dia: 0.6)
(Tool: 2 -> Dia: 0.813)
(Tool: 3 -> Dia: 1.016)
(Tool: 4 -> Dia: 1.651)

(FEEDRATE Z: )
(Tool: 1 -> Feedrate: 300)
(Tool: 2 -> Feedrate: 300)
(Tool: 3 -> Feedrate: 300)
(Tool: 4 -> Feedrate: 300)

(FEEDRATE RAPIDS: )
(Tool: 1 -> Feedrate Rapids: 1500)
(Tool: 2 -> Feedrate Rapids: 1500)
(Tool: 3 -> Feedrate Rapids: 1500)
(Tool: 4 -> Feedrate Rapids: 1500)

(Z_CUT: )
(Tool: 1 -> Z_Cut: -2.0)
(Tool: 2 -> Z_Cut: -2.0)
(Tool: 3 -> Z_Cut: -2.0)
(Tool: 4 -> Z_Cut: -2.0)

(Tools Offset: )
(Tool: 1 -> Offset Z: 0.0)
(Tool: 2 -> Offset Z: 0.0)
(Tool: 3 -> Offset Z: 0.0)
(Tool: 4 -> Offset Z: 0.0)

(Z_MOVE: )
(Tool: 1 -> Z_Move: 2)
(Tool: 2 -> Z_Move: 2)
(Tool: 3 -> Z_Move: 2)
(Tool: 4 -> Z_Move: 2)

(Z Toolchange: 1.0 mm)
(X,Y Toolchange: 0.0000, 0.0000 mm)
(Z Start: None mm)
(Z End: 1.0 mm)
(X,Y End: 0.0000, 0.0000 mm)
(Steps per circle: 64)
(Preprocessor Excellon: Default_no_M6)

(X range:  -91.7400 ...   -5.6255  mm)
(Y range:    3.6195 ...   43.4800  mm)

(Spindle Speed: 10000 RPM)
G21
G90
G94

G01 F300.00

M5
G00 Z1.0000
T1
G00 X0.0000 Y0.0000                
(MSG, Change to Tool Dia = 0.6000 ||| Total drills for tool T1 = 84)
M0
G00 Z1.0000
        
G01 F300.00
M03 S10000
G00 X-29.5270 Y42.5450
G01 Z-2.0000
G01 Z0
G00 Z2.0000
G00 X-26.9870 Y42.5450
G01 Z-2.0000
G01 Z0
G00 Z2.0000
G00 X-24.4470 Y42.5450
G01 Z-2.0000
G01 Z0
G00 Z2.0000
G00 X-17.4630 Y43.1800
G01 Z-2.0000
G01 Z0
G00 Z2.0000
G00 X-14.9220 Y43.1800
G01 Z-2.0000
G01 Z0
G00 Z2.0000
G00 X-8.5730 Y43.1800
G01 Z-2.0000
G01 Z0
G00 Z2.0000
G00 X-6.0320 Y43.1800
G01 Z-2.0000
G01 Z0
G00 Z2.0000
G00 X-6.0320 Y36.1950
G01 Z-2.0000
G01 Z0
G00 Z2.0000
G00 X-10.4780 Y36.1950
G01 Z-2.0000
G01 Z0
G00 Z2.0000
G00 X-6.0320 Y27.3050
G01 Z-2.0000
G01 Z0
G00 Z2.0000
G00 X-10.4780 Y27.3050
G01 Z-2.0000
G01 Z0
G00 Z2.0000
G00 X-15.8750 Y16.8280
G01 Z-2.0000
G01 Z0
G00 Z2.0000
G00 X-15.8750 Y7.9370
G01 Z-2.0000
G01 Z0
G00 Z2.0000
G00 X-20.9550 Y4.4450
G01 Z-2.0000
G01 Z0
G00 Z2.0000
G00 X-23.4950 Y4.4450
G01 Z-2.0000
G01 Z0
G00 Z2.0000
G00 X-26.0350 Y4.4450
G01 Z-2.0000
G01 Z0
G00 Z2.0000
G00 X-28.5750 Y4.4450
G01 Z-2.0000
G01 Z0
G00 Z2.0000
G00 X-31.1150 Y4.4450
G01 Z-2.0000
G01 Z0
G00 Z2.0000
G00 X-33.6550 Y4.4450
G01 Z-2.0000
G01 Z0
G00 Z2.0000
G00 X-36.1950 Y4.4450
G01 Z-2.0000
G01 Z0
G00 Z2.0000
G00 X-38.7350 Y4.4450
G01 Z-2.0000
G01 Z0
G00 Z2.0000
G00 X-41.2750 Y4.4450
G01 Z-2.0000
G01 Z0
G00 Z2.0000
G00 X-43.8150 Y4.4450
G01 Z-2.0000
G01 Z0
G00 Z2.0000
G00 X-46.3550 Y4.4450
G01 Z-2.0000
G01 Z0
G00 Z2.0000
G00 X-48.8950 Y4.4450
G01 Z-2.0000
G01 Z0
G00 Z2.0000
G00 X-51.4350 Y4.4450
G01 Z-2.0000
G01 Z0
G00 Z2.0000
G00 X-53.9750 Y4.4450
G01 Z-2.0000
G01 Z0
G00 Z2.0000
G00 X-56.5150 Y4.4450
G01 Z-2.0000
G01 Z0
G00 Z2.0000
G00 X-59.0550 Y4.4450
G01 Z-2.0000
G01 Z0
G00 Z2.0000
G00 X-61.5950 Y4.4450
G01 Z-2.0000
G01 Z0
G00 Z2.0000
G00 X-66.9930 Y12.3820
G01 Z-2.0000
G01 Z0
G00 Z2.0000
G00 X-74.9300 Y12.7000
G01 Z-2.0000
G01 Z0
G00 Z2.0000
G00 X-83.8200 Y12.7000
G01 Z-2.0000
G01 Z0
G00 Z2.0000
G00 X-90.8050 Y4.4450
G01 Z-2.0000
G01 Z0
G00 Z2.0000
G00 X-90.8050 Y6.9850
G01 Z-2.0000
G01 Z0
G00 Z2.0000
G00 X-91.4400 Y14.6050
G01 Z-2.0000
G01 Z0
G00 Z2.0000
G00 X-91.4400 Y17.1450
G01 Z-2.0000
G01 Z0
G00 Z2.0000
G00 X-91.4400 Y19.6850
G01 Z-2.0000
G01 Z0
G00 Z2.0000
G00 X-83.8200 Y19.0500
G01 Z-2.0000
G01 Z0
G00 Z2.0000
G00 X-74.9300 Y19.0500
G01 Z-2.0000
G01 Z0
G00 Z2.0000
G00 X-66.9930 Y21.2730
G01 Z-2.0000
G01 Z0
G00 Z2.0000
G00 X-61.5950 Y19.6850
G01 Z-2.0000
G01 Z0
G00 Z2.0000
G00 X-59.0550 Y19.6850
G01 Z-2.0000
G01 Z0
G00 Z2.0000
G00 X-56.5150 Y19.6850
G01 Z-2.0000
G01 Z0
G00 Z2.0000
G00 X-53.9750 Y19.6850
G01 Z-2.0000
G01 Z0
G00 Z2.0000
G00 X-51.4350 Y19.6850
G01 Z-2.0000
G01 Z0
G00 Z2.0000
G00 X-48.8950 Y19.6850
G01 Z-2.0000
G01 Z0
G00 Z2.0000
G00 X-46.3550 Y19.6850
G01 Z-2.0000
G01 Z0
G00 Z2.0000
G00 X-43.8150 Y19.6850
G01 Z-2.0000
G01 Z0
G00 Z2.0000
G00 X-41.2750 Y19.6850
G01 Z-2.0000
G01 Z0
G00 Z2.0000
G00 X-38.7350 Y19.6850
G01 Z-2.0000
G01 Z0
G00 Z2.0000
G00 X-36.1950 Y19.6850
G01 Z-2.0000
G01 Z0
G00 Z2.0000
G00 X-33.6550 Y19.6850
G01 Z-2.0000
G01 Z0
G00 Z2.0000
G00 X-31.1150 Y19.6850
G01 Z-2.0000
G01 Z0
G00 Z2.0000
G00 X-28.5750 Y19.6850
G01 Z-2.0000
G01 Z0
G00 Z2.0000
G00 X-26.0350 Y19.6850
G01 Z-2.0000
G01 Z0
G00 Z2.0000
G00 X-23.4950 Y19.6850
G01 Z-2.0000
G01 Z0
G00 Z2.0000
G00 X-20.9550 Y19.6850
G01 Z-2.0000
G01 Z0
G00 Z2.0000
G00 X-20.9550 Y27.6220
G01 Z-2.0000
G01 Z0
G00 Z2.0000
G00 X-24.4470 Y27.6220
G01 Z-2.0000
G01 Z0
G00 Z2.0000
G00 X-20.9550 Y36.5130
G01 Z-2.0000
G01 Z0
G00 Z2.0000
G00 X-24.4470 Y36.5130
G01 Z-2.0000
G01 Z0
G00 Z2.0000
G00 X-27.9400 Y33.3380
G01 Z-2.0000
G01 Z0
G00 Z2.0000
G00 X-36.8300 Y33.3380
G01 Z-2.0000
G01 Z0
G00 Z2.0000
G00 X-42.8630 Y36.8300
G01 Z-2.0000
G01 Z0
G00 Z2.0000
G00 X-42.8630 Y33.6550
G01 Z-2.0000
G01 Z0
G00 Z2.0000
G00 X-51.7520 Y33.6550
G01 Z-2.0000
G01 Z0
G00 Z2.0000
G00 X-51.7520 Y36.8300
G01 Z-2.0000
G01 Z0
G00 Z2.0000
G00 X-64.4520 Y36.8300
G01 Z-2.0000
G01 Z0
G00 Z2.0000
G00 X-64.7700 Y33.6550
G01 Z-2.0000
G01 Z0
G00 Z2.0000
G00 X-73.6600 Y33.6550
G01 Z-2.0000
G01 Z0
G00 Z2.0000
G00 X-73.3430 Y36.8300
G01 Z-2.0000
G01 Z0
G00 Z2.0000
G00 X-85.4080 Y43.1800
G01 Z-2.0000
G01 Z0
G00 Z2.0000
G00 X-87.9470 Y43.1800
G01 Z-2.0000
G01 Z0
G00 Z2.0000
G00 X-77.1530 Y42.5450
G01 Z-2.0000
G01 Z0
G00 Z2.0000
G00 X-74.6130 Y42.5450
G01 Z-2.0000
G01 Z0
G00 Z2.0000
G00 X-72.0730 Y42.5450
G01 Z-2.0000
G01 Z0
G00 Z2.0000
G00 X-64.1350 Y42.8630
G01 Z-2.0000
G01 Z0
G00 Z2.0000
G00 X-61.5950 Y42.8630
G01 Z-2.0000
G01 Z0
G00 Z2.0000
G00 X-53.0220 Y42.5450
G01 Z-2.0000
G01 Z0
G00 Z2.0000
G00 X-50.4820 Y42.5450
G01 Z-2.0000
G01 Z0
G00 Z2.0000
G00 X-47.9420 Y42.5450
G01 Z-2.0000
G01 Z0
G00 Z2.0000
G00 X-40.3230 Y43.1800
G01 Z-2.0000
G01 Z0
G00 Z2.0000
G00 X-37.7830 Y43.1800
G01 Z-2.0000
G01 Z0
G00 Z2.0000
M05
G00 Z1.00
G00 X0.0 Y0.0


